; generated by Slic3r 1.0.0RC1 on 2013-12-28 at 16:04:39

; layer_height = 0.25
; perimeters = 1
; top_solid_layers = 2
; bottom_solid_layers = 3
; fill_density = 0.4
; perimeter_speed = 30
; infill_speed = 60
; travel_speed = 130
; nozzle_diameter = 0.35
; filament_diameter = 1.75
; extrusion_multiplier = 1
; perimeters extrusion width = 0.35mm
; infill extrusion width = 0.39mm
; solid infill extrusion width = 0.39mm
; top infill extrusion width = 0.39mm
; support material extrusion width = 0.35mm
; first layer extrusion width = 0.70mm

G21 ; set units to millimeters
M107
M104 S220 ; set temperature
G28 ; home all axes
G1 Z5 F5000 ; lift nozzle

M109 S220 ; wait for temperature to be reached
G90 ; use absolute coordinates
G92 E0
M82 ; use absolute distances for extrusion
G1 F1800.000 E-1.00000
G92 E0
G1 Z0.350 F7800.000
G1 X140.320 Y137.820 F7800.000
G1 E1.00000 F1800.000
G1 X141.320 Y136.990 E1.11817 F540.000
G1 X142.460 Y136.380 E1.23574
G1 X143.710 Y136.000 E1.35453
G1 X145.000 Y135.880 E1.47234
G1 X155.000 Y135.880 E2.38164
G1 X156.290 Y136.000 E2.49944
G1 X157.540 Y136.380 E2.61824
G1 X158.680 Y136.990 E2.73581
G1 X159.680 Y137.820 E2.85398
G1 X160.510 Y138.820 E2.97215
G1 X161.120 Y139.960 E3.08971
G1 X161.500 Y141.210 E3.20851
G1 X161.620 Y142.500 E3.32632
G1 X161.620 Y157.500 E4.69026
G1 X161.500 Y158.790 E4.80807
G1 X161.120 Y160.040 E4.92686
G1 X160.510 Y161.180 E5.04443
G1 X159.680 Y162.180 E5.16260
G1 X158.680 Y163.010 E5.28077
G1 X157.540 Y163.620 E5.39834
G1 X156.290 Y164.000 E5.51714
G1 X155.000 Y164.120 E5.63494
G1 X145.000 Y164.120 E6.54424
G1 X143.710 Y164.000 E6.66204
G1 X142.460 Y163.620 E6.78084
G1 X141.320 Y163.010 E6.89841
G1 X140.320 Y162.180 E7.01658
G1 X139.490 Y161.180 E7.13475
G1 X138.880 Y160.040 E7.25231
G1 X138.500 Y158.790 E7.37111
G1 X138.380 Y157.500 E7.48892
G1 X138.380 Y142.500 E8.85286
G1 X138.500 Y141.210 E8.97067
G1 X138.880 Y139.960 E9.08946
G1 X139.490 Y138.820 E9.20703
G1 X140.260 Y137.892 E9.31668
G1 F1800.000 E8.31668
G92 E0
G1 X145.350 Y142.850 F7800.000
G1 E1.00000 F1800.000
G1 X154.650 Y142.850 E1.84565 F378.000
G1 X154.650 Y157.150 E3.14594
G1 X145.350 Y157.150 E3.99158
G1 X145.350 Y142.944 E5.28335
G1 X154.165 Y143.271 F7800.000
G1 X154.229 Y143.335 E5.29183 F1080.000
G1 X154.229 Y144.243 E5.37663
G1 X153.257 Y143.271 E5.50504
G1 X152.349 Y143.271 E5.58984
G1 X154.229 Y145.151 E5.83816
G1 X154.229 Y146.059 E5.92296
G1 X151.441 Y143.271 E6.29122
G1 X150.534 Y143.271 E6.37602
G1 X154.229 Y146.966 E6.86420
G1 X154.229 Y147.874 E6.94900
G1 X149.626 Y143.271 E7.55710
G1 X148.718 Y143.271 E7.64190
G1 X154.229 Y148.782 E8.36993
G1 X154.229 Y149.690 E8.45473
G1 X147.810 Y143.271 E9.30269
G1 X146.902 Y143.271 E9.38749
G1 X154.229 Y150.598 E10.35537
G1 X154.229 Y151.506 E10.44017
G1 X145.994 Y143.271 E11.52798
G1 X145.771 Y143.955 E11.59522
G1 X154.229 Y152.413 E12.71255
G1 X154.229 Y153.321 E12.79735
G1 X145.771 Y144.863 E13.91468
G1 X145.771 Y145.771 E13.99948
G1 X154.229 Y154.229 E15.11681
G1 X154.229 Y155.137 E15.20161
G1 X145.771 Y146.679 E16.31894
G1 X145.771 Y147.587 E16.40374
G1 X154.229 Y156.045 E17.52107
G1 X154.006 Y156.729 E17.58832
G1 X145.771 Y148.494 E18.67613
G1 X145.771 Y149.402 E18.76093
G1 X153.098 Y156.729 E19.72881
G1 X152.190 Y156.729 E19.81361
G1 X145.771 Y150.310 E20.66157
G1 X145.771 Y151.218 E20.74637
G1 X151.282 Y156.729 E21.47440
G1 X150.374 Y156.729 E21.55920
G1 X145.771 Y152.126 E22.16730
G1 X145.771 Y153.034 E22.25210
G1 X149.466 Y156.729 E22.74029
G1 X148.559 Y156.729 E22.82509
G1 X145.771 Y153.941 E23.19334
G1 X145.771 Y154.849 E23.27814
G1 X147.651 Y156.729 E23.52647
G1 X146.743 Y156.729 E23.61127
G1 X145.771 Y155.757 E23.73968
G1 X145.771 Y156.665 E23.82448
G1 X145.835 Y156.729 E23.83296
M106 S255
M104 S220 ; set temperature
G1 F1800.000 E22.83296
G92 E0
G1 Z0.600 F7800.000
G1 X145.175 Y157.325 F7800.000
G1 E1.00000 F1800.000
G1 X145.175 Y142.675 E1.53294 F600.000
G1 X154.825 Y142.675 E1.88399
G1 X154.825 Y157.325 E2.41693
G1 X145.227 Y157.325 E2.76607
G1 X154.583 Y157.044 F7800.000
G1 X154.544 Y157.083 E2.76833 F986.315
G1 X153.990 Y157.083 E2.79086
G1 X154.583 Y156.490 E2.82497
G1 X154.583 Y155.937 E2.84750
G1 X153.437 Y157.083 E2.91347
G1 X152.883 Y157.083 E2.93600
G1 X154.583 Y155.383 E3.03384
G1 X154.583 Y154.829 E3.05637
G1 X152.329 Y157.083 E3.18607
G1 X151.776 Y157.083 E3.20860
G1 X154.583 Y154.276 E3.37015
G1 X154.583 Y153.722 E3.39268
G1 X151.222 Y157.083 E3.58610
G1 X150.668 Y157.083 E3.60863
G1 X154.583 Y153.168 E3.83391
G1 X154.583 Y152.615 E3.85644
G1 X150.115 Y157.083 E4.11358
G1 X149.561 Y157.083 E4.13611
G1 X154.583 Y152.061 E4.42512
G1 X154.583 Y151.507 E4.44764
G1 X149.007 Y157.083 E4.76851
G1 X148.454 Y157.083 E4.79104
G1 X154.583 Y150.954 E5.14376
G1 X154.583 Y150.400 E5.16629
G1 X147.900 Y157.083 E5.55088
G1 X147.346 Y157.083 E5.57341
G1 X154.583 Y149.846 E5.98985
G1 X154.583 Y149.293 E6.01238
G1 X146.793 Y157.083 E6.46069
G1 X146.239 Y157.083 E6.48322
G1 X154.583 Y148.739 E6.96339
G1 X154.583 Y148.185 E6.98592
G1 X145.685 Y157.083 E7.49795
G1 X145.417 Y156.798 E7.51389
G1 X154.583 Y147.632 E8.04136
G1 X154.583 Y147.078 E8.06389
G1 X145.417 Y156.244 E8.59136
G1 X145.417 Y155.690 E8.61388
G1 X154.583 Y146.524 E9.14135
G1 X154.583 Y145.971 E9.16388
G1 X145.417 Y155.137 E9.69135
G1 X145.417 Y154.583 E9.71388
G1 X154.583 Y145.417 E10.24135
G1 X154.583 Y144.863 E10.26388
G1 X145.417 Y154.029 E10.79135
G1 X145.417 Y153.476 E10.81388
G1 X154.583 Y144.310 E11.34135
G1 X154.583 Y143.756 E11.36388
G1 X145.417 Y152.922 E11.89135
G1 X145.417 Y152.368 E11.91388
G1 X154.583 Y143.202 E12.44135
G1 X154.315 Y142.917 E12.45729
G1 X145.417 Y151.815 E12.96932
G1 X145.417 Y151.261 E12.99184
G1 X153.761 Y142.917 E13.47201
G1 X153.207 Y142.917 E13.49454
G1 X145.417 Y150.707 E13.94285
G1 X145.417 Y150.154 E13.96538
G1 X152.654 Y142.917 E14.38183
G1 X152.100 Y142.917 E14.40435
G1 X145.417 Y149.600 E14.78894
G1 X145.417 Y149.046 E14.81147
G1 X151.546 Y142.917 E15.16419
G1 X150.993 Y142.917 E15.18672
G1 X145.417 Y148.493 E15.50759
G1 X145.417 Y147.939 E15.53011
G1 X150.439 Y142.917 E15.81912
G1 X149.885 Y142.917 E15.84165
G1 X145.417 Y147.385 E16.09879
G1 X145.417 Y146.832 E16.12132
G1 X149.332 Y142.917 E16.34660
G1 X148.778 Y142.917 E16.36913
G1 X145.417 Y146.278 E16.56254
G1 X145.417 Y145.724 E16.58507
G1 X148.224 Y142.917 E16.74663
G1 X147.671 Y142.917 E16.76916
G1 X145.417 Y145.171 E16.89886
G1 X145.417 Y144.617 E16.92139
G1 X147.117 Y142.917 E17.01922
G1 X146.563 Y142.917 E17.04175
G1 X145.417 Y144.063 E17.10773
G1 X145.417 Y143.510 E17.13026
G1 X146.010 Y142.917 E17.16437
G1 X145.456 Y142.917 E17.18690
G1 X145.417 Y142.956 E17.18915
G1 F1800.000 E16.18915
G92 E0
G1 Z0.850 F7800.000
G1 X145.175 Y142.675 F7800.000
G1 E1.00000 F1800.000
G1 X154.825 Y142.675 E1.35105 F600.000
G1 X154.825 Y157.325 E1.88399
G1 X145.175 Y157.325 E2.23504
G1 X145.175 Y142.727 E2.76607
G1 X154.544 Y142.917 F7800.000
G1 X154.583 Y142.956 E2.76833 F986.963
G1 X154.583 Y143.510 E2.79086
G1 X153.990 Y142.917 E2.82497
G1 X153.437 Y142.917 E2.84750
G1 X154.583 Y144.063 E2.91347
G1 X154.583 Y144.617 E2.93600
G1 X152.883 Y142.917 E3.03384
G1 X152.329 Y142.917 E3.05637
G1 X154.583 Y145.171 E3.18606
G1 X154.583 Y145.724 E3.20859
G1 X151.776 Y142.917 E3.37015
G1 X151.222 Y142.917 E3.39268
G1 X154.583 Y146.278 E3.58610
G1 X154.583 Y146.832 E3.60863
G1 X150.668 Y142.917 E3.83391
G1 X150.115 Y142.917 E3.85644
G1 X154.583 Y147.385 E4.11358
G1 X154.583 Y147.939 E4.13611
G1 X149.561 Y142.917 E4.42511
G1 X149.007 Y142.917 E4.44764
G1 X154.583 Y148.493 E4.76850
G1 X154.583 Y149.046 E4.79103
G1 X148.454 Y142.917 E5.14376
G1 X147.900 Y142.917 E5.16629
G1 X154.583 Y149.600 E5.55087
G1 X154.583 Y150.154 E5.57340
G1 X147.346 Y142.917 E5.98985
G1 X146.793 Y142.917 E6.01238
G1 X154.583 Y150.707 E6.46068
G1 X154.583 Y151.261 E6.48321
G1 X146.239 Y142.917 E6.96338
G1 X145.685 Y142.917 E6.98591
G1 X154.583 Y151.815 E7.49794
G1 X154.583 Y152.368 E7.52047
G1 X145.417 Y143.202 E8.04794
G1 X145.417 Y143.756 E8.07047
G1 X154.583 Y152.922 E8.59794
G1 X154.583 Y153.476 E8.62047
G1 X145.417 Y144.310 E9.14794
G1 X145.417 Y144.863 E9.17047
G1 X154.583 Y154.029 E9.69794
G1 X154.583 Y154.583 E9.72047
G1 X145.417 Y145.417 E10.24794
G1 X145.417 Y145.971 E10.27046
G1 X154.583 Y155.137 E10.79793
G1 X154.583 Y155.690 E10.82046
G1 X145.417 Y146.524 E11.34793
G1 X145.417 Y147.078 E11.37046
G1 X154.583 Y156.244 E11.89793
G1 X154.583 Y156.798 E11.92046
G1 X145.417 Y147.632 E12.44793
G1 X145.417 Y148.185 E12.47046
G1 X154.315 Y157.083 E12.98249
G1 X153.761 Y157.083 E13.00502
G1 X145.417 Y148.739 E13.48519
G1 X145.417 Y149.293 E13.50772
G1 X153.207 Y157.083 E13.95603
G1 X152.654 Y157.083 E13.97855
G1 X145.417 Y149.846 E14.39500
G1 X145.417 Y150.400 E14.41753
G1 X152.100 Y157.083 E14.80212
G1 X151.546 Y157.083 E14.82465
G1 X145.417 Y150.954 E15.17737
G1 X145.417 Y151.507 E15.19990
G1 X150.993 Y157.083 E15.52076
G1 X150.439 Y157.083 E15.54329
G1 X145.417 Y152.061 E15.83230
G1 X145.417 Y152.615 E15.85482
G1 X149.885 Y157.083 E16.11197
G1 X149.332 Y157.083 E16.13450
G1 X145.417 Y153.168 E16.35978
G1 X145.417 Y153.722 E16.38230
G1 X148.778 Y157.083 E16.57572
G1 X148.224 Y157.083 E16.59825
G1 X145.417 Y154.276 E16.75981
G1 X145.417 Y154.829 E16.78234
G1 X147.671 Y157.083 E16.91204
G1 X147.117 Y157.083 E16.93457
G1 X145.417 Y155.383 E17.03240
G1 X145.417 Y155.937 E17.05493
G1 X146.563 Y157.083 E17.12091
G1 X146.010 Y157.083 E17.14344
G1 X145.417 Y156.490 E17.17755
G1 X145.417 Y157.044 E17.20008
G1 X145.456 Y157.083 E17.20233
G1 F1800.000 E16.20233
G92 E0
G1 Z1.100 F7800.000
G1 X145.175 Y157.325 F7800.000
G1 E1.00000 F1800.000
G1 X145.175 Y142.675 E1.53294 F600.000
G1 X154.825 Y142.675 E1.88399
G1 X154.825 Y157.325 E2.41693
G1 X145.227 Y157.325 E2.76607
G1 X145.437 Y156.420 F7800.000
G1 X145.658 Y156.641 E2.77860 F640.101
G1 X146.302 Y156.469 E2.80527
G1 X146.897 Y157.063 E2.83892
G1 X147.441 Y157.063 E2.86069
G1 X146.574 Y156.196 E2.90973
G1 X146.747 Y155.553 E2.93639
G1 X145.804 Y154.610 E2.98972
G1 X145.437 Y154.708 E3.00493
G1 X145.437 Y152.882 E3.07798
G1 X146.249 Y153.694 E3.12391
G1 X146.076 Y154.338 E3.15058
G1 X147.019 Y155.280 E3.20390
G1 X147.663 Y155.108 E3.23057
G1 X148.605 Y156.051 E3.28389
G1 X148.433 Y156.694 E3.31055
G1 X148.802 Y157.063 E3.33142
G1 X148.257 Y157.063 E3.35319
G1 X148.161 Y156.967 E3.35867
G1 X147.799 Y157.063 E3.37363
G1 X150.326 Y157.063 F7800.000
G1 X150.464 Y156.549 E3.39495 F640.101
G1 X149.521 Y155.606 E3.44828
G1 X148.877 Y155.778 E3.47494
G1 X147.935 Y154.836 E3.52826
G1 X148.107 Y154.192 E3.55493
G1 X147.165 Y153.249 E3.60825
G1 X146.521 Y153.422 E3.63492
G1 X145.578 Y152.479 E3.68824
G1 X145.751 Y151.835 E3.71490
G1 X145.437 Y151.521 E3.73266
G1 X145.437 Y150.977 E3.75443
G1 X146.023 Y151.563 E3.78759
G1 X146.667 Y151.391 E3.81425
G1 X147.609 Y152.333 E3.86757
G1 X147.437 Y152.977 E3.89424
G1 X148.379 Y153.920 E3.94756
G1 X149.023 Y153.747 E3.97423
G1 X149.966 Y154.690 E4.02755
G1 X149.793 Y155.334 E4.05421
G1 X150.736 Y156.277 E4.10754
G1 X151.380 Y156.104 E4.13420
G1 X152.323 Y157.047 E4.18753
G1 X152.318 Y157.063 E4.18822
G1 X153.700 Y157.063 E4.24350
G1 X153.239 Y156.602 E4.26960
G1 X152.595 Y156.775 E4.29626
G1 X151.652 Y155.832 E4.34959
G1 X151.825 Y155.188 E4.37625
G1 X150.882 Y154.245 E4.42957
G1 X150.238 Y154.418 E4.45624
G1 X149.295 Y153.475 E4.50956
G1 X149.468 Y152.831 E4.53623
G1 X148.525 Y151.889 E4.58955
G1 X147.881 Y152.061 E4.61621
G1 X146.939 Y151.119 E4.66954
G1 X147.111 Y150.475 E4.69620
G1 X146.168 Y149.532 E4.74953
G1 X145.525 Y149.704 E4.77619
G1 X145.437 Y149.616 E4.78117
G1 X145.437 Y147.736 E4.85639
G1 X145.670 Y147.673 E4.86608
G1 X146.613 Y148.616 E4.91940
G1 X146.441 Y149.260 E4.94606
G1 X147.383 Y150.203 E4.99939
G1 X148.027 Y150.030 E5.02605
G1 X148.970 Y150.973 E5.07938
G1 X148.797 Y151.617 E5.10604
G1 X149.740 Y152.559 E5.15937
G1 X150.384 Y152.387 E5.18603
G1 X151.326 Y153.329 E5.23936
G1 X151.154 Y153.973 E5.26602
G1 X152.097 Y154.916 E5.31934
G1 X152.741 Y154.743 E5.34601
G1 X153.683 Y155.686 E5.39933
G1 X153.511 Y156.330 E5.42600
G1 X154.244 Y157.063 E5.46749
G1 X154.563 Y155.251 E5.54110
G1 X153.955 Y155.414 E5.56629
G1 X153.013 Y154.471 E5.61961
G1 X153.185 Y153.827 E5.64627
G1 X152.242 Y152.885 E5.69960
G1 X151.599 Y153.057 E5.72626
G1 X150.656 Y152.115 E5.77959
G1 X150.828 Y151.471 E5.80625
G1 X149.886 Y150.528 E5.85958
G1 X149.242 Y150.701 E5.88624
G1 X148.299 Y149.758 E5.93957
G1 X148.472 Y149.114 E5.96623
G1 X147.529 Y148.171 E6.01955
G1 X146.885 Y148.344 E6.04622
G1 X145.943 Y147.401 E6.09954
G1 X146.115 Y146.757 E6.12621
G1 X145.437 Y146.079 E6.16459
G1 X145.437 Y144.718 E6.21901
G1 X145.617 Y144.899 E6.22922
G1 X145.445 Y145.543 E6.25589
G1 X146.387 Y146.485 E6.30921
G1 X147.031 Y146.313 E6.33588
G1 X147.974 Y147.255 E6.38920
G1 X147.801 Y147.899 E6.41586
G1 X148.744 Y148.842 E6.46919
G1 X149.388 Y148.669 E6.49585
G1 X150.330 Y149.612 E6.54918
G1 X150.158 Y150.256 E6.57584
G1 X151.101 Y151.199 E6.62917
G1 X151.744 Y151.026 E6.65583
G1 X152.687 Y151.969 E6.70916
G1 X152.515 Y152.613 E6.73582
G1 X153.457 Y153.555 E6.78914
G1 X154.101 Y153.383 E6.81581
G1 X154.563 Y153.845 E6.84196
G1 X154.563 Y153.301 E6.86373
G1 X154.373 Y153.111 E6.87448
G1 X154.546 Y152.467 E6.90115
G1 X153.603 Y151.524 E6.95447
G1 X152.959 Y151.697 E6.98114
G1 X152.017 Y150.754 E7.03446
G1 X152.189 Y150.110 E7.06112
G1 X151.246 Y149.167 E7.11445
G1 X150.603 Y149.340 E7.14111
G1 X149.660 Y148.397 E7.19444
G1 X149.832 Y147.753 E7.22110
G1 X148.890 Y146.811 E7.27443
G1 X148.246 Y146.983 E7.30109
G1 X147.303 Y146.041 E7.35442
G1 X147.476 Y145.397 E7.38108
G1 X146.533 Y144.454 E7.43440
G1 X145.889 Y144.627 E7.46107
G1 X145.437 Y144.174 E7.48667
G1 X146.376 Y142.937 E7.54882
G1 X146.978 Y143.538 E7.58284
G1 X146.805 Y144.182 E7.60950
G1 X147.748 Y145.125 E7.66283
G1 X148.392 Y144.952 E7.68949
G1 X149.334 Y145.895 E7.74282
G1 X149.162 Y146.539 E7.76948
G1 X150.105 Y147.481 E7.82281
G1 X150.748 Y147.309 E7.84947
G1 X151.691 Y148.251 E7.90280
G1 X151.519 Y148.895 E7.92946
G1 X152.461 Y149.838 E7.98278
G1 X153.105 Y149.665 E8.00945
G1 X154.048 Y150.608 E8.06277
G1 X153.875 Y151.252 E8.08944
G1 X154.563 Y151.940 E8.12837
G1 X154.563 Y150.271 E8.19514
G1 X154.320 Y150.336 E8.20523
G1 X153.377 Y149.393 E8.25855
G1 X153.550 Y148.749 E8.28522
G1 X152.607 Y147.807 E8.33854
G1 X151.963 Y147.979 E8.36520
G1 X151.021 Y147.037 E8.41853
G1 X151.193 Y146.393 E8.44519
G1 X150.250 Y145.450 E8.49852
G1 X149.607 Y145.623 E8.52518
G1 X148.664 Y144.680 E8.57851
G1 X148.836 Y144.036 E8.60517
G1 X147.894 Y143.093 E8.65850
G1 X147.250 Y143.266 E8.68516
G1 X146.921 Y142.937 E8.70379
G1 X148.281 Y142.937 E8.75821
G1 X149.108 Y143.764 E8.80502
G1 X149.752 Y143.591 E8.83168
G1 X150.695 Y144.534 E8.88500
G1 X150.523 Y145.178 E8.91167
G1 X151.465 Y146.121 E8.96499
G1 X152.109 Y145.948 E8.99166
G1 X153.052 Y146.891 E9.04498
G1 X152.879 Y147.535 E9.07164
G1 X153.822 Y148.477 E9.12497
G1 X154.466 Y148.305 E9.15163
G1 X154.563 Y148.402 E9.15716
G1 X154.563 Y147.042 E9.21158
G1 X153.968 Y146.446 E9.24528
G1 X153.324 Y146.619 E9.27195
G1 X152.381 Y145.676 E9.32527
G1 X152.554 Y145.032 E9.35193
G1 X151.611 Y144.089 E9.40526
G1 X150.967 Y144.262 E9.43192
G1 X150.024 Y143.319 E9.48525
G1 X150.127 Y142.937 E9.50110
G1 X151.819 Y142.937 E9.56877
G1 X152.056 Y143.173 E9.58217
G1 X151.883 Y143.817 E9.60883
G1 X152.826 Y144.760 E9.66216
G1 X153.470 Y144.587 E9.68882
G1 X154.412 Y145.530 E9.74214
G1 X154.240 Y146.174 E9.76881
G1 X154.563 Y146.498 E9.78711
G1 X154.563 Y145.137 E9.84154
G1 X153.742 Y144.315 E9.88802
G1 X153.914 Y143.671 E9.91468
G1 X153.179 Y142.937 E9.95625
G1 X153.724 Y142.937 E9.97802
G1 X154.186 Y143.399 E10.00420
G1 X154.563 Y143.298 E10.01981
G1 F1800.000 E9.01981
G92 E0
G1 Z1.350 F7800.000
G1 X154.825 Y142.675 F7800.000
G1 E1.00000 F1800.000
G1 X154.825 Y157.325 E1.53294 F600.000
G1 X145.175 Y157.325 E1.88399
G1 X145.175 Y142.675 E2.41693
G1 X154.773 Y142.675 E2.76607
G1 X150.127 Y142.937 F7800.000
G1 X150.024 Y143.319 E2.78192 F634.269
G1 X148.737 Y143.664 E2.83525
