; generated by Slic3r 1.0.0RC1 on 2013-12-28 at 20:14:45

; layer_height = 0.25
; perimeters = 1
; top_solid_layers = 2
; bottom_solid_layers = 3
; fill_density = 0.4
; perimeter_speed = 30
; infill_speed = 60
; travel_speed = 130
; nozzle_diameter = 0.35
; filament_diameter = 1.75
; extrusion_multiplier = 1
; perimeters extrusion width = 0.35mm
; infill extrusion width = 0.39mm
; solid infill extrusion width = 0.39mm
; top infill extrusion width = 0.39mm
; support material extrusion width = 0.35mm
; first layer extrusion width = 0.70mm

G21 ; set units to millimeters
M107
M104 S220 ; set temperature
G28 ; home all axes
G1 Z5 F5000 ; lift nozzle

M109 S220 ; wait for temperature to be reached
G90 ; use absolute coordinates
G92 E0
M82 ; use absolute distances for extrusion
G1 F1800.000 E-1.00000
G92 E0
G1 Z0.350 F7800.000
G1 X129.430 Y129.430 F7800.000
G1 E1.00000 F1800.000
G1 X130.630 Y128.450 E1.14088 F540.000
G1 X131.990 Y127.720 E1.28123
G1 X133.460 Y127.280 E1.42076
G1 X135.000 Y127.130 E1.56145
G1 X165.000 Y127.130 E4.28934
G1 X166.540 Y127.280 E4.43003
G1 X168.010 Y127.720 E4.56956
G1 X169.370 Y128.450 E4.70991
G1 X170.570 Y129.430 E4.85079
G1 X171.550 Y130.630 E4.99167
G1 X172.280 Y131.990 E5.13202
G1 X172.720 Y133.460 E5.27155
G1 X172.870 Y135.000 E5.41224
G1 X172.870 Y165.000 E8.14013
G1 X172.720 Y166.540 E8.28083
G1 X172.280 Y168.010 E8.42035
G1 X171.550 Y169.370 E8.56070
G1 X170.570 Y170.570 E8.70158
G1 X169.370 Y171.550 E8.84246
G1 X168.010 Y172.280 E8.98282
G1 X166.540 Y172.720 E9.12234
G1 X165.000 Y172.870 E9.26304
G1 X135.000 Y172.870 E11.99092
G1 X133.460 Y172.720 E12.13162
G1 X131.990 Y172.280 E12.27114
G1 X130.630 Y171.550 E12.41150
G1 X129.430 Y170.570 E12.55238
G1 X128.450 Y169.370 E12.69326
G1 X127.720 Y168.010 E12.83361
G1 X127.280 Y166.540 E12.97313
G1 X127.130 Y165.000 E13.11383
G1 X127.130 Y135.000 E15.84172
G1 X127.280 Y133.460 E15.98241
G1 X127.720 Y131.990 E16.12194
G1 X128.450 Y130.630 E16.26229
G1 X129.371 Y129.503 E16.39464
G1 X129.870 Y129.870 F7800.000
G1 X130.970 Y128.970 E16.52388 F540.000
G1 X132.230 Y128.300 E16.65364
G1 X133.590 Y127.890 E16.78280
G1 X135.000 Y127.750 E16.91164
G1 X165.000 Y127.750 E19.63953
G1 X166.410 Y127.890 E19.76837
G1 X167.770 Y128.300 E19.89754
G1 X169.030 Y128.970 E20.02730
G1 X170.130 Y129.870 E20.15653
G1 X171.030 Y130.970 E20.28577
G1 X171.700 Y132.230 E20.41553
G1 X172.110 Y133.590 E20.54469
G1 X172.250 Y135.000 E20.67353
G1 X172.250 Y165.000 E23.40142
G1 X172.110 Y166.410 E23.53026
G1 X171.700 Y167.770 E23.65942
G1 X171.030 Y169.030 E23.78918
G1 X170.130 Y170.130 E23.91842
G1 X169.030 Y171.030 E24.04765
G1 X167.770 Y171.700 E24.17742
G1 X166.410 Y172.110 E24.30658
G1 X165.000 Y172.250 E24.43542
G1 X135.000 Y172.250 E27.16331
G1 X133.590 Y172.110 E27.29215
G1 X132.230 Y171.700 E27.42131
G1 X130.970 Y171.030 E27.55107
G1 X129.870 Y170.130 E27.68031
G1 X128.970 Y169.030 E27.80954
G1 X128.300 Y167.770 E27.93930
G1 X127.890 Y166.410 E28.06847
G1 X127.750 Y165.000 E28.19731
G1 X127.750 Y135.000 E30.92519
G1 X127.890 Y133.590 E31.05404
G1 X128.300 Y132.230 E31.18320
G1 X128.970 Y130.970 E31.31296
G1 X129.811 Y129.943 E31.43367
G1 X130.320 Y130.320 F7800.000
G1 X131.320 Y129.490 E31.55184 F540.000
G1 X132.460 Y128.880 E31.66941
G1 X133.710 Y128.500 E31.78821
G1 X135.000 Y128.380 E31.90601
G1 X165.000 Y128.380 E34.63390
G1 X166.290 Y128.500 E34.75170
G1 X167.540 Y128.880 E34.87050
G1 X168.680 Y129.490 E34.98807
G1 X169.680 Y130.320 E35.10624
G1 X170.510 Y131.320 E35.22441
G1 X171.120 Y132.460 E35.34198
G1 X171.500 Y133.710 E35.46077
G1 X171.620 Y135.000 E35.57858
G1 X171.620 Y165.000 E38.30647
G1 X171.500 Y166.290 E38.42427
G1 X171.120 Y167.540 E38.54307
G1 X170.510 Y168.680 E38.66064
G1 X169.680 Y169.680 E38.77881
G1 X168.680 Y170.510 E38.89698
G1 X167.540 Y171.120 E39.01454
G1 X166.290 Y171.500 E39.13334
G1 X165.000 Y171.620 E39.25115
G1 X135.000 Y171.620 E41.97904
G1 X133.710 Y171.500 E42.09684
G1 X132.460 Y171.120 E42.21564
G1 X131.320 Y170.510 E42.33321
G1 X130.320 Y169.680 E42.45138
G1 X129.490 Y168.680 E42.56955
G1 X128.880 Y167.540 E42.68711
G1 X128.500 Y166.290 E42.80591
G1 X128.380 Y165.000 E42.92372
G1 X128.380 Y135.000 E45.65160
G1 X128.500 Y133.710 E45.76941
G1 X128.880 Y132.460 E45.88821
G1 X129.490 Y131.320 E46.00577
G1 X130.260 Y130.392 E46.11542
G1 F1800.000 E45.11542
G92 E0
G1 X135.350 Y135.350 F7800.000
G1 E1.00000 F1800.000
G1 X164.650 Y135.350 E3.66424 F378.000
G1 X164.650 Y164.650 E6.32847
G1 X135.350 Y164.650 E8.99271
G1 X135.350 Y135.444 E11.64842
G1 X135.834 Y164.228 F7800.000
G1 X135.772 Y164.166 E11.65652 F1080.000
G1 X135.772 Y163.278 E11.73754
G1 X136.722 Y164.228 E11.86020
G1 X137.609 Y164.228 E11.94121
G1 X135.772 Y162.391 E12.17844
G1 X135.772 Y161.504 E12.25945
G1 X138.496 Y164.228 E12.61125
G1 X139.384 Y164.228 E12.69226
G1 X135.772 Y160.616 E13.15863
G1 X135.772 Y159.729 E13.23964
G1 X140.271 Y164.228 E13.82057
G1 X141.158 Y164.228 E13.90158
G1 X135.772 Y158.842 E14.59707
G1 X135.772 Y157.954 E14.67808
G1 X142.046 Y164.228 E15.48814
G1 X142.933 Y164.228 E15.56915
G1 X135.772 Y157.067 E16.49378
G1 X135.772 Y156.180 E16.57479
G1 X143.820 Y164.228 E17.61398
G1 X144.708 Y164.228 E17.69499
G1 X135.772 Y155.292 E18.84875
G1 X135.772 Y154.405 E18.92975
G1 X145.595 Y164.228 E20.19808
G1 X146.482 Y164.228 E20.27909
G1 X135.772 Y153.518 E21.66198
G1 X135.772 Y152.631 E21.74299
G1 X147.369 Y164.228 E23.24044
G1 X148.257 Y164.228 E23.32145
G1 X135.772 Y151.743 E24.93347
G1 X135.772 Y150.856 E25.01448
G1 X149.144 Y164.228 E26.74106
G1 X150.031 Y164.228 E26.82207
G1 X135.772 Y149.969 E28.66322
G1 X135.772 Y149.081 E28.74424
G1 X150.919 Y164.228 E30.69995
G1 X151.806 Y164.228 E30.78096
G1 X135.772 Y148.194 E32.85124
G1 X135.772 Y147.307 E32.93225
G1 X152.693 Y164.228 E35.11710
G1 X153.581 Y164.228 E35.19811
G1 X135.772 Y146.419 E37.49752
G1 X135.772 Y145.532 E37.57853
G1 X154.468 Y164.228 E39.99251
G1 X155.355 Y164.228 E40.07352
G1 X135.772 Y144.645 E42.60207
G1 X135.772 Y143.757 E42.68308
G1 X156.243 Y164.228 E45.32619
G1 X157.130 Y164.228 E45.40720
G1 X135.772 Y142.870 E48.16487
G1 X135.772 Y141.983 E48.24588
G1 X158.017 Y164.228 E51.11812
G1 X158.904 Y164.228 E51.19913
G1 X135.772 Y141.096 E54.18594
G1 X135.772 Y140.208 E54.26695
G1 X159.792 Y164.228 E57.36832
G1 X160.679 Y164.228 E57.44933
G1 X135.772 Y139.321 E60.66527
G1 X135.772 Y138.434 E60.74628
G1 X161.566 Y164.228 E64.07678
G1 X162.454 Y164.228 E64.15779
G1 X135.772 Y137.546 E67.60286
G1 X135.772 Y136.659 E67.68387
G1 X163.341 Y164.228 E71.24351
G1 X164.197 Y164.197 E71.32171
G1 X135.803 Y135.803 E74.98780
G1 X136.659 Y135.772 E75.06600
G1 X164.228 Y163.341 E78.62563
G1 X164.228 Y162.454 E78.70664
G1 X137.546 Y135.772 E82.15171
G1 X138.434 Y135.772 E82.23272
G1 X164.228 Y161.566 E85.56322
G1 X164.228 Y160.679 E85.64423
G1 X139.321 Y135.772 E88.86016
G1 X140.208 Y135.772 E88.94117
G1 X164.228 Y159.792 E92.04254
G1 X164.228 Y158.904 E92.12355
G1 X141.096 Y135.772 E95.11035
G1 X141.983 Y135.772 E95.19136
G1 X164.228 Y158.017 E98.06360
G1 X164.228 Y157.130 E98.14461
G1 X142.870 Y135.772 E100.90228
G1 X143.757 Y135.772 E100.98329
G1 X164.228 Y156.243 E103.62640
G1 X164.228 Y155.355 E103.70741
G1 X144.645 Y135.772 E106.23595
G1 X145.532 Y135.772 E106.31696
G1 X164.228 Y154.468 E108.73093
G1 X164.228 Y153.581 E108.81194
G1 X146.419 Y135.772 E111.11135
G1 X147.307 Y135.772 E111.19236
G1 X164.228 Y152.693 E113.37720
G1 X164.228 Y151.806 E113.45821
G1 X148.194 Y135.772 E115.52849
G1 X149.081 Y135.772 E115.60950
G1 X164.228 Y150.919 E117.56521
G1 X164.228 Y150.031 E117.64622
G1 X149.969 Y135.772 E119.48737
G1 X150.856 Y135.772 E119.56838
G1 X164.228 Y149.144 E121.29496
G1 X164.228 Y148.257 E121.37597
G1 X151.743 Y135.772 E122.98799
G1 X152.631 Y135.772 E123.06900
G1 X164.228 Y147.369 E124.56644
G1 X164.228 Y146.482 E124.64746
G1 X153.518 Y135.772 E126.03034
G1 X154.405 Y135.772 E126.11135
G1 X164.228 Y145.595 E127.37967
G1 X164.228 Y144.707 E127.46068
G1 X155.293 Y135.772 E128.61443
G1 X156.180 Y135.772 E128.69544
G1 X164.228 Y143.820 E129.73463
G1 X164.228 Y142.933 E129.81564
G1 X157.067 Y135.772 E130.74026
G1 X157.954 Y135.772 E130.82127
G1 X164.228 Y142.046 E131.63133
G1 X164.228 Y141.158 E131.71234
G1 X158.842 Y135.772 E132.40783
G1 X159.729 Y135.772 E132.48884
G1 X164.228 Y140.271 E133.06976
G1 X164.228 Y139.384 E133.15077
G1 X160.616 Y135.772 E133.61713
G1 X161.504 Y135.772 E133.69814
G1 X164.228 Y138.496 E134.04993
G1 X164.228 Y137.609 E134.13094
G1 X162.391 Y135.772 E134.36817
G1 X163.278 Y135.772 E134.44918
G1 X164.228 Y136.722 E134.57184
G1 X164.228 Y135.834 E134.65285
G1 X164.166 Y135.772 E134.66095
M106 S180
M104 S220 ; set temperature
G1 F1800.000 E133.66095
G92 E0
G1 Z0.600 F7800.000
G1 X164.825 Y135.175 F7800.000
G1 E1.00000 F1800.000
G1 X164.825 Y164.825 E2.07862 F1260
G1 X135.175 Y164.825 E3.15723
G1 X135.175 Y135.175 E4.23585
G1 X164.773 Y135.175 E5.31255
G1 X135.456 Y135.417 F7800.000
G1 X135.417 Y135.456 E5.31473 F3600
G1 X135.417 Y136.000 E5.33651
G1 X136.000 Y135.417 E5.36950
G1 X136.545 Y135.417 E5.39128
G1 X135.417 Y136.545 E5.45508
G1 X135.417 Y137.089 E5.47686
G1 X137.089 Y135.417 E5.57146
G1 X137.634 Y135.417 E5.59324
G1 X135.417 Y137.634 E5.71865
G1 X135.417 Y138.178 E5.74043
G1 X138.178 Y135.417 E5.89665
G1 X138.722 Y135.417 E5.91843
G1 X135.417 Y138.722 E6.10545
G1 X135.417 Y139.267 E6.12724
G1 X139.267 Y135.417 E6.34507
G1 X139.811 Y135.417 E6.36685
G1 X135.417 Y139.811 E6.61549
G1 X135.417 Y140.356 E6.63727
G1 X140.356 Y135.417 E6.91671
G1 X140.900 Y135.417 E6.93850
G1 X135.417 Y140.900 E7.24875
G1 X135.417 Y141.445 E7.27053
G1 X141.445 Y135.417 E7.61159
G1 X141.989 Y135.417 E7.63338
G1 X135.417 Y141.989 E8.00524
G1 X135.417 Y142.533 E8.02703
G1 X142.533 Y135.417 E8.42970
G1 X143.078 Y135.417 E8.45148
G1 X135.417 Y143.078 E8.88496
G1 X135.417 Y143.622 E8.90675
G1 X143.622 Y135.417 E9.37103
G1 X144.167 Y135.417 E9.39282
G1 X135.417 Y144.167 E9.88791
G1 X135.417 Y144.711 E9.90970
G1 X144.711 Y135.417 E10.43560
G1 X145.255 Y135.417 E10.45738
G1 X135.417 Y145.255 E11.01409
G1 X135.417 Y145.800 E11.03588
G1 X145.800 Y135.417 E11.62339
G1 X146.344 Y135.417 E11.64518
G1 X135.417 Y146.344 E12.26350
G1 X135.417 Y146.889 E12.28528
G1 X146.889 Y135.417 E12.93442
G1 X147.433 Y135.417 E12.95620
G1 X135.417 Y147.433 E13.63614
G1 X135.417 Y147.978 E13.65792
G1 X147.978 Y135.417 E14.36867
G1 X148.522 Y135.417 E14.39045
G1 X135.417 Y148.522 E15.13201
G1 X135.417 Y149.066 E15.15379
G1 X149.066 Y135.417 E15.92615
G1 X149.611 Y135.417 E15.94793
G1 X135.417 Y149.611 E16.75110
G1 X135.417 Y150.155 E16.77289
G1 X150.155 Y135.417 E17.60686
G1 X150.700 Y135.417 E17.62865
G1 X135.417 Y150.700 E18.49343
G1 X135.417 Y151.244 E18.51521
G1 X151.244 Y135.417 E19.41080
G1 X151.789 Y135.417 E19.43259
G1 X135.417 Y151.789 E20.35898
G1 X135.417 Y152.333 E20.38077
G1 X152.333 Y135.417 E21.33797
G1 X152.877 Y135.417 E21.35976
G1 X135.417 Y152.877 E22.34777
G1 X135.417 Y153.422 E22.36955
G1 X153.422 Y135.417 E23.38837
G1 X153.966 Y135.417 E23.41015
G1 X135.417 Y153.966 E24.45978
G1 X135.417 Y154.511 E24.48157
G1 X154.511 Y135.417 E25.56200
G1 X155.055 Y135.417 E25.58378
G1 X135.417 Y155.055 E26.69502
G1 X135.417 Y155.600 E26.71681
G1 X155.600 Y135.417 E27.85886
G1 X156.144 Y135.417 E27.88064
G1 X135.417 Y156.144 E29.05350
G1 X135.417 Y156.688 E29.07528
G1 X156.688 Y135.417 E30.27894
G1 X157.233 Y135.417 E30.30073
G1 X135.417 Y157.233 E31.53520
G1 X135.417 Y157.777 E31.55698
G1 X157.777 Y135.417 E32.82226
G1 X158.322 Y135.417 E32.84404
G1 X135.417 Y158.322 E34.14013
G1 X135.417 Y158.866 E34.16191
G1 X158.866 Y135.417 E35.48881
G1 X159.411 Y135.417 E35.51059
G1 X135.417 Y159.411 E36.86829
G1 X135.417 Y159.955 E36.89007
G1 X159.955 Y135.417 E38.27858
G1 X160.499 Y135.417 E38.30036
G1 X135.417 Y160.499 E39.71968
G1 X135.417 Y161.044 E39.74146
G1 X161.044 Y135.417 E41.19158
G1 X161.588 Y135.417 E41.21337
G1 X135.417 Y161.588 E42.69430
G1 X135.417 Y162.133 E42.71608
G1 X162.133 Y135.417 E44.22782
G1 X162.677 Y135.417 E44.24960
G1 X135.417 Y162.677 E45.79215
G1 X135.417 Y163.222 E45.81393
G1 X163.222 Y135.417 E47.38728
G1 X163.766 Y135.417 E47.40906
G1 X135.417 Y163.766 E49.01322
G1 X135.417 Y164.310 E49.03501
G1 X164.310 Y135.417 E50.66997
G1 X164.583 Y135.690 E50.68538
G1 X135.690 Y164.583 E52.32034
G1 X136.234 Y164.583 E52.34213
G1 X164.583 Y136.234 E53.94629
G1 X164.583 Y136.778 E53.96807
G1 X136.778 Y164.583 E55.54142
G1 X137.323 Y164.583 E55.56321
G1 X164.583 Y137.323 E57.10575
G1 X164.583 Y137.867 E57.12753
G1 X137.867 Y164.583 E58.63927
G1 X138.412 Y164.583 E58.66106
G1 X164.583 Y138.412 E60.14199
G1 X164.583 Y138.956 E60.16377
G1 X138.956 Y164.583 E61.61389
G1 X139.501 Y164.583 E61.63568
G1 X164.583 Y139.501 E63.05499
G1 X164.583 Y140.045 E63.07678
G1 X140.045 Y164.583 E64.46528
G1 X140.589 Y164.583 E64.48707
G1 X164.583 Y140.589 E65.84477
G1 X164.583 Y141.134 E65.86655
G1 X141.134 Y164.583 E67.19345
G1 X141.678 Y164.583 E67.21523
G1 X164.583 Y141.678 E68.51132
G1 X164.583 Y142.223 E68.53310
G1 X142.223 Y164.583 E69.79838
G1 X142.767 Y164.583 E69.82016
G1 X164.583 Y142.767 E71.05464
G1 X164.583 Y143.312 E71.07642
G1 X143.312 Y164.583 E72.28008
G1 X143.856 Y164.583 E72.30187
G1 X164.583 Y143.856 E73.47472
G1 X164.583 Y144.400 E73.49651
G1 X144.400 Y164.583 E74.63856
G1 X144.945 Y164.583 E74.66034
G1 X164.583 Y144.945 E75.77158
G1 X164.583 Y145.489 E75.79337
G1 X145.489 Y164.583 E76.87380
G1 X146.034 Y164.583 E76.89559
G1 X164.583 Y146.034 E77.94521
G1 X164.583 Y146.578 E77.96700
G1 X146.578 Y164.583 E78.98582
G1 X147.123 Y164.583 E79.00760
G1 X164.583 Y147.123 E79.99562
G1 X164.583 Y147.667 E80.01740
G1 X147.667 Y164.583 E80.97461
G1 X148.211 Y164.583 E80.99639
G1 X164.583 Y148.211 E81.92279
G1 X164.583 Y148.756 E81.94457
G1 X148.756 Y164.583 E82.84016
G1 X149.300 Y164.583 E82.86195
G1 X164.583 Y149.300 E83.72673
G1 X164.583 Y149.845 E83.74851
G1 X149.845 Y164.583 E84.58249
G1 X150.389 Y164.583 E84.60427
G1 X164.583 Y150.389 E85.40744
G1 X164.583 Y150.933 E85.42923
G1 X150.933 Y164.583 E86.20159
G1 X151.478 Y164.583 E86.22337
G1 X164.583 Y151.478 E86.96493
G1 X164.583 Y152.022 E86.98671
G1 X152.022 Y164.583 E87.69746
G1 X152.567 Y164.583 E87.71924
G1 X164.583 Y152.567 E88.39918
G1 X164.583 Y153.111 E88.42097
G1 X153.111 Y164.583 E89.07010
G1 X153.656 Y164.583 E89.09188
G1 X164.583 Y153.656 E89.71021
G1 X164.583 Y154.200 E89.73199
G1 X154.200 Y164.583 E90.31951
G1 X154.744 Y164.583 E90.34129
G1 X164.583 Y154.744 E90.89800
G1 X164.583 Y155.289 E90.91979
G1 X155.289 Y164.583 E91.44569
G1 X155.833 Y164.583 E91.46747
G1 X164.583 Y155.833 E91.96257
G1 X164.583 Y156.378 E91.98435
G1 X156.378 Y164.583 E92.44864
G1 X156.922 Y164.583 E92.47043
G1 X164.583 Y156.922 E92.90391
G1 X164.583 Y157.467 E92.92569
G1 X157.467 Y164.583 E93.32837
G1 X158.011 Y164.583 E93.35015
G1 X164.583 Y158.011 E93.72202
G1 X164.583 Y158.555 E93.74380
G1 X158.555 Y164.583 E94.08486
G1 X159.100 Y164.583 E94.10664
G1 X164.583 Y159.100 E94.41689
G1 X164.583 Y159.644 E94.43868
G1 X159.644 Y164.583 E94.71812
G1 X160.189 Y164.583 E94.73991
G1 X164.583 Y160.189 E94.98854
G1 X164.583 Y160.733 E95.01033
G1 X160.733 Y164.583 E95.22816
G1 X161.278 Y164.583 E95.24994
G1 X164.583 Y161.278 E95.43696
G1 X164.583 Y161.822 E95.45875
G1 X161.822 Y164.583 E95.61496
G1 X162.366 Y164.583 E95.63675
G1 X164.583 Y162.366 E95.76216
G1 X164.583 Y162.911 E95.78394
G1 X162.911 Y164.583 E95.87854
G1 X163.455 Y164.583 E95.90032
G1 X164.583 Y163.455 E95.96412
G1 X164.583 Y164.000 E95.98590
G1 X164.000 Y164.583 E96.01889
G1 X164.544 Y164.583 E96.04067
G1 X164.583 Y164.544 E96.04285
M106 S180
G1 F1800.000 E95.04285
G92 E0
G1 Z0.850 F7800.000
G1 X164.825 Y164.825 F7800.000
G1 E1.00000 F1800.000
G1 X135.175 Y164.825 E2.07862 F1260
G1 X135.175 Y135.175 E3.15723
G1 X164.825 Y135.175 E4.23585
G1 X164.825 Y164.773 E5.31255
G1 X164.583 Y135.456 F7800.000
G1 X164.544 Y135.417 E5.31473 F3600
G1 X164.000 Y135.417 E5.33651
G1 X164.583 Y136.000 E5.36950
G1 X164.583 Y136.545 E5.39128
G1 X163.455 Y135.417 E5.45508
G1 X162.911 Y135.417 E5.47686
