; generated by Slic3r 1.0.0RC1 on 2013-12-28 at 21:06:56

; layer_height = 0.25
; perimeters = 2
; top_solid_layers = 2
; bottom_solid_layers = 3
; fill_density = 0.4
; perimeter_speed = 30
; infill_speed = 60
; travel_speed = 130
; nozzle_diameter = 0.35
; filament_diameter = 1.75
; extrusion_multiplier = 1
; perimeters extrusion width = 0.35mm
; infill extrusion width = 0.39mm
; solid infill extrusion width = 0.39mm
; top infill extrusion width = 0.39mm
; first layer extrusion width = 0.70mm

G21 ; set units to millimeters
M107
M104 S220 ; set temperature
G28 ; home all axes
G1 Z5 F5000 ; lift nozzle

M109 S220 ; wait for temperature to be reached
G90 ; use absolute coordinates
G92 E0
M82 ; use absolute distances for extrusion
G1 F1800.000 E-1.00000
G92 E0
G1 Z0.350 F7800.000
G1 X149.430 Y129.430 F7800.000
G1 E1.00000 F1800.000
G1 X150.630 Y128.450 E1.14088 F540.000
G1 X151.990 Y127.720 E1.28123
G1 X153.460 Y127.280 E1.42076
G1 X155.000 Y127.130 E1.56145
G1 X185.000 Y127.130 E4.28934
G1 X186.540 Y127.280 E4.43003
G1 X188.010 Y127.720 E4.56956
G1 X189.370 Y128.450 E4.70991
G1 X190.570 Y129.430 E4.85079
G1 X191.550 Y130.630 E4.99167
G1 X192.280 Y131.990 E5.13202
G1 X192.720 Y133.460 E5.27155
G1 X192.870 Y135.000 E5.41224
G1 X192.870 Y165.000 E8.14013
G1 X192.720 Y166.540 E8.28083
G1 X192.280 Y168.010 E8.42035
G1 X191.550 Y169.370 E8.56070
G1 X190.570 Y170.570 E8.70158
G1 X189.370 Y171.550 E8.84246
G1 X188.010 Y172.280 E8.98282
G1 X186.540 Y172.720 E9.12234
G1 X185.000 Y172.870 E9.26304
G1 X155.000 Y172.870 E11.99092
G1 X153.460 Y172.720 E12.13162
G1 X151.990 Y172.280 E12.27114
G1 X150.630 Y171.550 E12.41150
G1 X149.430 Y170.570 E12.55238
G1 X148.450 Y169.370 E12.69326
G1 X147.720 Y168.010 E12.83361
G1 X147.280 Y166.540 E12.97313
G1 X147.130 Y165.000 E13.11383
G1 X147.130 Y135.000 E15.84172
G1 X147.280 Y133.460 E15.98241
G1 X147.720 Y131.990 E16.12194
G1 X148.450 Y130.630 E16.26229
G1 X149.371 Y129.503 E16.39464
G1 X149.870 Y129.870 F7800.000
G1 X150.970 Y128.970 E16.52388 F540.000
G1 X152.230 Y128.300 E16.65364
G1 X153.590 Y127.890 E16.78280
G1 X155.000 Y127.750 E16.91164
G1 X185.000 Y127.750 E19.63953
G1 X186.410 Y127.890 E19.76837
G1 X187.770 Y128.300 E19.89754
G1 X189.030 Y128.970 E20.02730
G1 X190.130 Y129.870 E20.15653
G1 X191.030 Y130.970 E20.28577
G1 X191.700 Y132.230 E20.41553
G1 X192.110 Y133.590 E20.54469
G1 X192.250 Y135.000 E20.67353
G1 X192.250 Y165.000 E23.40142
G1 X192.110 Y166.410 E23.53026
G1 X191.700 Y167.770 E23.65942
G1 X191.030 Y169.030 E23.78918
G1 X190.130 Y170.130 E23.91842
G1 X189.030 Y171.030 E24.04765
G1 X187.770 Y171.700 E24.17742
G1 X186.410 Y172.110 E24.30658
G1 X185.000 Y172.250 E24.43542
G1 X155.000 Y172.250 E27.16331
G1 X153.590 Y172.110 E27.29215
G1 X152.230 Y171.700 E27.42131
G1 X150.970 Y171.030 E27.55107
G1 X149.870 Y170.130 E27.68031
G1 X148.970 Y169.030 E27.80954
G1 X148.300 Y167.770 E27.93930
G1 X147.890 Y166.410 E28.06847
G1 X147.750 Y165.000 E28.19731
G1 X147.750 Y135.000 E30.92519
G1 X147.890 Y133.590 E31.05404
G1 X148.300 Y132.230 E31.18320
G1 X148.970 Y130.970 E31.31296
G1 X149.811 Y129.943 E31.43367
G1 X150.320 Y130.320 F7800.000
G1 X151.320 Y129.490 E31.55184 F540.000
G1 X152.460 Y128.880 E31.66941
G1 X153.710 Y128.500 E31.78821
G1 X155.000 Y128.380 E31.90601
G1 X185.000 Y128.380 E34.63390
G1 X186.290 Y128.500 E34.75170
G1 X187.540 Y128.880 E34.87050
G1 X188.680 Y129.490 E34.98807
G1 X189.680 Y130.320 E35.10624
G1 X190.510 Y131.320 E35.22441
G1 X191.120 Y132.460 E35.34198
G1 X191.500 Y133.710 E35.46077
G1 X191.620 Y135.000 E35.57858
G1 X191.620 Y165.000 E38.30647
G1 X191.500 Y166.290 E38.42427
G1 X191.120 Y167.540 E38.54307
G1 X190.510 Y168.680 E38.66064
G1 X189.680 Y169.680 E38.77881
G1 X188.680 Y170.510 E38.89698
G1 X187.540 Y171.120 E39.01454
G1 X186.290 Y171.500 E39.13334
G1 X185.000 Y171.620 E39.25115
G1 X155.000 Y171.620 E41.97904
G1 X153.710 Y171.500 E42.09684
G1 X152.460 Y171.120 E42.21564
G1 X151.320 Y170.510 E42.33321
G1 X150.320 Y169.680 E42.45138
G1 X149.490 Y168.680 E42.56955
G1 X148.880 Y167.540 E42.68711
G1 X148.500 Y166.290 E42.80591
G1 X148.380 Y165.000 E42.92372
G1 X148.380 Y135.000 E45.65160
G1 X148.500 Y133.710 E45.76941
G1 X148.880 Y132.460 E45.88821
G1 X149.490 Y131.320 E46.00577
G1 X150.260 Y130.392 E46.11542
G1 F1800.000 E45.11542
G92 E0
G1 X155.975 Y135.975 F7800.000
G1 E1.00000 F1800.000
G1 X184.025 Y135.975 E3.55059 F540.000
G1 X184.025 Y164.025 E6.10119
G1 X155.975 Y164.025 E8.65178
G1 X155.975 Y136.069 E11.19386
G1 X155.350 Y135.350 F7800.000
G1 X184.650 Y135.350 E13.85809 F378.000
G1 X184.650 Y164.650 E16.52233
G1 X155.350 Y164.650 E19.18657
G1 X155.350 Y135.444 E21.84228
G1 X155.891 Y135.662 F7800.000
G1 X183.604 Y136.459 F7800.000
G1 X183.541 Y136.396 E21.85043 F1080.000
G1 X182.651 Y136.396 E21.93192
G1 X183.604 Y137.349 E22.05532
G1 X183.604 Y138.239 E22.13682
G1 X181.761 Y136.396 E22.37547
G1 X180.871 Y136.396 E22.45697
G1 X183.604 Y139.129 E22.81088
G1 X183.604 Y140.019 E22.89237
G1 X179.981 Y136.396 E23.36154
G1 X179.091 Y136.396 E23.44303
G1 X183.604 Y140.909 E24.02745
G1 X183.604 Y141.799 E24.10895
G1 X178.201 Y136.396 E24.80862
G1 X177.311 Y136.396 E24.89011
G1 X183.604 Y142.689 E25.70504
G1 X183.604 Y143.579 E25.78653
G1 X176.421 Y136.396 E26.71671
G1 X175.531 Y136.396 E26.79821
G1 X183.604 Y144.469 E27.84364
G1 X183.604 Y145.359 E27.92514
G1 X174.641 Y136.396 E29.08582
G1 X173.751 Y136.396 E29.16732
G1 X183.604 Y146.249 E30.44326
G1 X183.604 Y147.139 E30.52475
G1 X172.861 Y136.396 E31.91595
G1 X171.971 Y136.396 E31.99745
G1 X183.604 Y148.029 E33.50389
G1 X183.604 Y148.919 E33.58539
G1 X171.081 Y136.396 E35.20709
G1 X170.191 Y136.396 E35.28859
G1 X183.604 Y149.809 E37.02554
G1 X183.604 Y150.699 E37.10704
G1 X169.301 Y136.396 E38.95925
G1 X168.411 Y136.396 E39.04075
G1 X183.604 Y151.589 E41.00821
G1 X183.604 Y152.479 E41.08971
G1 X167.521 Y136.396 E43.17243
G1 X166.631 Y136.396 E43.25392
G1 X183.604 Y153.369 E45.45189
G1 X183.604 Y154.259 E45.53339
G1 X165.741 Y136.396 E47.84662
G1 X164.851 Y136.396 E47.92811
G1 X183.604 Y155.149 E50.35659
G1 X183.604 Y156.039 E50.43809
G1 X163.961 Y136.396 E52.98183
G1 X163.071 Y136.396 E53.06332
G1 X183.604 Y156.929 E55.72231
G1 X183.604 Y157.819 E55.80381
G1 X162.181 Y136.396 E58.57805
G1 X161.291 Y136.396 E58.65955
G1 X183.604 Y158.709 E61.54904
G1 X183.604 Y159.599 E61.63054
G1 X160.401 Y136.396 E64.63529
G1 X159.511 Y136.396 E64.71679
G1 X183.604 Y160.489 E67.83679
G1 X183.604 Y161.379 E67.91829
G1 X158.621 Y136.396 E71.15354
G1 X157.731 Y136.396 E71.23504
G1 X183.604 Y162.269 E74.58555
G1 X183.604 Y163.159 E74.66705
G1 X156.841 Y136.396 E78.13282
G1 X156.396 Y136.841 E78.19044
G1 X183.159 Y163.604 E81.65621
G1 X182.269 Y163.604 E81.73771
G1 X156.396 Y137.731 E85.08823
G1 X156.396 Y138.621 E85.16972
G1 X181.379 Y163.604 E88.40498
G1 X180.489 Y163.604 E88.48648
G1 X156.396 Y139.511 E91.60649
G1 X156.396 Y140.401 E91.68799
G1 X179.599 Y163.604 E94.69274
G1 X178.709 Y163.604 E94.77424
G1 X156.396 Y141.291 E97.66374
G1 X156.396 Y142.181 E97.74523
G1 X177.819 Y163.604 E100.51948
G1 X176.929 Y163.604 E100.60098
G1 X156.396 Y143.071 E103.25997
G1 X156.396 Y143.961 E103.34147
G1 X176.039 Y163.604 E105.88520
G1 X175.149 Y163.604 E105.96670
G1 X156.396 Y144.851 E108.39518
G1 X156.396 Y145.741 E108.47668
G1 X174.259 Y163.604 E110.78991
G1 X173.369 Y163.604 E110.87141
G1 X156.396 Y146.631 E113.06938
G1 X156.396 Y147.521 E113.15088
G1 X172.479 Y163.604 E115.23360
G1 X171.589 Y163.604 E115.31510
G1 X156.396 Y148.411 E117.28257
G1 X156.396 Y149.301 E117.36406
G1 X170.699 Y163.604 E119.21628
G1 X169.809 Y163.604 E119.29777
G1 X156.396 Y150.191 E121.03473
G1 X156.396 Y151.081 E121.11623
G1 X168.919 Y163.604 E122.73794
G1 X168.029 Y163.604 E122.81943
G1 X156.396 Y151.971 E124.32589
G1 X156.396 Y152.861 E124.40738
G1 X167.139 Y163.604 E125.79858
G1 X166.249 Y163.604 E125.88008
G1 X156.396 Y153.751 E127.15602
G1 X156.396 Y154.641 E127.23752
G1 X165.359 Y163.604 E128.39821
G1 X164.469 Y163.604 E128.47970
G1 X156.396 Y155.531 E129.52514
G1 X156.396 Y156.421 E129.60664
G1 X163.579 Y163.604 E130.53682
G1 X162.689 Y163.604 E130.61832
G1 X156.396 Y157.311 E131.43324
G1 X156.396 Y158.201 E131.51474
G1 X161.799 Y163.604 E132.21441
G1 X160.909 Y163.604 E132.29591
G1 X156.396 Y159.091 E132.88033
G1 X156.396 Y159.981 E132.96183
G1 X160.019 Y163.604 E133.43099
G1 X159.129 Y163.604 E133.51249
G1 X156.396 Y160.871 E133.86640
G1 X156.396 Y161.761 E133.94790
G1 X158.239 Y163.604 E134.18656
G1 X157.349 Y163.604 E134.26805
G1 X156.396 Y162.651 E134.39146
G1 X156.396 Y163.541 E134.47295
G1 X156.459 Y163.604 E134.48110
M106 S169
M104 S220 ; set temperature
G1 F1800.000 E133.48110
G92 E0
G1 Z0.600 F7800.000
G1 X155.525 Y164.475 F7800.000
G1 E1.00000 F1800.000
G1 X155.525 Y135.525 E2.05315 F1800
G1 X184.475 Y135.525 E3.10630
G1 X184.475 Y164.475 E4.15945
G1 X155.577 Y164.475 E5.21069
G1 X155.175 Y164.825 F7800.000
G1 X155.175 Y135.175 E6.28931 F1260
G1 X184.825 Y135.175 E7.36793
G1 X184.825 Y164.825 E8.44654
G1 X155.227 Y164.825 E9.52325
G1 X155.350 Y164.522 F7800.000
G1 X155.767 Y135.806 F7800.000
G1 X155.806 Y135.767 E9.52544 F3600
G1 X156.353 Y135.767 E9.54741
G1 X155.767 Y136.353 E9.58066
G1 X155.767 Y136.899 E9.60263
G1 X156.899 Y135.767 E9.66695
G1 X157.446 Y135.767 E9.68891
G1 X155.767 Y137.446 E9.78429
G1 X155.767 Y137.993 E9.80626
G1 X157.993 Y135.767 E9.93270
G1 X158.539 Y135.767 E9.95466
G1 X155.767 Y138.539 E10.11217
G1 X155.767 Y139.086 E10.13413
G1 X159.086 Y135.767 E10.32270
G1 X159.633 Y135.767 E10.34466
G1 X155.767 Y139.633 E10.56429
G1 X155.767 Y140.179 E10.58625
G1 X160.179 Y135.767 E10.83694
G1 X160.726 Y135.767 E10.85890
G1 X155.767 Y140.726 E11.14065
G1 X155.767 Y141.273 E11.16262
G1 X161.273 Y135.767 E11.47543
G1 X161.819 Y135.767 E11.49740
G1 X155.767 Y141.819 E11.84127
G1 X155.767 Y142.366 E11.86323
G1 X162.366 Y135.767 E12.23817
G1 X162.913 Y135.767 E12.26013
G1 X155.767 Y142.913 E12.66613
G1 X155.767 Y143.459 E12.68809
G1 X163.459 Y135.767 E13.12515
G1 X164.006 Y135.767 E13.14712
G1 X155.767 Y144.006 E13.61524
G1 X155.767 Y144.553 E13.63720
G1 X164.553 Y135.767 E14.13639
G1 X165.099 Y135.767 E14.15835
G1 X155.767 Y145.099 E14.68859
G1 X155.767 Y145.646 E14.71056
G1 X165.646 Y135.767 E15.27186
G1 X166.193 Y135.767 E15.29383
G1 X155.767 Y146.193 E15.88620
G1 X155.767 Y146.739 E15.90816
G1 X166.739 Y135.767 E16.53159
G1 X167.286 Y135.767 E16.55355
G1 X155.767 Y147.286 E17.20805
G1 X155.767 Y147.833 E17.23001
G1 X167.833 Y135.767 E17.91556
G1 X168.379 Y135.767 E17.93753
G1 X155.767 Y148.379 E18.65414
G1 X155.767 Y148.926 E18.67611
G1 X168.926 Y135.767 E19.42378
G1 X169.473 Y135.767 E19.44575
G1 X155.767 Y149.473 E20.22448
G1 X155.767 Y150.019 E20.24645
G1 X170.019 Y135.767 E21.05625
G1 X170.566 Y135.767 E21.07821
G1 X155.767 Y150.566 E21.91907
G1 X155.767 Y151.113 E21.94104
G1 X171.113 Y135.767 E22.81296
G1 X171.659 Y135.767 E22.83492
G1 X155.767 Y151.659 E23.73791
G1 X155.767 Y152.206 E23.75987
G1 X172.206 Y135.767 E24.69392
G1 X172.753 Y135.767 E24.71588
G1 X155.767 Y152.753 E25.68099
G1 X155.767 Y153.299 E25.70296
G1 X173.299 Y135.767 E26.69913
G1 X173.846 Y135.767 E26.72109
G1 X155.767 Y153.846 E27.74832
G1 X155.767 Y154.393 E27.77029
G1 X174.393 Y135.767 E28.82858
G1 X174.939 Y135.767 E28.85054
G1 X155.767 Y154.939 E29.93990
G1 X155.767 Y155.486 E29.96186
G1 X175.486 Y135.767 E31.08228
G1 X176.033 Y135.767 E31.10424
G1 X155.767 Y156.033 E32.25572
G1 X155.767 Y156.579 E32.27769
G1 X176.579 Y135.767 E33.46023
G1 X177.126 Y135.767 E33.48219
G1 X155.767 Y157.126 E34.69579
G1 X155.767 Y157.673 E34.71776
G1 X177.673 Y135.767 E35.96242
G1 X178.219 Y135.767 E35.98438
G1 X155.767 Y158.219 E37.26011
G1 X155.767 Y158.766 E37.28207
G1 X178.766 Y135.767 E38.58886
G1 X179.313 Y135.767 E38.61082
G1 X155.767 Y159.313 E39.94867
G1 X155.767 Y159.859 E39.97064
G1 X179.859 Y135.767 E41.33955
G1 X180.406 Y135.767 E41.36151
G1 X155.767 Y160.406 E42.76148
G1 X155.767 Y160.953 E42.78345
G1 X180.953 Y135.767 E44.21448
G1 X181.499 Y135.767 E44.23645
G1 X155.767 Y161.499 E45.69854
G1 X155.767 Y162.046 E45.72051
G1 X182.046 Y135.767 E47.21366
G1 X182.593 Y135.767 E47.23563
G1 X155.767 Y162.593 E48.75985
G1 X155.767 Y163.139 E48.78181
G1 X183.139 Y135.767 E50.33709
G1 X183.686 Y135.767 E50.35905
G1 X155.767 Y163.686 E51.94540
G1 X155.787 Y164.213 E51.96660
G1 X184.213 Y135.787 E53.58181
G1 X184.233 Y136.314 E53.60301
G1 X156.314 Y164.233 E55.18935
G1 X156.861 Y164.233 E55.21132
G1 X184.233 Y136.861 E56.76660
G1 X184.233 Y137.407 E56.78856
G1 X157.407 Y164.233 E58.31278
G1 X157.954 Y164.233 E58.33474
G1 X184.233 Y137.954 E59.82790
G1 X184.233 Y138.501 E59.84987
G1 X158.501 Y164.233 E61.31196
G1 X159.047 Y164.233 E61.33393
G1 X184.233 Y139.047 E62.76496
G1 X184.233 Y139.594 E62.78693
G1 X159.594 Y164.233 E64.18690
G1 X160.141 Y164.233 E64.20886
G1 X184.233 Y140.141 E65.57777
G1 X184.233 Y140.687 E65.59974
G1 X160.687 Y164.233 E66.93759
G1 X161.234 Y164.233 E66.95955
G1 X184.233 Y141.234 E68.26634
G1 X184.233 Y141.781 E68.28830
G1 X161.781 Y164.233 E69.56403
G1 X162.327 Y164.233 E69.58599
G1 X184.233 Y142.327 E70.83066
G1 X184.233 Y142.874 E70.85262
G1 X162.874 Y164.233 E72.06623
G1 X163.421 Y164.233 E72.08819
G1 X184.233 Y143.421 E73.27073
G1 X184.233 Y143.967 E73.29270
G1 X163.967 Y164.233 E74.44417
G1 X164.514 Y164.233 E74.46614
G1 X184.233 Y144.514 E75.58656
G1 X184.233 Y145.061 E75.60852
G1 X165.061 Y164.233 E76.69788
G1 X165.607 Y164.233 E76.71984
G1 X184.233 Y145.607 E77.77813
G1 X184.233 Y146.154 E77.80010
G1 X166.154 Y164.233 E78.82733
G1 X166.701 Y164.233 E78.84929
G1 X184.233 Y146.701 E79.84547
G1 X184.233 Y147.247 E79.86743
G1 X167.247 Y164.233 E80.83254
G1 X167.794 Y164.233 E80.85450
G1 X184.233 Y147.794 E81.78855
G1 X184.233 Y148.341 E81.81051
G1 X168.341 Y164.233 E82.71350
G1 X168.887 Y164.233 E82.73546
G1 X184.233 Y148.887 E83.60739
G1 X184.233 Y149.434 E83.62935
G1 X169.434 Y164.233 E84.47021
G1 X169.981 Y164.233 E84.49218
G1 X184.233 Y149.981 E85.30198
G1 X184.233 Y150.527 E85.32394
G1 X170.527 Y164.233 E86.10268
G1 X171.074 Y164.233 E86.12465
G1 X184.233 Y151.074 E86.87232
G1 X184.233 Y151.621 E86.89429
G1 X171.621 Y164.233 E87.61090
G1 X172.167 Y164.233 E87.63287
G1 X184.233 Y152.167 E88.31842
G1 X184.233 Y152.714 E88.34039
G1 X172.714 Y164.233 E88.99488
G1 X173.261 Y164.233 E89.01684
G1 X184.233 Y153.261 E89.64027
G1 X184.233 Y153.807 E89.66224
G1 X173.807 Y164.233 E90.25460
G1 X174.354 Y164.233 E90.27657
G1 X184.233 Y154.354 E90.83788
G1 X184.233 Y154.901 E90.85984
G1 X174.901 Y164.233 E91.39008
G1 X175.447 Y164.233 E91.41205
G1 X184.233 Y155.447 E91.91123
G1 X184.233 Y155.994 E91.93320
G1 X175.994 Y164.233 E92.40132
G1 X176.541 Y164.233 E92.42328
G1 X184.233 Y156.541 E92.86034
G1 X184.233 Y157.087 E92.88231
G1 X177.087 Y164.233 E93.28831
G1 X177.634 Y164.233 E93.31027
G1 X184.233 Y157.634 E93.68521
G1 X184.233 Y158.181 E93.70717
G1 X178.181 Y164.233 E94.05104
G1 X178.727 Y164.233 E94.07301
G1 X184.233 Y158.727 E94.38582
G1 X184.233 Y159.274 E94.40779
G1 X179.274 Y164.233 E94.68954
G1 X179.821 Y164.233 E94.71150
G1 X184.233 Y159.821 E94.96219
G1 X184.233 Y160.367 E94.98416
G1 X180.367 Y164.233 E95.20378
G1 X180.914 Y164.233 E95.22575
G1 X184.233 Y160.914 E95.41431
G1 X184.233 Y161.461 E95.43628
G1 X181.461 Y164.233 E95.59378
G1 X182.007 Y164.233 E95.61575
G1 X184.233 Y162.007 E95.74219
G1 X184.233 Y162.554 E95.76415
G1 X182.554 Y164.233 E95.85954
G1 X183.101 Y164.233 E95.88150
G1 X184.233 Y163.101 E95.94582
G1 X184.233 Y163.647 E95.96778
G1 X183.647 Y164.233 E96.00104
G1 X184.194 Y164.233 E96.02301
G1 X184.233 Y164.194 E96.02520
M106 S169
G1 F1800.000 E95.02520
G92 E0
G1 Z0.850 F7800.000
G1 X184.475 Y164.475 F7800.000
G1 E1.00000 F1800.000
G1 X155.525 Y164.475 E2.05315 F1800
G1 X155.525 Y135.525 E3.10630
G1 X184.475 Y135.525 E4.15945
G1 X184.475 Y164.423 E5.21069
G1 X184.825 Y164.825 F7800.000
G1 X155.175 Y164.825 E6.28931 F1260
G1 X155.175 Y135.175 E7.36793
G1 X184.825 Y135.175 E8.44654
G1 X184.825 Y164.773 E9.52325
G1 X184.522 Y164.650 F7800.000
G1 X155.806 Y164.233 F7800.000
