; generated by Slic3r 1.0.0RC1 on 2013-12-28 at 16:33:34

; layer_height = 0.25
; perimeters = 1
; top_solid_layers = 2
; bottom_solid_layers = 3
; fill_density = 0.4
; perimeter_speed = 30
; infill_speed = 60
; travel_speed = 130
; nozzle_diameter = 0.35
; filament_diameter = 1.75
; extrusion_multiplier = 1
; perimeters extrusion width = 0.35mm
; infill extrusion width = 0.39mm
; solid infill extrusion width = 0.39mm
; top infill extrusion width = 0.39mm
; support material extrusion width = 0.35mm
; first layer extrusion width = 0.70mm

G21 ; set units to millimeters
M107
M104 S200 ; set temperature
G28 ; home all axes
G1 Z5 F5000 ; lift nozzle

M109 S200 ; wait for temperature to be reached
G90 ; use absolute coordinates
G92 E0
M82 ; use absolute distances for extrusion
G1 F1800.000 E-1.00000
G92 E0
G1 Z0.350 F7800.000
G1 X139.190 Y139.268 F7800.000
G1 E1.00000 F1800.000
G1 X140.630 Y137.988 E1.17519 F540.000
G1 X141.330 Y137.438 E1.25614
G1 X142.100 Y136.978 E1.33770
G1 X143.920 Y136.038 E1.52396
G1 X144.660 Y135.718 E1.59727
G1 X145.430 Y135.478 E1.67061
G1 X147.300 Y135.018 E1.84571
G1 X148.160 Y134.858 E1.92525
G1 X149.030 Y134.808 E2.00449
G1 X150.960 Y134.808 E2.17999
G1 X151.830 Y134.858 E2.25923
G1 X152.690 Y135.018 E2.33877
G1 X154.560 Y135.478 E2.51388
G1 X155.390 Y135.738 E2.59296
G1 X156.180 Y136.088 E2.67153
G1 X157.890 Y136.978 E2.84682
G1 X158.650 Y137.438 E2.92760
G1 X159.360 Y137.988 E3.00926
G1 X160.800 Y139.268 E3.18445
G1 X161.410 Y139.878 E3.26290
G1 X161.940 Y140.568 E3.34201
G1 X163.040 Y142.158 E3.51782
G1 X163.500 Y142.908 E3.59782
G1 X163.860 Y143.718 E3.67842
G1 X164.540 Y145.518 E3.85338
G1 X164.800 Y146.338 E3.93160
G1 X164.950 Y147.178 E4.00919
G1 X165.190 Y149.098 E4.18513
G1 X165.250 Y149.998 E4.26715
G1 X165.190 Y150.898 E4.34917
G1 X164.950 Y152.808 E4.52421
G1 X164.800 Y153.658 E4.60270
G1 X164.540 Y154.468 E4.68005
G1 X163.860 Y156.268 E4.85501
G1 X163.500 Y157.078 E4.93561
G1 X163.040 Y157.828 E5.01562
G1 X161.940 Y159.418 E5.19142
G1 X161.410 Y160.108 E5.27053
G1 X160.800 Y160.718 E5.34898
G1 X159.360 Y161.998 E5.52417
G1 X158.670 Y162.538 E5.60384
G1 X157.920 Y162.998 E5.68384
G1 X156.210 Y163.898 E5.85955
G1 X155.400 Y164.258 E5.94015
G1 X154.560 Y164.518 E6.02011
G1 X152.690 Y164.978 E6.19521
G1 X151.830 Y165.138 E6.27476
G1 X150.960 Y165.188 E6.35399
G1 X149.030 Y165.188 E6.52949
G1 X148.160 Y165.138 E6.60873
G1 X147.300 Y164.978 E6.68827
G1 X145.430 Y164.518 E6.86338
G1 X144.590 Y164.258 E6.94333
G1 X143.780 Y163.898 E7.02393
G1 X142.070 Y162.998 E7.19964
G1 X141.320 Y162.538 E7.27965
G1 X140.630 Y161.998 E7.35932
G1 X139.190 Y160.718 E7.53451
G1 X138.580 Y160.108 E7.61295
G1 X138.050 Y159.418 E7.69206
G1 X136.950 Y157.828 E7.86787
G1 X136.490 Y157.078 E7.94787
G1 X136.130 Y156.268 E8.02847
G1 X135.450 Y154.468 E8.20343
G1 X135.190 Y153.638 E8.28252
G1 X135.030 Y152.778 E8.36206
G1 X134.800 Y150.868 E8.53699
G1 X134.750 Y149.998 E8.61623
G1 X134.800 Y149.138 E8.69456
G1 X135.030 Y147.218 E8.87040
G1 X135.190 Y146.358 E8.94994
G1 X135.450 Y145.518 E9.02989
G1 X136.130 Y143.718 E9.20486
G1 X136.490 Y142.908 E9.28546
G1 X136.950 Y142.158 E9.36546
G1 X138.050 Y140.568 E9.54126
G1 X138.580 Y139.878 E9.62038
G1 X139.124 Y139.335 E9.69030
G1 X139.610 Y139.738 F7800.000
G1 X141.050 Y138.458 E9.86549 F540.000
G1 X141.690 Y137.958 E9.93934
G1 X142.380 Y137.538 E10.01279
G1 X144.200 Y136.588 E10.19947
G1 X144.870 Y136.298 E10.26585
G1 X145.580 Y136.088 E10.33318
G1 X147.450 Y135.628 E10.50828
G1 X148.230 Y135.478 E10.58051
G1 X149.030 Y135.438 E10.65334
G1 X150.960 Y135.438 E10.82884
G1 X151.760 Y135.478 E10.90167
G1 X152.540 Y135.628 E10.97390
G1 X154.410 Y136.088 E11.14900
G1 X155.170 Y136.318 E11.22121
G1 X155.890 Y136.638 E11.29285
G1 X157.600 Y137.528 E11.46814
G1 X158.300 Y137.948 E11.54237
G1 X158.940 Y138.458 E11.61678
G1 X160.380 Y139.738 E11.79197
G1 X160.940 Y140.298 E11.86398
G1 X161.430 Y140.918 E11.93584
G1 X162.530 Y142.508 E12.11164
G1 X162.950 Y143.198 E12.18510
G1 X163.280 Y143.938 E12.25877
G1 X163.960 Y145.738 E12.43373
G1 X164.190 Y146.488 E12.50507
G1 X164.330 Y147.258 E12.57623
G1 X164.570 Y149.178 E12.75217
G1 X164.620 Y149.998 E12.82687
G1 X164.570 Y150.828 E12.90248
G1 X164.330 Y152.738 E13.07752
G1 X164.190 Y153.498 E13.14779
G1 X163.960 Y154.248 E13.21912
G1 X163.280 Y156.048 E13.39409
G1 X162.950 Y156.788 E13.46776
G1 X162.530 Y157.478 E13.54121
G1 X161.430 Y159.068 E13.71702
G1 X160.940 Y159.688 E13.78888
G1 X160.380 Y160.248 E13.86089
G1 X158.940 Y161.528 E14.03608
G1 X158.310 Y162.028 E14.10921
G1 X157.630 Y162.438 E14.18142
G1 X155.920 Y163.338 E14.35713
G1 X155.180 Y163.668 E14.43080
G1 X154.410 Y163.908 E14.50414
G1 X152.540 Y164.368 E14.67925
G1 X151.760 Y164.518 E14.75147
G1 X150.960 Y164.558 E14.82431
G1 X149.030 Y164.558 E14.99980
G1 X148.230 Y164.518 E15.07263
G1 X147.450 Y164.368 E15.14486
G1 X145.580 Y163.908 E15.31997
G1 X144.810 Y163.668 E15.39330
G1 X144.070 Y163.338 E15.46698
G1 X142.360 Y162.438 E15.64269
G1 X141.680 Y162.028 E15.71489
G1 X141.050 Y161.528 E15.78803
G1 X139.610 Y160.248 E15.96322
G1 X139.050 Y159.688 E16.03523
G1 X138.560 Y159.068 E16.10709
G1 X137.460 Y157.478 E16.28289
G1 X137.040 Y156.788 E16.35634
G1 X136.710 Y156.048 E16.43002
G1 X136.030 Y154.248 E16.60498
G1 X135.800 Y153.488 E16.67718
G1 X135.650 Y152.698 E16.75030
G1 X135.420 Y150.788 E16.92523
G1 X135.380 Y149.998 E16.99716
G1 X135.420 Y149.208 E17.06908
G1 X135.650 Y147.288 E17.24492
G1 X135.800 Y146.498 E17.31803
G1 X136.030 Y145.738 E17.39024
G1 X136.710 Y143.938 E17.56520
G1 X137.040 Y143.198 E17.63887
G1 X137.460 Y142.508 E17.71233
G1 X138.560 Y140.918 E17.88813
G1 X139.050 Y140.298 E17.95999
G1 X139.544 Y139.805 E18.02348
G1 F1800.000 E17.02348
G92 E0
G1 X144.747 Y145.346 F7800.000
G1 E1.00000 F1800.000
G1 X146.013 Y144.224 E1.15384 F540.000
G1 X147.511 Y143.438 E1.30768
G1 X149.154 Y143.033 E1.46152
G1 X150.846 Y143.033 E1.61535
G1 X152.489 Y143.438 E1.76919
G1 X153.987 Y144.224 E1.92303
G1 X155.253 Y145.346 E2.07687
G1 X156.214 Y146.739 E2.23071
G1 X156.814 Y148.321 E2.38455
G1 X157.018 Y150.000 E2.53838
G1 X156.814 Y151.679 E2.69222
G1 X156.214 Y153.261 E2.84606
G1 X155.253 Y154.654 E2.99990
G1 X153.987 Y155.776 E3.15374
G1 X152.489 Y156.562 E3.30758
G1 X150.846 Y156.967 E3.46141
G1 X149.154 Y156.967 E3.61525
G1 X147.511 Y156.562 E3.76909
G1 X146.013 Y155.776 E3.92293
G1 X144.747 Y154.654 E4.07677
G1 X143.786 Y153.261 E4.23061
G1 X143.186 Y151.680 E4.38444
G1 X142.982 Y150.000 E4.53828
G1 X143.186 Y148.321 E4.69212
G1 X143.786 Y146.739 E4.84596
G1 X144.694 Y145.423 E4.99127
G1 X144.223 Y145.005 F7800.000
G1 X144.276 Y144.929 E4.99969 F378.000
G1 X145.656 Y143.706 E5.16732
G1 X147.288 Y142.850 E5.33496
G1 X149.078 Y142.408 E5.50260
G1 X150.922 Y142.408 E5.67023
G1 X152.622 Y142.827 E5.82946
G1 X152.712 Y142.850 E5.83787
G1 X154.344 Y143.706 E6.00551
G1 X155.724 Y144.929 E6.17315
G1 X156.771 Y146.446 E6.34078
G1 X157.425 Y148.170 E6.50842
G1 X157.647 Y150.000 E6.67606
G1 X157.425 Y151.830 E6.84369
G1 X156.771 Y153.554 E7.01133
G1 X155.724 Y155.071 E7.17897
G1 X154.344 Y156.294 E7.34660
G1 X152.712 Y157.150 E7.51424
G1 X150.922 Y157.592 E7.68188
G1 X149.078 Y157.592 E7.84952
G1 X147.288 Y157.150 E8.01715
G1 X145.656 Y156.294 E8.18479
G1 X144.276 Y155.071 E8.35243
G1 X144.223 Y154.995 E8.36084
G1 X143.229 Y153.554 E8.52006
G1 X142.575 Y151.830 E8.68770
G1 X142.353 Y150.000 E8.85534
G1 X142.575 Y148.170 E9.02297
G1 X143.229 Y146.446 E9.19061
G1 X144.170 Y145.082 E9.34131
G1 X143.814 Y152.150 F7800.000
G1 X147.885 Y156.221 E9.88997 F1080.000
G1 X149.114 Y156.524 E10.01063
G1 X143.518 Y150.928 E10.76486
G1 X143.417 Y149.901 E10.86321
G1 X150.063 Y156.547 E11.75888
G1 X150.951 Y156.508 E11.84358
G1 X143.518 Y149.075 E12.84540
G1 X143.650 Y148.282 E12.92209
G1 X151.694 Y156.325 E14.00621
G1 X152.419 Y156.124 E14.07793
G1 X143.905 Y147.610 E15.22546
G1 X144.160 Y146.938 E15.29391
G1 X153.026 Y155.805 E16.48898
G1 X153.634 Y155.486 E16.55436
G1 X144.537 Y146.390 E17.78040
G1 X144.916 Y145.842 E17.84386
G1 X154.146 Y155.073 E19.08802
G1 X154.631 Y154.631 E19.15051
G1 X145.369 Y145.369 E20.39894
G1 X145.854 Y144.927 E20.46143
G1 X155.084 Y154.158 E21.70559
G1 X155.463 Y153.610 E21.76905
G1 X146.366 Y144.514 E22.99509
G1 X146.974 Y144.195 E23.06047
G1 X155.840 Y153.062 E24.25554
G1 X156.095 Y152.390 E24.32399
G1 X147.581 Y143.876 E25.47152
G1 X148.306 Y143.675 E25.54324
G1 X156.350 Y151.718 E26.62735
G1 X156.482 Y150.925 E26.70405
G1 X149.049 Y143.492 E27.70587
G1 X149.937 Y143.453 E27.79057
G1 X156.583 Y150.099 E28.68624
G1 X156.482 Y149.072 E28.78458
G1 X150.886 Y143.476 E29.53881
G1 X152.115 Y143.779 E29.65947
G1 X156.186 Y147.850 E30.20812
G1 X155.040 Y145.777 F7800.000
G1 X154.528 Y145.265 E30.27711 F1080.000
G1 X145.472 Y154.735 F7800.000
G1 X144.960 Y154.223 E30.34612 F1080.000
M106 S255
M104 S220 ; set temperature
G1 F1800.000 E29.34612
G92 E0
G1 Z0.600 F7800.000
G1 X144.236 Y154.705 F7800.000
G1 E1.00000 F1800.000
G1 X143.385 Y153.472 E1.05451 F752.688
G1 X142.746 Y151.788 E1.12003
G1 X142.529 Y150.000 E1.18555
G1 X142.746 Y148.212 E1.25107
G1 X143.385 Y146.528 E1.31659
G1 X144.236 Y145.295 E1.37110
G1 X144.408 Y145.046 E1.38211
G1 X145.756 Y143.851 E1.44763
G1 X147.351 Y143.014 E1.51315
G1 X149.099 Y142.583 E1.57867
G1 X150.901 Y142.583 E1.64420
G1 X152.649 Y143.014 E1.70972
G1 X154.244 Y143.851 E1.77524
G1 X155.592 Y145.046 E1.84076
G1 X156.615 Y146.528 E1.90628
G1 X157.254 Y148.212 E1.97180
G1 X157.471 Y150.000 E2.03732
G1 X157.254 Y151.788 E2.10284
G1 X156.615 Y153.472 E2.16836
G1 X155.592 Y154.954 E2.23388
G1 X154.244 Y156.149 E2.29940
G1 X152.649 Y156.986 E2.36492
G1 X150.901 Y157.417 E2.43044
G1 X149.099 Y157.417 E2.49596
G1 X147.351 Y156.986 E2.56148
G1 X145.756 Y156.149 E2.62701
G1 X144.408 Y154.954 E2.69253
G1 X144.266 Y154.748 E2.70163
G1 X143.948 Y154.904 F7800.000
G1 X143.072 Y153.636 E2.75768 F600.000
G1 X142.404 Y151.872 E2.82630
G1 X142.176 Y150.000 E2.89491
G1 X142.404 Y148.128 E2.96352
G1 X143.072 Y146.364 E3.03213
G1 X143.948 Y145.096 E3.08819
G1 X144.144 Y144.812 E3.10075
G1 X145.556 Y143.561 E3.16936
G1 X147.226 Y142.685 E3.23797
G1 X149.057 Y142.233 E3.30658
G1 X150.943 Y142.233 E3.37520
G1 X152.774 Y142.685 E3.44381
G1 X154.444 Y143.561 E3.51242
G1 X155.856 Y144.812 E3.58104
G1 X156.928 Y146.364 E3.64965
G1 X157.596 Y148.128 E3.71826
G1 X157.824 Y150.000 E3.78687
G1 X157.596 Y151.872 E3.85549
G1 X156.928 Y153.636 E3.92410
G1 X155.856 Y155.188 E3.99271
G1 X154.444 Y156.439 E4.06132
G1 X152.774 Y157.315 E4.12994
G1 X150.943 Y157.767 E4.19855
G1 X149.057 Y157.767 E4.26716
G1 X147.226 Y157.315 E4.33577
G1 X145.556 Y156.439 E4.40439
G1 X144.144 Y155.188 E4.47300
G1 X143.978 Y154.947 E4.48365
G1 X143.183 Y147.742 F7800.000
G1 X147.763 Y143.162 E4.74547 F1254.480
G1 X148.493 Y142.982 E4.77586
G1 X142.952 Y148.523 E5.09261
G1 X142.876 Y149.149 E5.11810
G1 X149.200 Y142.825 E5.47959
G1 X149.750 Y142.825 E5.50182
G1 X142.800 Y149.775 E5.89910
G1 X142.811 Y150.314 E5.92089
G1 X150.300 Y142.825 E6.34898
G1 X150.850 Y142.825 E6.37121
G1 X142.870 Y150.805 E6.82734
G1 X142.930 Y151.295 E6.84731
G1 X151.295 Y142.930 E7.32549
G1 X151.736 Y143.039 E7.34386
G1 X143.000 Y151.775 E7.84326
G1 X143.151 Y152.174 E7.86050
G1 X152.178 Y143.147 E8.37648
G1 X152.609 Y143.266 E8.39456
G1 X143.303 Y152.573 E8.92653
G1 X143.454 Y152.971 E8.94377
G1 X152.969 Y143.456 E9.48771
G1 X153.330 Y143.645 E9.50418
G1 X143.607 Y153.368 E10.05998
G1 X143.832 Y153.693 E10.07596
G1 X153.691 Y143.834 E10.63953
G1 X154.051 Y144.024 E10.65600
G1 X144.056 Y154.019 E11.22735
G1 X144.281 Y154.344 E11.24334
G1 X154.353 Y144.272 E11.81912
G1 X154.645 Y144.530 E11.83486
G1 X144.505 Y154.670 E12.41448
G1 X144.775 Y154.950 E12.43020
G1 X154.937 Y144.788 E13.01106
G1 X155.225 Y145.050 E13.02680
G1 X145.063 Y155.212 E13.60766
G1 X145.355 Y155.470 E13.62341
G1 X155.495 Y145.330 E14.20302
G1 X155.719 Y145.656 E14.21900
G1 X145.647 Y155.728 E14.79478
G1 X145.949 Y155.976 E14.81057
G1 X155.944 Y145.981 E15.38193
G1 X156.168 Y146.307 E15.39791
G1 X146.309 Y156.166 E15.96149
G1 X146.670 Y156.355 E15.97795
G1 X156.393 Y146.632 E16.53375
G1 X156.546 Y147.029 E16.55094
G1 X147.031 Y156.544 E17.09489
G1 X147.391 Y156.734 E17.11135
G1 X156.697 Y147.427 E17.64332
G1 X156.849 Y147.826 E17.66056
G1 X147.822 Y156.853 E18.17654
G1 X148.264 Y156.961 E18.19491
G1 X157.000 Y148.225 E18.69432
G1 X157.070 Y148.705 E18.71392
G1 X148.705 Y157.070 E19.19211
G1 X149.150 Y157.175 E19.21060
G1 X157.130 Y149.195 E19.66673
G1 X157.189 Y149.686 E19.68670
G1 X149.700 Y157.175 E20.11479
G1 X150.250 Y157.175 E20.13702
G1 X157.200 Y150.225 E20.53429
G1 X157.124 Y150.851 E20.55978
G1 X150.800 Y157.175 E20.92127
G1 X151.507 Y157.018 E20.95053
G1 X157.048 Y151.477 E21.26728
G1 X156.817 Y152.258 E21.30020
G1 X152.237 Y156.838 E21.56203
G1 X153.203 Y156.422 F7800.000
G1 X156.481 Y153.144 E21.74941 F1254.480
G1 X155.471 Y154.703 F7800.000
G1 X155.167 Y155.007 E21.76679 F1254.480
G1 F1800.000 E20.76679
G92 E0
G1 X146.797 Y143.578 F7800.000
G1 E1.00000 F1800.000
G1 X143.519 Y146.856 E1.18738 F1254.480
G1 X144.529 Y145.297 F7800.000
G1 X144.833 Y144.993 E1.20475 F1254.480
G1 F1800.000 E0.20475
G92 E0
G1 Z0.850 F7800.000
G1 X144.846 Y145.218 F7800.000
G1 E1.00000 F1800.000
G1 X146.485 Y143.911 E1.07624 F600.000
G1 X148.435 Y143.145 E1.15248
G1 X150.525 Y142.989 E1.22873
G1 X152.569 Y143.455 E1.30497
G1 X154.384 Y144.503 E1.38121
G1 X155.809 Y146.039 E1.45745
G1 X156.719 Y147.928 E1.53369
G1 X157.031 Y150.000 E1.60994
G1 X156.719 Y152.072 E1.68618
G1 X155.809 Y153.961 E1.76242
G1 X154.384 Y155.497 E1.83866
G1 X152.569 Y156.545 E1.91490
G1 X150.525 Y157.011 E1.99115
G1 X148.435 Y156.855 E2.06739
G1 X146.485 Y156.089 E2.14363
G1 X144.846 Y154.782 E2.21987
G1 X143.665 Y153.051 E2.29611
G1 X143.048 Y151.048 E2.37236
G1 X143.048 Y148.952 E2.44860
G1 X143.665 Y146.949 E2.52484
G1 X144.816 Y145.261 E2.59917
G1 X145.105 Y145.459 F7800.000
G1 X146.662 Y144.218 E2.67158 F600.000
G1 X148.514 Y143.490 E2.74398
G1 X150.499 Y143.342 E2.81638
G1 X152.439 Y143.785 E2.88879
G1 X154.163 Y144.780 E2.96119
G1 X155.517 Y146.239 E3.03359
G1 X156.380 Y148.032 E3.10600
G1 X156.677 Y150.000 E3.17840
G1 X156.380 Y151.968 E3.25081
G1 X155.517 Y153.761 E3.32321
G1 X154.163 Y155.220 E3.39561
G1 X152.439 Y156.215 E3.46802
G1 X150.499 Y156.658 E3.54042
G1 X148.514 Y156.510 E3.61283
G1 X146.662 Y155.782 E3.68523
G1 X145.105 Y154.541 E3.75763
G1 X143.984 Y152.897 E3.83004
G1 X143.398 Y150.995 E3.90244
G1 X143.398 Y149.005 E3.97484
G1 X143.984 Y147.103 E4.04725
G1 X145.076 Y145.502 E4.11774
G1 X144.408 Y145.046 F7800.000
G1 X145.756 Y143.851 E4.18326 F600.000
G1 X147.351 Y143.014 E4.24878
G1 X149.099 Y142.583 E4.31430
G1 X150.901 Y142.583 E4.37982
G1 X152.649 Y143.014 E4.44534
G1 X154.244 Y143.851 E4.51087
G1 X155.592 Y145.046 E4.57639
G1 X156.615 Y146.528 E4.64191
G1 X157.254 Y148.212 E4.70743
G1 X157.471 Y150.000 E4.77295
G1 X157.254 Y151.788 E4.83847
G1 X156.615 Y153.472 E4.90399
G1 X155.592 Y154.954 E4.96951
G1 X154.244 Y156.149 E5.03503
G1 X152.649 Y156.986 E5.10055
G1 X150.901 Y157.417 E5.16607
G1 X149.099 Y157.417 E5.23159
G1 X147.351 Y156.986 E5.29711
G1 X145.756 Y156.149 E5.36263
G1 X144.408 Y154.954 E5.42816
G1 X144.126 Y154.546 E5.44618
G1 X143.385 Y153.472 E5.49368
G1 X142.746 Y151.788 E5.55920
G1 X142.529 Y150.000 E5.62472
G1 X142.746 Y148.212 E5.69024
G1 X143.385 Y146.528 E5.75576
G1 X144.378 Y145.089 E5.81937
G1 X144.144 Y144.812 F7800.000
G1 X145.556 Y143.561 E5.88798 F600.000
G1 X147.226 Y142.685 E5.95659
G1 X149.057 Y142.233 E6.02521
G1 X150.943 Y142.233 E6.09382
G1 X152.774 Y142.685 E6.16243
G1 X154.444 Y143.561 E6.23105
G1 X155.856 Y144.812 E6.29966
G1 X156.928 Y146.364 E6.36827
G1 X157.596 Y148.128 E6.43688
G1 X157.824 Y150.000 E6.50550
G1 X157.596 Y151.872 E6.57411
G1 X156.928 Y153.636 E6.64272
G1 X155.856 Y155.188 E6.71133
G1 X154.444 Y156.439 E6.77995
G1 X152.774 Y157.315 E6.84856
G1 X150.943 Y157.767 E6.91717
G1 X149.057 Y157.767 E6.98578
G1 X147.226 Y157.315 E7.05440
G1 X145.556 Y156.439 E7.12301
