; generated by Slic3r 1.0.0RC1 on 2013-12-28 at 21:48:49

; layer_height = 0.25
; perimeters = 2
; top_solid_layers = 2
; bottom_solid_layers = 3
; fill_density = 0.4
; perimeter_speed = 30
; infill_speed = 60
; travel_speed = 130
; nozzle_diameter = 0.35
; filament_diameter = 1.75
; extrusion_multiplier = 1
; perimeters extrusion width = 0.35mm
; infill extrusion width = 0.39mm
; solid infill extrusion width = 0.39mm
; top infill extrusion width = 0.39mm
; first layer extrusion width = 0.70mm

G21 ; set units to millimeters
M107
M104 S220 ; set temperature
G28 ; home all axes
G1 Z5 F5000 ; lift nozzle

M109 S220 ; wait for temperature to be reached
G90 ; use absolute coordinates
G92 E0
M82 ; use absolute distances for extrusion
G1 F1800.000 E-1.00000
G92 E0
G1 Z0.350 F7800.000
G1 X97.590 Y22.043 F7800.000
G1 E1.00000 F1800.000
G1 X97.810 Y21.072 E1.09044 F540.000
G1 X98.170 Y19.762 E1.21398
G1 X98.300 Y19.332 E1.25482
G1 X98.920 Y17.523 E1.42879
G1 X99.270 Y16.672 E1.51238
G1 X100.070 Y15.003 E1.68076
G1 X100.320 Y14.512 E1.73078
G1 X101.200 Y12.963 E1.89285
G1 X101.760 Y12.123 E1.98465
G1 X102.820 Y10.713 E2.14505
G1 X103.150 Y10.293 E2.19361
G1 X103.720 Y9.633 E2.27291
G1 X104.110 Y9.213 E2.32503
G1 X104.730 Y8.593 E2.40476
G1 X105.150 Y8.203 E2.45687
G1 X106.470 Y7.063 E2.61547
G1 X107.160 Y6.533 E2.69458
G1 X108.570 Y5.563 E2.85020
G1 X109.050 Y5.263 E2.90167
G1 X110.220 Y4.583 E3.02472
G1 X111.010 Y4.183 E3.10524
G1 X113.180 Y3.253 E3.31991
G1 X113.980 Y2.963 E3.39729
G1 X115.740 Y2.433 E3.56442
G1 X116.550 Y2.233 E3.64029
G1 X118.410 Y1.883 E3.81238
G1 X119.200 Y1.773 E3.88491
G1 X121.180 Y1.603 E4.06561
G1 X121.850 Y1.583 E4.12656
G1 X123.880 Y1.583 E4.31115
G1 X124.570 Y1.613 E4.37395
G1 X126.510 Y1.783 E4.55103
G1 X127.280 Y1.883 E4.62164
G1 X129.130 Y2.233 E4.79284
G1 X129.930 Y2.433 E4.86782
G1 X131.700 Y2.963 E5.03583
G1 X132.580 Y3.283 E5.12097
G1 X134.210 Y3.993 E5.28264
G1 X187.800 Y29.832 E10.69245
G1 X188.910 Y30.383 E10.80509
G1 X219.020 Y47.093 E13.93634
G1 X220.210 Y47.913 E14.06775
G1 X221.240 Y48.932 E14.19956
G1 X222.060 Y50.123 E14.33096
G1 X222.650 Y51.432 E14.46161
G1 X222.990 Y52.843 E14.59349
G1 X223.070 Y54.282 E14.72463
G1 X222.100 Y79.642 E17.03229
G1 X222.060 Y80.182 E17.08153
G1 X221.800 Y82.602 E17.30284
G1 X221.670 Y83.392 E17.37564
G1 X221.470 Y84.172 E17.44886
G1 X220.760 Y86.382 E17.65993
G1 X220.400 Y87.293 E17.74892
G1 X219.930 Y88.153 E17.83804
G1 X218.740 Y90.052 E18.04189
G1 X218.190 Y90.822 E18.12793
G1 X217.560 Y91.522 E18.21357
G1 X215.840 Y93.192 E18.43156
G1 X215.190 Y93.752 E18.50957
G1 X214.490 Y94.242 E18.58727
G1 X212.420 Y95.522 E18.80857
G1 X211.800 Y95.862 E18.87287
G1 X211.160 Y96.153 E18.93676
G1 X208.690 Y97.123 E19.17805
G1 X208.040 Y97.343 E19.24045
G1 X207.370 Y97.513 E19.30330
G1 X204.550 Y98.082 E19.56491
G1 X203.430 Y98.222 E19.66754
G1 X200.210 Y98.403 E19.96079
G1 X199.580 Y98.412 E20.01809
G1 X197.950 Y98.373 E20.16635
G1 X196.080 Y98.272 E20.33663
G1 X195.430 Y98.212 E20.39598
G1 X193.570 Y97.953 E20.56676
G1 X190.210 Y97.362 E20.87695
G1 X129.180 Y84.132 E26.55528
G1 X127.700 Y83.653 E26.69676
G1 X126.350 Y82.892 E26.83763
G1 X125.170 Y81.882 E26.97886
G1 X124.210 Y80.662 E27.12002
G1 X101.540 Y45.123 E30.95313
G1 X100.500 Y43.392 E31.13668
G1 X100.160 Y42.773 E31.20098
G1 X99.370 Y41.142 E31.36568
G1 X99.140 Y40.623 E31.41738
G1 X98.790 Y39.742 E31.50350
G1 X98.240 Y38.123 E31.65906
G1 X97.970 Y37.203 E31.74625
G1 X97.650 Y35.862 E31.87152
G1 X97.210 Y33.442 E32.09518
G1 X97.120 Y32.763 E32.15755
G1 X97.000 Y31.343 E32.28713
G1 X96.920 Y29.183 E32.48367
G1 X96.920 Y28.593 E32.53732
G1 X97.000 Y26.482 E32.72932
G1 X97.150 Y24.752 E32.88722
G1 X97.280 Y23.742 E32.97981
G1 X97.572 Y22.134 E33.12842
G1 X98.200 Y22.182 F7800.000
G1 X98.420 Y21.212 E33.21886 F540.000
G1 X98.770 Y19.932 E33.33952
G1 X98.890 Y19.532 E33.37750
G1 X99.510 Y17.723 E33.55147
G1 X99.830 Y16.942 E33.62813
G1 X100.630 Y15.273 E33.79651
G1 X101.750 Y13.273 E34.00494
G1 X102.260 Y12.492 E34.08968
G1 X103.320 Y11.082 E34.25008
G1 X103.620 Y10.703 E34.29410
G1 X104.550 Y9.652 E34.42164
G1 X105.170 Y9.033 E34.50137
G1 X105.560 Y8.673 E34.54963
G1 X106.880 Y7.533 E34.70823
G1 X107.510 Y7.053 E34.78025
G1 X108.920 Y6.083 E34.93587
G1 X109.360 Y5.803 E34.98329
G1 X110.510 Y5.143 E35.10386
G1 X111.300 Y4.743 E35.18437
G1 X111.750 Y4.533 E35.22953
G1 X113.430 Y3.823 E35.39537
G1 X114.160 Y3.563 E35.46583
G1 X115.920 Y3.033 E35.63297
G1 X116.670 Y2.853 E35.70310
G1 X118.530 Y2.503 E35.87520
G1 X119.250 Y2.403 E35.94130
G1 X121.230 Y2.233 E36.12200
G1 X121.850 Y2.203 E36.17844
G1 X123.880 Y2.203 E36.36303
G1 X124.510 Y2.233 E36.42038
G1 X126.450 Y2.403 E36.59746
G1 X127.170 Y2.503 E36.66356
G1 X129.020 Y2.853 E36.83476
G1 X129.750 Y3.023 E36.90292
G1 X131.520 Y3.553 E37.07092
G1 X132.340 Y3.853 E37.15032
G1 X133.970 Y4.563 E37.31198
G1 X187.530 Y30.392 E42.71894
G1 X188.610 Y30.933 E42.82874
G1 X218.720 Y47.642 E45.95998
G1 X219.820 Y48.392 E46.08104
G1 X220.760 Y49.332 E46.20192
G1 X221.520 Y50.422 E46.32275
G1 X222.060 Y51.642 E46.44406
G1 X222.370 Y52.932 E46.56470
G1 X222.440 Y54.262 E46.68581
G1 X221.470 Y79.623 E48.99347
G1 X221.440 Y80.112 E49.03810
G1 X221.180 Y82.532 E49.25942
G1 X221.060 Y83.263 E49.32669
G1 X220.870 Y83.983 E49.39440
G1 X220.160 Y86.192 E49.60547
G1 X219.830 Y87.032 E49.68753
G1 X219.400 Y87.822 E49.76932
G1 X218.210 Y89.722 E49.97318
G1 X217.710 Y90.432 E50.05214
G1 X217.120 Y91.072 E50.13129
G1 X215.400 Y92.742 E50.34928
G1 X214.810 Y93.263 E50.42079
G1 X214.160 Y93.712 E50.49268
G1 X212.090 Y94.992 E50.71398
G1 X211.520 Y95.302 E50.77298
G1 X210.930 Y95.572 E50.83198
G1 X208.460 Y96.542 E51.07327
G1 X207.860 Y96.742 E51.13078
G1 X207.250 Y96.903 E51.18812
G1 X204.430 Y97.472 E51.44973
G1 X203.390 Y97.602 E51.54503
G1 X200.170 Y97.782 E51.83828
G1 X199.590 Y97.792 E51.89103
G1 X197.960 Y97.752 E52.03929
G1 X196.110 Y97.653 E52.20776
G1 X195.520 Y97.593 E52.26168
G1 X193.670 Y97.332 E52.43155
G1 X190.340 Y96.752 E52.73891
G1 X129.310 Y83.522 E58.41724
G1 X127.950 Y83.082 E58.54721
G1 X126.710 Y82.382 E58.67669
G1 X125.620 Y81.453 E58.80698
G1 X124.740 Y80.332 E58.93649
G1 X101.960 Y44.623 E62.78802
G1 X101.030 Y43.072 E62.95238
G1 X100.730 Y42.502 E63.01095
G1 X99.720 Y40.392 E63.22366
G1 X99.370 Y39.513 E63.30977
G1 X98.840 Y37.942 E63.46045
G1 X98.470 Y36.653 E63.58248
G1 X98.250 Y35.722 E63.66937
G1 X97.820 Y33.332 E63.89019
G1 X97.740 Y32.712 E63.94703
G1 X97.630 Y31.322 E64.07382
G1 X97.550 Y29.163 E64.27036
G1 X97.550 Y28.622 E64.31946
G1 X97.630 Y26.512 E64.51146
G1 X97.740 Y25.123 E64.63825
G1 X97.900 Y23.822 E64.75735
G1 X98.181 Y22.274 E64.90043
G1 X98.810 Y22.312 F7800.000
G1 X99.030 Y21.343 E64.99087 F540.000
G1 X99.370 Y20.102 E65.10778
G1 X99.480 Y19.733 E65.14288
G1 X100.100 Y17.922 E65.31685
G1 X100.400 Y17.212 E65.38694
G1 X101.200 Y15.543 E65.55532
G1 X101.410 Y15.133 E65.59720
G1 X102.290 Y13.582 E65.75928
G1 X102.750 Y12.873 E65.83620
G1 X103.810 Y11.463 E65.99660
G1 X104.670 Y10.453 E66.11722
G1 X105.620 Y9.482 E66.24068
G1 X105.970 Y9.152 E66.28442
G1 X107.290 Y8.013 E66.44301
G1 X107.870 Y7.563 E66.50977
G1 X109.280 Y6.593 E66.66538
G1 X109.680 Y6.343 E66.70828
G1 X110.790 Y5.703 E66.82478
G1 X111.990 Y5.113 E66.94637
G1 X113.670 Y4.403 E67.11222
G1 X114.340 Y4.163 E67.17693
G1 X116.100 Y3.633 E67.34407
G1 X116.780 Y3.463 E67.40780
G1 X118.640 Y3.113 E67.57990
G1 X119.300 Y3.023 E67.64047
G1 X121.280 Y2.853 E67.82117
G1 X121.850 Y2.833 E67.87303
G1 X123.880 Y2.833 E68.05762
G1 X124.460 Y2.853 E68.11039
G1 X126.400 Y3.023 E68.28747
G1 X127.050 Y3.113 E68.34714
G1 X128.900 Y3.463 E68.51834
G1 X129.570 Y3.623 E68.58098
G1 X131.340 Y4.153 E68.74898
G1 X132.090 Y4.433 E68.82178
G1 X133.950 Y5.243 E69.00625
G1 X188.020 Y31.332 E74.46524
G1 X218.410 Y48.192 E77.62537
G1 X219.600 Y49.032 E77.75782
G1 X220.580 Y50.112 E77.89043
G1 X221.290 Y51.383 E78.02273
G1 X221.720 Y52.782 E78.15590
G1 X221.820 Y54.233 E78.28806
G1 X220.820 Y80.052 E80.63763
G1 X220.560 Y82.472 E80.85894
G1 X220.450 Y83.132 E80.91978
G1 X220.280 Y83.793 E80.98176
G1 X219.570 Y86.002 E81.19283
G1 X219.270 Y86.763 E81.26712
G1 X218.870 Y87.492 E81.34281
G1 X217.680 Y89.392 E81.54667
G1 X217.220 Y90.032 E81.61833
G1 X216.680 Y90.623 E81.69106
G1 X214.960 Y92.292 E81.90905
G1 X214.420 Y92.763 E81.97415
G1 X213.830 Y93.172 E82.03948
G1 X211.760 Y94.453 E82.26078
G1 X211.240 Y94.742 E82.31492
G1 X210.700 Y94.992 E82.36903
G1 X208.230 Y95.962 E82.61032
G1 X207.680 Y96.142 E82.66294
G1 X207.120 Y96.282 E82.71543
G1 X204.300 Y96.852 E82.97704
G1 X203.360 Y96.972 E83.06321
G1 X200.140 Y97.153 E83.35646
G1 X199.610 Y97.162 E83.40466
G1 X197.980 Y97.123 E83.55292
G1 X196.140 Y97.022 E83.72047
G1 X195.600 Y96.972 E83.76979
G1 X193.780 Y96.722 E83.93683
G1 X190.740 Y96.192 E84.21743
G1 X129.450 Y82.903 E89.92002
G1 X128.200 Y82.502 E90.03936
G1 X127.060 Y81.873 E90.15779
G1 X126.070 Y81.022 E90.27644
G1 X125.260 Y79.992 E90.39559
G1 X102.590 Y44.453 E94.22870
G1 X101.570 Y42.752 E94.40897
G1 X101.290 Y42.233 E94.46267
G1 X100.300 Y40.162 E94.67132
G1 X99.950 Y39.282 E94.75743
G1 X99.440 Y37.773 E94.90235
G1 X99.170 Y36.852 E94.98954
G1 X98.860 Y35.582 E95.10841
G1 X98.440 Y33.222 E95.32637
G1 X98.360 Y32.653 E95.37871
G1 X98.250 Y31.302 E95.50187
G1 X98.170 Y29.142 E95.69842
G1 X98.170 Y28.642 E95.74388
G1 X98.250 Y26.532 E95.93588
G1 X98.360 Y25.182 E96.05904
G1 X98.520 Y23.902 E96.17634
G1 X98.793 Y22.405 E96.31478
G1 F1800.000 E95.31478
G92 E0
G1 X114.700 Y25.201 F7800.000
G1 E1.00000 F1800.000
G1 X115.642 Y23.051 E1.21342 F540.000
G1 X116.072 Y22.239 E1.29701
G1 X116.562 Y21.456 E1.38098
G1 X117.160 Y20.708 E1.46803
G1 X117.799 Y20.068 E1.55037
G1 X118.464 Y19.505 E1.62956
G1 X119.256 Y19.030 E1.71354
G1 X120.121 Y18.674 E1.79853
G1 X120.976 Y18.423 E1.87959
G1 X121.883 Y18.272 E1.96324
G1 X122.870 Y18.222 E2.05309
G1 X123.857 Y18.272 E2.14294
G1 X124.757 Y18.421 E2.22586
G1 X125.667 Y18.674 E2.31177
G1 X126.493 Y19.035 E2.39376
G1 X127.261 Y19.496 E2.47518
G1 X127.972 Y20.055 E2.55741
G1 X128.625 Y20.708 E2.64137
G1 X129.223 Y21.456 E2.72845
G1 X129.712 Y22.239 E2.81241
G1 X130.520 Y23.807 E2.97281
G1 X130.817 Y24.697 E3.05808
G1 X131.059 Y25.620 E3.14485
G1 X131.203 Y26.630 E3.23762
G1 X131.296 Y27.737 E3.33867
G1 X131.342 Y28.898 E3.44433
G1 X131.296 Y30.149 E3.55812
G1 X131.203 Y31.258 E3.65935
G1 X131.060 Y32.262 E3.75157
G1 X130.820 Y33.222 E3.84151
G1 X130.527 Y34.151 E3.93008
G1 X130.136 Y34.980 E4.01346
G1 X129.712 Y35.781 E4.09584
G1 X129.223 Y36.564 E4.17981
G1 X128.613 Y37.327 E4.26866
G1 X127.957 Y37.933 E4.34985
G1 X127.261 Y38.479 E4.43030
G1 X126.493 Y38.940 E4.51173
G1 X125.667 Y39.301 E4.59371
G1 X124.757 Y39.554 E4.67960
G1 X123.857 Y39.704 E4.76255
G1 X122.870 Y39.754 E4.85240
G1 X121.883 Y39.704 E4.94225
G1 X120.976 Y39.553 E5.02593
G1 X120.121 Y39.301 E5.10696
G1 X119.256 Y38.946 E5.19195
G1 X118.464 Y38.470 E5.27594
G1 X117.814 Y37.921 E5.35336
G1 X117.172 Y37.327 E5.43292
G1 X116.562 Y36.564 E5.52176
G1 X116.072 Y35.781 E5.60573
G1 X115.637 Y34.959 E5.69028
G1 X115.294 Y34.128 E5.77204
G1 X115.008 Y33.222 E5.85842
G1 X114.774 Y32.284 E5.94632
G1 X114.583 Y31.280 E6.03920
G1 X114.487 Y30.131 E6.14411
G1 X114.487 Y27.756 E6.36001
G1 X114.583 Y26.607 E6.46488
G1 X114.775 Y25.598 E6.55830
G1 X114.879 Y25.201 E6.59559
G1 X114.794 Y25.201 E6.60334
G1 X115.395 Y25.695 F7800.000
G1 X115.690 Y24.576 E6.70850 F378.000
G1 X115.656 Y24.576 E6.71156
G1 X116.205 Y23.323 E6.83595
G1 X116.614 Y22.551 E6.91540
G1 X117.072 Y21.818 E6.99404
G1 X117.626 Y21.125 E7.07466
G1 X118.223 Y20.528 E7.15147
G1 X118.829 Y20.015 E7.22367
G1 X119.538 Y19.590 E7.29879
G1 X120.328 Y19.264 E7.37655
G1 X121.116 Y19.033 E7.45118
G1 X121.951 Y18.894 E7.52812
G1 X122.870 Y18.848 E7.61185
G1 X123.790 Y18.894 E7.69558
G1 X124.621 Y19.032 E7.77224
G1 X125.457 Y19.264 E7.85111
G1 X126.206 Y19.592 E7.92543
G1 X126.906 Y20.012 E7.99962
G1 X127.556 Y20.523 E8.07489
G1 X128.158 Y21.125 E8.15230
G1 X128.712 Y21.818 E8.23293
G1 X129.171 Y22.551 E8.31157
G1 X129.941 Y24.047 E8.46456
G1 X130.217 Y24.875 E8.54395
G1 X130.446 Y25.744 E8.62561
G1 X130.582 Y26.700 E8.71343
G1 X130.672 Y27.775 E8.81159
G1 X130.717 Y28.899 E8.91383
G1 X130.672 Y30.111 E9.02412
G1 X130.582 Y31.188 E9.12237
G1 X130.446 Y32.142 E9.21000
G1 X130.219 Y33.052 E9.29528
G1 X129.944 Y33.922 E9.37829
G1 X129.577 Y34.701 E9.45652
G1 X129.171 Y35.468 E9.53552
G1 X128.712 Y36.202 E9.61416
G1 X128.154 Y36.900 E9.69543
G1 X127.551 Y37.457 E9.77007
G1 X126.906 Y37.964 E9.84470
G1 X126.206 Y38.384 E9.91890
G1 X125.457 Y38.711 E9.99321
G1 X124.622 Y38.943 E10.07207
G1 X123.790 Y39.082 E10.14874
G1 X122.870 Y39.128 E10.23247
G1 X121.951 Y39.082 E10.31620
G1 X121.116 Y38.943 E10.39316
G1 X120.328 Y38.711 E10.46779
G1 X119.538 Y38.386 E10.54554
G1 X118.829 Y37.961 E10.62066
G1 X118.228 Y37.452 E10.69223
G1 X117.630 Y36.900 E10.76627
G1 X117.072 Y36.202 E10.84753
G1 X116.614 Y35.468 E10.92617
G1 X116.203 Y34.693 E11.00596
G1 X115.882 Y33.914 E11.08256
G1 X115.610 Y33.052 E11.16479
G1 X115.384 Y32.150 E11.24934
G1 X115.203 Y31.196 E11.33762
G1 X115.112 Y30.105 E11.43719
G1 X115.112 Y27.782 E11.64835
G1 X115.203 Y26.692 E11.74788
G1 X115.375 Y25.786 E11.83170
G1 X114.942 Y25.265 F7800.000
G1 F1800.000 E10.83170
G92 E0
G1 X140.328 Y30.521 F7800.000
G1 E1.00000 F1800.000
G1 X141.358 Y30.262 E1.09663 F540.000
G1 X141.603 Y30.262 E1.11892
G1 X142.104 Y30.174 E1.16515
G1 X142.325 Y30.174 E1.18520
G1 X142.909 Y30.086 E1.23894
G1 X143.173 Y30.086 E1.26296
G1 X143.482 Y30.041 E1.29131
G1 X143.791 Y30.041 E1.31944
G1 X144.100 Y29.997 E1.34782
G1 X144.770 Y29.997 E1.40874
G1 X145.123 Y29.953 E1.44104
G1 X145.865 Y29.953 E1.50854
G1 X146.990 Y30.000 E1.61089
G1 X148.080 Y30.149 E1.71100
G1 X149.064 Y30.444 E1.80436
G1 X149.981 Y30.781 E1.89322
G1 X150.901 Y31.242 E1.98680
G1 X151.718 Y31.854 E2.07963
G1 X152.423 Y32.509 E2.16712
G1 X153.061 Y33.293 E2.25901
G1 X153.625 Y34.092 E2.34794
G1 X154.111 Y34.871 E2.43139
G1 X154.498 Y35.694 E2.51413
G1 X154.835 Y36.510 E2.59442
G1 X155.126 Y37.483 E2.68673
G1 X155.323 Y38.465 E2.77777
G1 X155.417 Y39.600 E2.88134
G1 X155.464 Y40.770 E2.98780
G1 X155.326 Y43.216 E3.21063
G1 X154.946 Y45.256 E3.39928
G1 X154.309 Y46.973 E3.56579
G1 X153.446 Y48.341 E3.71287
G1 X152.314 Y49.473 E3.85845
G1 X151.034 Y50.241 E3.99417
G1 X149.604 Y50.784 E4.13329
G1 X148.023 Y51.119 E4.28022
G1 X146.991 Y51.217 E4.37447
G1 X146.381 Y51.217 E4.42998
G1 X144.658 Y51.078 E4.58715
G1 X143.609 Y50.878 E4.68422
G1 X143.191 Y50.738 E4.72434
G1 X142.820 Y50.646 E4.75907
G1 X142.042 Y50.354 E4.83466
G1 X141.342 Y50.030 E4.90482
G1 X141.076 Y49.853 E4.93383
G1 X140.328 Y49.478 E5.00997
G1 X140.328 Y30.615 E6.72512
G1 X140.953 Y31.008 F7800.000
G1 X141.436 Y30.886 E6.77042 F378.000
G1 X141.665 Y30.886 E6.79127
G1 X142.156 Y30.799 E6.83660
G1 X142.376 Y30.799 E6.85665
G1 X142.953 Y30.711 E6.90973
G1 X143.218 Y30.711 E6.93380
G1 X143.527 Y30.666 E6.96214
G1 X143.835 Y30.666 E6.99022
G1 X144.144 Y30.622 E7.01860
G1 X144.809 Y30.622 E7.07903
G1 X145.161 Y30.578 E7.11133
G1 X145.852 Y30.578 E7.17412
G1 X146.934 Y30.623 E7.27261
G1 X147.948 Y30.761 E7.36562
G1 X148.866 Y31.037 E7.45280
G1 X149.732 Y31.356 E7.53675
G1 X150.572 Y31.776 E7.62206
G1 X151.317 Y32.335 E7.70678
G1 X151.966 Y32.937 E7.78731
G1 X152.562 Y33.671 E7.87330
G1 X153.104 Y34.438 E7.95869
G1 X153.561 Y35.170 E8.03717
G1 X153.926 Y35.946 E8.11515
G1 X154.245 Y36.720 E8.19122
G1 X154.519 Y37.634 E8.27803
G1 X154.703 Y38.552 E8.36314
G1 X154.793 Y39.638 E8.46224
G1 X154.838 Y40.764 E8.56474
G1 X154.704 Y43.141 E8.78119
G1 X154.341 Y45.089 E8.96133
G1 X153.745 Y46.694 E9.11707
G1 X152.955 Y47.949 E9.25188
G1 X151.927 Y48.977 E9.38410
G1 X150.761 Y49.677 E9.50776
G1 X149.427 Y50.183 E9.63745
G1 X147.927 Y50.501 E9.77689
G1 X146.963 Y50.593 E9.86494
G1 X146.405 Y50.593 E9.91570
G1 X144.740 Y50.458 E10.06756
G1 X143.770 Y50.273 E10.15735
G1 X143.366 Y50.138 E10.19612
G1 X143.006 Y50.048 E10.22979
G1 X142.275 Y49.774 E10.30084
G1 X141.656 Y49.488 E10.36284
