; generated by Slic3r 1.0.0RC2 on 2014-01-30 at 22:01:52

; layer_height = 0.25
; perimeters = 1
; top_solid_layers = 5
; bottom_solid_layers = 5
; fill_density = 0.12
; perimeter_speed = 30
; infill_speed = 60
; travel_speed = 130
; nozzle_diameter = 0.35
; filament_diameter = 1.75
; extrusion_multiplier = 1
; perimeters extrusion width = 0.35mm
; infill extrusion width = 0.39mm
; solid infill extrusion width = 0.39mm
; top infill extrusion width = 0.39mm
; first layer extrusion width = 0.70mm

G21 ; set units to millimeters
M107
M104 S220 ; set temperature
G28 ; home all axes
G1 Z5 F5000 ; lift nozzle

M109 S220 ; wait for temperature to be reached
G90 ; use absolute coordinates
G92 E0
M82 ; use absolute distances for extrusion
G1 F1800.000 E-1.00000
G92 E0
G1 Z0.350 F7800.000
G1 X78.800 Y71.101 F7800.000
G1 E1.00000 F1800.000
G1 X79.420 Y70.481 E1.07973 F540.000
G1 X80.090 Y69.931 E1.15855
G1 X83.870 Y67.181 E1.58360
G1 X84.620 Y66.691 E1.66506
G1 X85.420 Y66.281 E1.74680
G1 X89.670 Y64.391 E2.16974
G1 X90.500 Y64.071 E2.25063
G1 X91.370 Y63.841 E2.33246
G1 X95.920 Y62.881 E2.75529
G1 X96.790 Y62.751 E2.83528
G1 X97.670 Y62.701 E2.91543
G1 X102.320 Y62.701 E3.33825
G1 X103.200 Y62.751 E3.41840
G1 X104.070 Y62.881 E3.49838
G1 X108.620 Y63.841 E3.92122
G1 X109.500 Y64.081 E4.00416
G1 X110.340 Y64.401 E4.08590
G1 X114.530 Y66.261 E4.50275
G1 X115.350 Y66.681 E4.58652
G1 X116.130 Y67.181 E4.67077
G1 X119.890 Y69.921 E5.09381
G1 X120.570 Y70.481 E5.17391
G1 X121.190 Y71.101 E5.25364
G1 X124.310 Y74.561 E5.67728
G1 X124.870 Y75.251 E5.75808
G1 X125.360 Y76.001 E5.83954
G1 X127.120 Y79.041 E6.15895
G1 X127.690 Y80.031 E6.26283
G1 X128.090 Y80.821 E6.34335
G1 X128.400 Y81.641 E6.42306
G1 X129.840 Y86.071 E6.84662
G1 X130.070 Y86.931 E6.92757
G1 X130.210 Y87.801 E7.00770
G1 X130.700 Y92.421 E7.43015
G1 X130.750 Y93.321 E7.51211
G1 X130.750 Y123.321 E10.24000
G1 X130.700 Y124.271 E10.32650
G1 X130.570 Y125.421 E10.43174
G1 X130.430 Y126.261 E10.50917
G1 X130.210 Y127.071 E10.58549
G1 X129.860 Y128.161 E10.68959
G1 X129.540 Y129.011 E10.77218
G1 X129.120 Y129.821 E10.85514
G1 X128.540 Y130.821 E10.96026
G1 X128.070 Y131.551 E11.03921
G1 X127.530 Y132.231 E11.11816
G1 X126.770 Y133.081 E11.22184
G1 X126.140 Y133.711 E11.30286
G1 X125.450 Y134.271 E11.38366
G1 X124.520 Y134.951 E11.48842
G1 X123.730 Y135.461 E11.57392
G1 X122.880 Y135.891 E11.66054
G1 X121.820 Y136.351 E11.76561
G1 X121.040 Y136.641 E11.84128
G1 X120.220 Y136.861 E11.91848
G1 X119.100 Y137.101 E12.02263
G1 X118.220 Y137.241 E12.10365
G1 X117.320 Y137.291 E12.18562
G1 X82.670 Y137.291 E15.33633
G1 X81.770 Y137.241 E15.41829
G1 X80.890 Y137.101 E15.49931
G1 X79.770 Y136.861 E15.60347
G1 X78.940 Y136.641 E15.68155
G1 X78.140 Y136.341 E15.75924
G1 X77.090 Y135.881 E15.86347
G1 X76.280 Y135.471 E15.94602
G1 X75.520 Y134.981 E16.02825
G1 X74.580 Y134.301 E16.13374
G1 X73.870 Y133.721 E16.21710
G1 X73.220 Y133.081 E16.30005
G1 X72.460 Y132.231 E16.40373
G1 X71.920 Y131.551 E16.48269
G1 X71.450 Y130.821 E16.56163
G1 X70.870 Y129.821 E16.66675
G1 X70.450 Y129.011 E16.74972
G1 X70.130 Y128.161 E16.83230
G1 X69.780 Y127.071 E16.93640
G1 X69.550 Y126.221 E17.01647
G1 X69.420 Y125.351 E17.09646
G1 X69.300 Y124.201 E17.20159
G1 X69.250 Y123.321 E17.28174
G1 X69.250 Y93.321 E20.00963
G1 X69.300 Y92.441 E20.08977
G1 X69.780 Y87.821 E20.51213
G1 X69.920 Y86.941 E20.59315
G1 X70.150 Y86.071 E20.67498
G1 X71.590 Y81.641 E21.09855
G1 X71.910 Y80.811 E21.17943
G1 X72.310 Y80.021 E21.25995
G1 X74.630 Y76.001 E21.68199
G1 X75.120 Y75.251 E21.76345
G1 X75.680 Y74.561 E21.84426
G1 X78.737 Y71.171 E22.25937
G1 X79.260 Y71.521 F7800.000
G1 X79.830 Y70.941 E22.33332 F540.000
G1 X80.460 Y70.431 E22.40702
G1 X84.240 Y67.681 E22.83207
G1 X84.930 Y67.231 E22.90698
G1 X85.670 Y66.851 E22.98262
G1 X89.920 Y64.961 E23.40556
G1 X90.690 Y64.671 E23.48038
G1 X91.490 Y64.451 E23.55582
G1 X96.040 Y63.491 E23.97866
G1 X96.850 Y63.371 E24.05312
G1 X97.670 Y63.331 E24.12777
G1 X102.320 Y63.331 E24.55059
G1 X103.140 Y63.371 E24.62524
G1 X103.950 Y63.491 E24.69970
G1 X108.500 Y64.451 E25.12253
G1 X109.300 Y64.671 E25.19798
G1 X110.080 Y64.971 E25.27397
G1 X114.280 Y66.841 E25.69202
G1 X115.040 Y67.221 E25.76928
G1 X115.760 Y67.691 E25.84746
G1 X119.520 Y70.431 E26.27051
G1 X120.150 Y70.941 E26.34421
G1 X120.730 Y71.521 E26.41880
G1 X123.850 Y74.981 E26.84243
G1 X124.370 Y75.621 E26.91742
G1 X124.820 Y76.311 E26.99232
G1 X127.140 Y80.341 E27.41515
G1 X127.520 Y81.071 E27.48999
G1 X127.810 Y81.841 E27.56480
G1 X129.250 Y86.271 E27.98837
G1 X129.460 Y87.061 E28.06270
G1 X129.590 Y87.871 E28.13729
G1 X130.080 Y92.491 E28.55974
G1 X130.120 Y93.321 E28.63530
G1 X130.120 Y123.321 E31.36319
G1 X130.070 Y124.201 E31.44334
G1 X129.940 Y125.351 E31.54857
G1 X129.820 Y126.121 E31.61943
G1 X129.620 Y126.881 E31.69089
G1 X129.270 Y127.971 E31.79499
G1 X128.970 Y128.761 E31.87183
G1 X128.580 Y129.511 E31.94870
G1 X128.000 Y130.511 E32.05381
G1 X127.560 Y131.181 E32.12670
G1 X127.060 Y131.811 E32.19983
G1 X126.300 Y132.661 E32.30351
G1 X125.720 Y133.241 E32.37810
G1 X125.080 Y133.771 E32.45366
G1 X124.150 Y134.451 E32.55841
G1 X123.420 Y134.921 E32.63736
G1 X122.630 Y135.311 E32.71747
G1 X121.570 Y135.771 E32.82254
G1 X120.840 Y136.051 E32.89364
G1 X120.090 Y136.251 E32.96422
G1 X118.970 Y136.491 E33.06837
G1 X118.150 Y136.621 E33.14386
G1 X117.320 Y136.661 E33.21942
G1 X82.670 Y136.661 E36.37013
G1 X81.840 Y136.621 E36.44569
G1 X81.020 Y136.491 E36.52118
G1 X79.900 Y136.251 E36.62534
G1 X79.130 Y136.041 E36.69791
G1 X78.390 Y135.761 E36.76985
G1 X77.340 Y135.301 E36.87409
G1 X76.590 Y134.931 E36.95014
G1 X75.880 Y134.471 E37.02706
G1 X74.940 Y133.791 E37.13255
G1 X74.290 Y133.261 E37.20882
G1 X73.690 Y132.661 E37.28597
G1 X72.930 Y131.811 E37.38965
G1 X72.430 Y131.181 E37.46279
G1 X71.990 Y130.511 E37.53567
G1 X71.410 Y129.511 E37.64079
G1 X71.020 Y128.761 E37.71766
G1 X70.720 Y127.971 E37.79450
G1 X70.370 Y126.881 E37.89859
G1 X70.160 Y126.091 E37.97292
G1 X70.040 Y125.291 E38.04648
G1 X69.920 Y124.141 E38.15162
G1 X69.880 Y123.321 E38.22627
G1 X69.880 Y93.321 E40.95415
G1 X69.920 Y92.511 E41.02790
G1 X70.400 Y87.891 E41.45025
G1 X70.530 Y87.071 E41.52575
G1 X70.740 Y86.271 E41.60096
G1 X72.180 Y81.841 E42.02452
G1 X72.480 Y81.071 E42.09966
G1 X72.850 Y80.331 E42.17489
G1 X75.170 Y76.311 E42.59694
G1 X75.620 Y75.621 E42.67184
G1 X76.140 Y74.981 E42.74682
G1 X79.197 Y71.591 E43.16194
G1 X79.730 Y71.931 F7800.000
G1 X80.250 Y71.411 E43.22881 F540.000
G1 X80.830 Y70.941 E43.29669
G1 X84.600 Y68.191 E43.72100
G1 X85.240 Y67.771 E43.79061
G1 X85.920 Y67.431 E43.85974
G1 X90.170 Y65.541 E44.28268
G1 X90.890 Y65.261 E44.35293
G1 X91.620 Y65.071 E44.42152
G1 X96.170 Y64.111 E44.84436
G1 X96.920 Y63.991 E44.91342
G1 X97.670 Y63.951 E44.98171
G1 X102.320 Y63.951 E45.40454
G1 X103.070 Y63.991 E45.47283
G1 X103.820 Y64.111 E45.54190
G1 X108.370 Y65.071 E45.96473
G1 X109.110 Y65.261 E46.03420
G1 X109.830 Y65.541 E46.10445
G1 X114.030 Y67.411 E46.52250
G1 X114.730 Y67.761 E46.59366
G1 X115.390 Y68.191 E46.66529
G1 X119.150 Y70.931 E47.08833
G1 X119.730 Y71.401 E47.15621
G1 X120.260 Y71.931 E47.22437
G1 X123.380 Y75.391 E47.64801
G1 X123.860 Y75.991 E47.71787
G1 X124.280 Y76.621 E47.78672
G1 X126.600 Y80.651 E48.20955
G1 X126.940 Y81.321 E48.27787
G1 X127.210 Y82.031 E48.34694
G1 X128.650 Y86.461 E48.77051
G1 X128.850 Y87.191 E48.83933
G1 X128.970 Y87.941 E48.90840
G1 X129.460 Y92.561 E49.33085
G1 X129.500 Y93.321 E49.40005
G1 X129.500 Y123.321 E52.12794
G1 X129.450 Y124.131 E52.20173
G1 X129.320 Y125.281 E52.30697
G1 X129.210 Y125.991 E52.37230
G1 X129.020 Y126.691 E52.43825
G1 X128.670 Y127.781 E52.54235
G1 X128.400 Y128.501 E52.61227
G1 X128.040 Y129.201 E52.68384
G1 X127.460 Y130.201 E52.78896
G1 X127.060 Y130.821 E52.85605
G1 X126.590 Y131.391 E52.92323
G1 X125.830 Y132.241 E53.02691
G1 X125.300 Y132.781 E53.09571
G1 X124.710 Y133.261 E53.16487
G1 X123.780 Y133.941 E53.26963
G1 X123.100 Y134.381 E53.34327
G1 X122.390 Y134.741 E53.41566
G1 X121.330 Y135.201 E53.52073
G1 X120.650 Y135.451 E53.58661
G1 X119.960 Y135.641 E53.65168
G1 X118.840 Y135.881 E53.75584
G1 X118.080 Y136.001 E53.82580
G1 X117.320 Y136.041 E53.89500
G1 X82.670 Y136.041 E57.04571
G1 X81.910 Y136.001 E57.11491
G1 X81.150 Y135.881 E57.18488
G1 X80.030 Y135.641 E57.28903
G1 X79.320 Y135.451 E57.35586
G1 X78.640 Y135.191 E57.42206
G1 X77.590 Y134.731 E57.52630
G1 X76.900 Y134.381 E57.59665
G1 X76.250 Y133.961 E57.66702
G1 X75.310 Y133.281 E57.77251
G1 X74.710 Y132.791 E57.84295
G1 X74.160 Y132.241 E57.91368
G1 X73.400 Y131.391 E58.01736
G1 X72.930 Y130.821 E58.08453
G1 X72.530 Y130.201 E58.15162
G1 X71.950 Y129.201 E58.25674
G1 X71.590 Y128.501 E58.32832
G1 X71.320 Y127.781 E58.39824
G1 X70.970 Y126.691 E58.50234
G1 X70.780 Y125.961 E58.57093
G1 X70.660 Y125.221 E58.63909
G1 X70.540 Y124.071 E58.74423
G1 X70.500 Y123.321 E58.81252
G1 X70.500 Y93.321 E61.54041
G1 X70.540 Y92.571 E61.60870
G1 X71.020 Y87.951 E62.03106
G1 X71.140 Y87.201 E62.10013
G1 X71.340 Y86.461 E62.16983
G1 X72.780 Y82.031 E62.59339
G1 X73.050 Y81.321 E62.66246
G1 X73.390 Y80.651 E62.73078
G1 X75.710 Y76.631 E63.15282
G1 X76.130 Y75.991 E63.22243
G1 X76.610 Y75.391 E63.29230
G1 X79.667 Y72.001 E63.70741
G1 X80.190 Y72.351 F7800.000
G1 X80.670 Y71.871 E63.76914 F540.000
G1 X81.200 Y71.441 E63.83120
G1 X84.970 Y68.691 E64.25551
G1 X85.560 Y68.311 E64.31933
G1 X86.180 Y68.001 E64.38236
G1 X90.430 Y66.111 E64.80530
G1 X91.080 Y65.861 E64.86862
G1 X91.750 Y65.681 E64.93171
G1 X96.300 Y64.721 E65.35454
G1 X96.980 Y64.611 E65.41718
G1 X97.670 Y64.581 E65.47998
G1 X102.320 Y64.581 E65.90280
G1 X103.010 Y64.611 E65.96560
G1 X103.690 Y64.721 E66.02824
G1 X108.240 Y65.681 E66.45108
G1 X108.920 Y65.861 E66.51504
G1 X109.570 Y66.111 E66.57836
G1 X113.780 Y67.981 E66.99724
G1 X114.420 Y68.311 E67.06272
G1 X115.020 Y68.701 E67.12779
G1 X118.780 Y71.441 E67.55083
G1 X119.310 Y71.871 E67.61289
G1 X119.800 Y72.351 E67.67526
G1 X122.920 Y75.811 E68.09890
G1 X123.360 Y76.351 E68.16224
G1 X123.740 Y76.941 E68.22605
G1 X126.060 Y80.961 E68.64810
G1 X126.370 Y81.581 E68.71113
G1 X126.620 Y82.221 E68.77360
G1 X128.060 Y86.651 E69.19717
G1 X128.240 Y87.321 E69.26025
G1 X128.350 Y88.001 E69.32289
G1 X128.840 Y92.621 E69.74534
G1 X128.870 Y93.321 E69.80905
G1 X128.870 Y123.321 E72.53694
G1 X128.830 Y124.061 E72.60432
G1 X128.700 Y125.211 E72.70956
G1 X128.600 Y125.861 E72.76936
G1 X128.430 Y126.501 E72.82957
G1 X128.080 Y127.591 E72.93367
G1 X127.820 Y128.251 E72.99817
G1 X127.500 Y128.881 E73.06242
G1 X126.920 Y129.881 E73.16754
G1 X126.550 Y130.451 E73.22933
G1 X126.130 Y130.981 E73.29082
G1 X125.370 Y131.831 E73.39450
G1 X124.880 Y132.321 E73.45751
G1 X124.340 Y132.761 E73.52085
G1 X123.410 Y133.441 E73.62561
G1 X122.790 Y133.841 E73.69270
G1 X122.140 Y134.171 E73.75898
G1 X121.080 Y134.631 E73.86405
G1 X120.460 Y134.861 E73.92418
G1 X119.830 Y135.031 E73.98352
G1 X118.710 Y135.271 E74.08767
G1 X118.020 Y135.381 E74.15121
G1 X117.320 Y135.411 E74.21491
G1 X82.670 Y135.411 E77.36562
G1 X81.970 Y135.381 E77.42933
G1 X81.280 Y135.271 E77.49287
G1 X80.160 Y135.031 E77.59702
G1 X79.520 Y134.861 E77.65723
G1 X78.890 Y134.621 E77.71853
G1 X77.840 Y134.161 E77.82277
G1 X77.210 Y133.841 E77.88702
G1 X76.620 Y133.461 E77.95084
G1 X75.680 Y132.781 E78.05633
G1 X75.120 Y132.331 E78.12165
G1 X74.620 Y131.831 E78.18595
G1 X73.860 Y130.981 E78.28963
G1 X73.440 Y130.451 E78.35112
G1 X73.070 Y129.881 E78.41291
G1 X72.490 Y128.881 E78.51803
G1 X72.170 Y128.251 E78.58228
G1 X71.910 Y127.591 E78.64678
G1 X71.560 Y126.501 E78.75088
G1 X71.390 Y125.831 E78.81373
G1 X71.280 Y125.161 E78.87547
G1 X71.160 Y124.011 E78.98061
G1 X71.130 Y123.321 E79.04341
G1 X71.130 Y93.321 E81.77130
G1 X71.160 Y92.641 E81.83319
G1 X71.640 Y88.021 E82.25555
G1 X71.750 Y87.331 E82.31908
G1 X71.930 Y86.651 E82.38304
G1 X73.370 Y82.221 E82.80661
G1 X73.620 Y81.581 E82.86908
G1 X73.930 Y80.961 E82.93211
G1 X76.250 Y76.941 E83.35416
G1 X76.630 Y76.351 E83.41797
G1 X77.070 Y75.811 E83.48131
G1 X80.127 Y72.421 E83.89642
G1 F1800.000 E82.89642
G92 E0
G1 X98.621 Y82.327 F7800.000
G1 E1.00000 F1800.000
G1 X100.527 Y81.707 E1.18226 F540.000
G1 X101.705 Y83.329 E1.36452
G1 X100.527 Y84.951 E1.54677
G1 X98.621 Y84.331 E1.72903
G1 X98.621 Y82.421 E1.90276
G1 X99.245 Y82.781 F7800.000
G1 X100.288 Y82.442 E2.00246 F540.000
G1 X100.933 Y83.329 E2.10215
G1 X100.288 Y84.216 E2.20184
G1 X99.245 Y83.877 E2.30153
G1 X99.245 Y82.875 E2.39270
G1 F1800.000 E1.39270
G92 E0
G1 X99.777 Y91.210 F7800.000
G1 E1.00000 F1800.000
G1 X99.343 Y91.302 E1.04037 F540.000
G1 X98.935 Y91.484 E1.08103
G1 X98.574 Y91.746 E1.12159
G1 X98.277 Y92.076 E1.16196
G1 X98.054 Y92.462 E1.20247
G1 X97.916 Y92.886 E1.24300
G1 X97.875 Y93.278 E1.27884
G1 X97.875 Y123.278 E4.00671
G1 X97.771 Y124.269 E4.09730
G1 X97.479 Y125.167 E4.18322
G1 X97.007 Y125.986 E4.26914
G1 X96.374 Y126.688 E4.35506
G1 X95.610 Y127.243 E4.44097
G1 X94.747 Y127.628 E4.52689
G1 X93.822 Y127.824 E4.61281
G1 X92.678 Y127.824 E4.71691
G1 X91.753 Y127.628 E4.80283
G1 X90.890 Y127.243 E4.88875
G1 X90.126 Y126.688 E4.97467
G1 X89.493 Y125.986 E5.06059
G1 X88.300 Y123.919 E5.27762
G1 X87.107 Y125.986 E5.49465
G1 X86.474 Y126.688 E5.58057
G1 X85.710 Y127.243 E5.66649
G1 X84.847 Y127.628 E5.75241
G1 X83.922 Y127.824 E5.83833
G1 X82.778 Y127.824 E5.94243
G1 X81.853 Y127.628 E6.02835
G1 X80.990 Y127.243 E6.11427
G1 X80.226 Y126.688 E6.20018
G1 X79.593 Y125.986 E6.28610
G1 X79.121 Y125.167 E6.37201
G1 X78.829 Y124.269 E6.45794
G1 X78.725 Y123.278 E6.54853
G1 X78.725 Y93.380 E9.26712
G1 X79.195 Y88.906 E9.67616
G1 X80.569 Y84.678 E10.08046
G1 X82.792 Y80.827 E10.48475
G1 X85.067 Y78.300 E10.79389
G1 X85.768 Y77.522 E10.88912
G1 X89.365 Y74.909 E11.29343
G1 X93.427 Y73.100 E11.69775
G1 X97.777 Y72.176 E12.10206
G1 X102.223 Y72.176 E12.50642
G1 X106.573 Y73.100 E12.91073
G1 X109.678 Y74.483 E13.21981
G1 X110.635 Y74.909 E13.31505
G1 X114.232 Y77.522 E13.71936
G1 X117.208 Y80.827 E14.12373
G1 X118.907 Y83.771 E14.43279
G1 X119.431 Y84.678 E14.52802
G1 X120.805 Y88.906 E14.93232
G1 X121.275 Y93.380 E15.34136
G1 X121.275 Y123.278 E18.05995
G1 X121.171 Y124.269 E18.15054
G1 X120.879 Y125.167 E18.23646
G1 X120.407 Y125.986 E18.32237
G1 X119.774 Y126.688 E18.40830
G1 X119.010 Y127.243 E18.49421
G1 X118.147 Y127.628 E18.58013
G1 X117.222 Y127.824 E18.66605
G1 X116.078 Y127.824 E18.77015
G1 X115.153 Y127.628 E18.85607
G1 X114.290 Y127.243 E18.94199
G1 X113.526 Y126.688 E19.02791
G1 X112.893 Y125.986 E19.11382
G1 X111.700 Y123.919 E19.33086
G1 X110.507 Y125.986 E19.54789
G1 X109.874 Y126.688 E19.63381
G1 X109.110 Y127.243 E19.71973
G1 X108.247 Y127.628 E19.80565
G1 X107.322 Y127.824 E19.89157
G1 X106.178 Y127.824 E19.99567
G1 X105.253 Y127.628 E20.08158
G1 X104.390 Y127.243 E20.16751
G1 X103.626 Y126.688 E20.25342
G1 X102.993 Y125.986 E20.33934
G1 X102.521 Y125.167 E20.42525
G1 X102.229 Y124.269 E20.51118
G1 X102.125 Y123.278 E20.60176
G1 X102.125 Y93.278 E23.32964
G1 X102.084 Y92.886 E23.36548
G1 X101.946 Y92.462 E23.40600
G1 X101.723 Y92.076 E23.44652
G1 X101.426 Y91.746 E23.48688
G1 X101.065 Y91.484 E23.52745
G1 X100.657 Y91.302 E23.56811
G1 X100.223 Y91.210 E23.60848
G1 X99.871 Y91.210 E23.64042
G1 X99.843 Y91.835 F7800.000
G1 X99.538 Y91.900 E23.66883 F378.000
G1 X99.249 Y92.028 E23.69755
G1 X98.994 Y92.213 E23.72618
G1 X98.785 Y92.446 E23.75459
G1 X98.628 Y92.718 E23.78318
G1 X98.531 Y93.017 E23.81175
G1 X98.500 Y93.311 E23.83863
G1 X98.500 Y123.311 E26.56651
G1 X98.386 Y124.399 E26.66605
G1 X98.053 Y125.423 E26.76392
G1 X97.515 Y126.355 E26.86178
G1 X96.795 Y127.155 E26.95964
G1 X95.924 Y127.787 E27.05750
G1 X94.941 Y128.225 E27.15536
G1 X93.888 Y128.449 E27.25322
G1 X92.612 Y128.449 E27.36927
G1 X91.559 Y128.225 E27.46713
G1 X90.576 Y127.787 E27.56500
G1 X89.705 Y127.155 E27.66286
G1 X88.985 Y126.355 E27.76072
G1 X88.300 Y125.168 E27.88531
G1 X87.615 Y126.355 E28.00991
G1 X86.895 Y127.155 E28.10777
G1 X86.024 Y127.787 E28.20563
G1 X85.041 Y128.225 E28.30349
G1 X83.988 Y128.449 E28.40136
G1 X82.712 Y128.449 E28.51740
