; generated by Slic3r 1.0.0RC2 on 2014-01-29 at 18:41:31

; layer_height = 0.25
; perimeters = 1
; top_solid_layers = 5
; bottom_solid_layers = 5
; fill_density = 0.12
; perimeter_speed = 30
; infill_speed = 60
; travel_speed = 130
; nozzle_diameter = 0.35
; filament_diameter = 1.75
; extrusion_multiplier = 1
; perimeters extrusion width = 0.35mm
; infill extrusion width = 0.39mm
; solid infill extrusion width = 0.39mm
; top infill extrusion width = 0.39mm
; first layer extrusion width = 0.70mm

G21 ; set units to millimeters
M107
M104 S220 ; set temperature
G28 ; home all axes
G1 Z5 F5000 ; lift nozzle

M109 S220 ; wait for temperature to be reached
G90 ; use absolute coordinates
G92 E0
M82 ; use absolute distances for extrusion
G1 F1800.000 E-1.00000
G92 E0
G1 Z0.350 F7800.000
G1 X84.010 Y79.130 F7800.000
G1 E1.00000 F1800.000
G1 X85.130 Y78.010 E1.14403 F540.000
G1 X86.440 Y77.100 E1.28906
G1 X87.880 Y76.430 E1.43348
G1 X89.420 Y76.010 E1.57863
G1 X91.000 Y75.880 E1.72278
G1 X109.000 Y75.880 E3.35951
G1 X110.580 Y76.010 E3.50367
G1 X112.120 Y76.430 E3.64881
G1 X113.560 Y77.100 E3.79323
G1 X114.870 Y78.010 E3.93827
G1 X115.990 Y79.130 E4.08229
G1 X116.900 Y80.440 E4.22733
G1 X117.570 Y81.880 E4.37175
G1 X117.990 Y83.420 E4.51690
G1 X118.120 Y85.000 E4.66105
G1 X118.120 Y115.000 E7.38894
G1 X117.990 Y116.580 E7.53309
G1 X117.570 Y118.120 E7.67824
G1 X116.900 Y119.560 E7.82266
G1 X115.990 Y120.870 E7.96769
G1 X114.870 Y121.990 E8.11172
G1 X113.560 Y122.900 E8.25676
G1 X112.120 Y123.570 E8.40117
G1 X110.580 Y123.990 E8.54632
G1 X109.000 Y124.120 E8.69047
G1 X91.000 Y124.120 E10.32721
G1 X89.420 Y123.990 E10.47136
G1 X87.880 Y123.570 E10.61651
G1 X86.440 Y122.900 E10.76092
G1 X85.130 Y121.990 E10.90596
G1 X84.010 Y120.870 E11.04999
G1 X83.100 Y119.560 E11.19502
G1 X82.430 Y118.120 E11.33944
G1 X82.010 Y116.580 E11.48459
G1 X81.880 Y115.000 E11.62874
G1 X81.880 Y85.000 E14.35663
G1 X82.010 Y83.420 E14.50078
G1 X82.430 Y81.880 E14.64593
G1 X83.100 Y80.440 E14.79035
G1 X83.957 Y79.207 E14.92686
G1 X84.490 Y79.540 F7800.000
G1 X85.540 Y78.490 E15.06189 F540.000
G1 X86.750 Y77.640 E15.19634
G1 X88.090 Y77.010 E15.33099
G1 X89.520 Y76.630 E15.46553
G1 X91.000 Y76.500 E15.60062
G1 X109.000 Y76.500 E17.23735
G1 X110.480 Y76.630 E17.37245
G1 X111.910 Y77.010 E17.50699
G1 X113.250 Y77.640 E17.64163
G1 X114.460 Y78.490 E17.77609
G1 X115.510 Y79.540 E17.91111
G1 X116.360 Y80.750 E18.04557
G1 X116.990 Y82.090 E18.18021
G1 X117.370 Y83.520 E18.31475
G1 X117.500 Y85.000 E18.44985
G1 X117.500 Y115.000 E21.17773
G1 X117.370 Y116.480 E21.31283
G1 X116.990 Y117.910 E21.44737
G1 X116.360 Y119.250 E21.58201
G1 X115.510 Y120.460 E21.71647
G1 X114.460 Y121.510 E21.85149
G1 X113.250 Y122.360 E21.98595
G1 X111.910 Y122.990 E22.12059
G1 X110.480 Y123.370 E22.25513
G1 X109.000 Y123.500 E22.39023
G1 X91.000 Y123.500 E24.02696
G1 X89.520 Y123.370 E24.16206
G1 X88.090 Y122.990 E24.29660
G1 X86.750 Y122.360 E24.43124
G1 X85.540 Y121.510 E24.56570
G1 X84.490 Y120.460 E24.70072
G1 X83.640 Y119.250 E24.83518
G1 X83.010 Y117.910 E24.96982
G1 X82.630 Y116.480 E25.10436
G1 X82.500 Y115.000 E25.23946
G1 X82.500 Y85.000 E27.96734
G1 X82.630 Y83.520 E28.10244
G1 X83.010 Y82.090 E28.23698
G1 X83.640 Y80.750 E28.37162
G1 X84.436 Y79.617 E28.49755
G1 X85.430 Y79.430 F7800.000
G1 X86.630 Y78.450 E28.63843 F540.000
G1 X87.990 Y77.720 E28.77879
G1 X89.460 Y77.280 E28.91831
G1 X91.000 Y77.130 E29.05901
G1 X109.000 Y77.130 E30.69574
G1 X110.540 Y77.280 E30.83643
G1 X112.010 Y77.720 E30.97596
G1 X113.370 Y78.450 E31.11631
G1 X114.570 Y79.430 E31.25719
G1 X115.550 Y80.630 E31.39807
G1 X116.280 Y81.990 E31.53842
G1 X116.720 Y83.460 E31.67795
G1 X116.870 Y85.000 E31.81864
G1 X116.870 Y115.000 E34.54653
G1 X116.720 Y116.540 E34.68723
G1 X116.280 Y118.010 E34.82675
G1 X115.550 Y119.370 E34.96710
G1 X114.570 Y120.570 E35.10798
G1 X113.370 Y121.550 E35.24886
G1 X112.010 Y122.280 E35.38922
G1 X110.540 Y122.720 E35.52874
G1 X109.000 Y122.870 E35.66944
G1 X91.000 Y122.870 E37.30617
G1 X89.460 Y122.720 E37.44686
G1 X87.990 Y122.280 E37.58639
G1 X86.630 Y121.550 E37.72674
G1 X85.430 Y120.570 E37.86762
G1 X84.450 Y119.370 E38.00850
G1 X83.720 Y118.010 E38.14885
G1 X83.280 Y116.540 E38.28838
G1 X83.130 Y115.000 E38.42907
G1 X83.130 Y85.000 E41.15696
G1 X83.280 Y83.460 E41.29765
G1 X83.720 Y81.990 E41.43718
G1 X84.450 Y80.630 E41.57753
G1 X85.371 Y79.503 E41.70989
G1 X85.870 Y79.870 F7800.000
G1 X86.970 Y78.970 E41.83912 F540.000
G1 X88.230 Y78.300 E41.96889
G1 X89.590 Y77.890 E42.09805
G1 X91.000 Y77.750 E42.22689
G1 X109.000 Y77.750 E43.86362
G1 X110.410 Y77.890 E43.99246
G1 X111.770 Y78.300 E44.12162
G1 X113.030 Y78.970 E44.25139
G1 X114.130 Y79.870 E44.38062
G1 X115.030 Y80.970 E44.50986
G1 X115.700 Y82.230 E44.63962
G1 X116.110 Y83.590 E44.76878
G1 X116.250 Y85.000 E44.89762
G1 X116.250 Y115.000 E47.62551
G1 X116.110 Y116.410 E47.75435
G1 X115.700 Y117.770 E47.88351
G1 X115.030 Y119.030 E48.01327
G1 X114.130 Y120.130 E48.14251
G1 X113.030 Y121.030 E48.27174
G1 X111.770 Y121.700 E48.40151
G1 X110.410 Y122.110 E48.53067
G1 X109.000 Y122.250 E48.65951
G1 X91.000 Y122.250 E50.29624
G1 X89.590 Y122.110 E50.42508
G1 X88.230 Y121.700 E50.55424
G1 X86.970 Y121.030 E50.68401
G1 X85.870 Y120.130 E50.81324
G1 X84.970 Y119.030 E50.94248
G1 X84.300 Y117.770 E51.07224
G1 X83.890 Y116.410 E51.20140
G1 X83.750 Y115.000 E51.33024
G1 X83.750 Y85.000 E54.05813
G1 X83.890 Y83.590 E54.18697
G1 X84.300 Y82.230 E54.31613
G1 X84.970 Y80.970 E54.44589
G1 X85.811 Y79.943 E54.56661
G1 X86.320 Y80.320 F7800.000
G1 X87.320 Y79.490 E54.68478 F540.000
G1 X88.460 Y78.880 E54.80234
G1 X89.710 Y78.500 E54.92114
G1 X91.000 Y78.380 E55.03895
G1 X109.000 Y78.380 E56.67568
G1 X110.290 Y78.500 E56.79348
G1 X111.540 Y78.880 E56.91228
G1 X112.680 Y79.490 E57.02985
G1 X113.680 Y80.320 E57.14802
G1 X114.510 Y81.320 E57.26619
G1 X115.120 Y82.460 E57.38376
G1 X115.500 Y83.710 E57.50255
G1 X115.620 Y85.000 E57.62036
G1 X115.620 Y115.000 E60.34825
G1 X115.500 Y116.290 E60.46605
G1 X115.120 Y117.540 E60.58485
G1 X114.510 Y118.680 E60.70242
G1 X113.680 Y119.680 E60.82059
G1 X112.680 Y120.510 E60.93876
G1 X111.540 Y121.120 E61.05632
G1 X110.290 Y121.500 E61.17512
G1 X109.000 Y121.620 E61.29293
G1 X91.000 Y121.620 E62.92966
G1 X89.710 Y121.500 E63.04747
G1 X88.460 Y121.120 E63.16626
G1 X87.320 Y120.510 E63.28383
G1 X86.320 Y119.680 E63.40200
G1 X85.490 Y118.680 E63.52017
G1 X84.880 Y117.540 E63.63774
G1 X84.500 Y116.290 E63.75654
G1 X84.380 Y115.000 E63.87434
G1 X84.380 Y85.000 E66.60223
G1 X84.500 Y83.710 E66.72003
G1 X84.880 Y82.460 E66.83883
G1 X85.490 Y81.320 E66.95640
G1 X86.260 Y80.392 E67.06605
G1 F1800.000 E66.06605
G92 E0
G1 X98.782 Y99.125 F7800.000
G1 E1.00000 F1800.000
G1 X100.562 Y98.162 E1.18403 F540.000
G1 X101.364 Y100.000 E1.36637
G1 X100.562 Y101.838 E1.54872
G1 X98.782 Y100.875 E1.73274
G1 X98.782 Y99.219 E1.88329
G1 X99.407 Y99.498 F7800.000
G1 X100.261 Y99.035 E1.97159 F540.000
G1 X100.682 Y100.000 E2.06728
G1 X100.261 Y100.965 E2.16298
G1 X99.407 Y100.502 E2.25128
G1 X99.407 Y99.591 E2.33413
G1 X91.975 Y85.975 F7800.000
G1 X108.025 Y85.975 E3.79356 F540.000
G1 X108.025 Y114.025 E6.34416
G1 X91.975 Y114.025 E7.80360
G1 X91.975 Y86.069 E10.34567
G1 X91.350 Y85.350 F7800.000
G1 X108.650 Y85.350 E11.91875 F378.000
G1 X108.650 Y114.650 E14.58299
G1 X91.350 Y114.650 E16.15607
G1 X91.350 Y85.444 E18.81179
G1 X107.604 Y86.460 F7800.000
G1 X107.540 Y86.396 E18.82011 F1080.000
G1 X106.641 Y86.396 E18.90341
G1 X107.604 Y87.359 E19.02954
G1 X107.604 Y88.259 E19.11283
G1 X105.741 Y86.396 E19.35676
G1 X104.841 Y86.396 E19.44006
G1 X107.604 Y89.159 E19.80179
G1 X107.604 Y90.059 E19.88509
G1 X103.941 Y86.396 E20.36462
G1 X103.042 Y86.396 E20.44791
G1 X107.604 Y90.958 E21.04525
G1 X107.604 Y91.858 E21.12854
G1 X102.142 Y86.396 E21.84367
G1 X101.242 Y86.396 E21.92697
G1 X107.604 Y92.758 E22.75990
G1 X107.604 Y93.658 E22.84320
G1 X100.342 Y86.396 E23.79393
G1 X99.443 Y86.396 E23.87723
G1 X107.604 Y94.557 E24.94577
G1 X107.604 Y95.457 E25.02906
G1 X98.543 Y86.396 E26.21540
G1 X97.643 Y86.396 E26.29870
G1 X107.604 Y96.357 E27.60283
G1 X107.604 Y97.257 E27.68613
G1 X96.743 Y86.396 E29.10807
G1 X95.844 Y86.396 E29.19136
G1 X107.604 Y98.156 E30.73110
G1 X107.604 Y99.056 E30.81440
G1 X94.944 Y86.396 E32.47193
G1 X94.044 Y86.396 E32.55523
G1 X107.604 Y99.956 E34.33057
G1 X107.604 Y100.856 E34.41387
G1 X93.144 Y86.396 E36.30701
G1 X92.396 Y86.548 E36.37768
G1 X107.604 Y101.755 E38.36877
G1 X107.604 Y102.655 E38.45207
G1 X92.396 Y87.447 E40.44316
G1 X92.396 Y88.347 E40.52646
G1 X107.604 Y103.555 E42.51755
G1 X107.604 Y104.455 E42.60085
G1 X92.396 Y89.247 E44.59194
G1 X92.396 Y90.147 E44.67524
G1 X100.153 Y97.904 E45.69087
G1 X99.570 Y98.220 E45.75232
G1 X92.396 Y91.046 E46.69153
G1 X92.396 Y91.946 E46.77483
G1 X98.986 Y98.536 E47.63761
G1 X98.402 Y98.852 E47.69907
G1 X92.396 Y92.846 E48.48543
G1 X92.396 Y93.746 E48.56873
G1 X98.361 Y99.711 E49.34971
G1 X98.361 Y100.611 E49.43301
G1 X92.396 Y94.645 E50.21399
G1 X92.396 Y95.545 E50.29729
G1 X107.604 Y110.753 E52.28838
G1 X107.604 Y111.653 E52.37168
G1 X92.396 Y96.445 E54.36277
G1 X92.396 Y97.345 E54.44607
G1 X107.604 Y112.553 E56.43716
G1 X107.604 Y113.452 E56.52046
G1 X92.396 Y98.244 E58.51155
G1 X92.396 Y99.144 E58.59485
G1 X106.856 Y113.604 E60.48799
G1 X105.956 Y113.604 E60.57129
G1 X92.396 Y100.044 E62.34663
G1 X92.396 Y100.944 E62.42993
G1 X105.056 Y113.604 E64.08747
G1 X104.157 Y113.604 E64.17076
G1 X92.396 Y101.843 E65.71050
G1 X92.396 Y102.743 E65.79380
G1 X103.257 Y113.604 E67.21574
G1 X102.357 Y113.604 E67.29904
G1 X92.396 Y103.643 E68.60318
G1 X92.396 Y104.543 E68.68648
G1 X101.457 Y113.604 E69.87281
G1 X100.557 Y113.604 E69.95611
G1 X92.396 Y105.442 E71.02465
G1 X92.396 Y106.342 E71.10795
G1 X99.658 Y113.604 E72.05868
G1 X98.758 Y113.604 E72.14198
G1 X92.396 Y107.242 E72.97491
G1 X92.396 Y108.142 E73.05821
G1 X97.858 Y113.604 E73.77335
G1 X96.958 Y113.604 E73.85664
G1 X92.396 Y109.042 E74.45398
G1 X92.396 Y109.941 E74.53728
G1 X96.059 Y113.604 E75.01681
G1 X95.159 Y113.604 E75.10011
G1 X92.396 Y110.841 E75.46184
G1 X92.396 Y111.741 E75.54514
G1 X94.259 Y113.604 E75.78907
G1 X93.359 Y113.604 E75.87237
G1 X92.396 Y112.641 E75.99850
G1 X92.396 Y113.540 E76.08179
G1 X92.460 Y113.604 E76.09012
G1 X99.484 Y101.734 F7800.000
G1 X107.604 Y109.853 E77.15318 F1080.000
G1 X107.604 Y108.954 E77.23648
G1 X100.860 Y102.209 E78.11945
G1 X101.133 Y101.583 E78.18274
G1 X107.604 Y108.054 E79.02995
G1 X107.604 Y107.154 E79.11325
G1 X101.406 Y100.956 E79.92469
G1 X101.679 Y100.330 E79.98797
G1 X107.604 Y106.254 E80.76366
G1 X107.604 Y105.355 E80.84695
G1 X101.493 Y99.244 E81.64697
M106 S255
M104 S220 ; set temperature
G1 F1800.000 E80.64697
G92 E0
G1 Z0.600 F7800.000
G1 X100.702 Y99.610 F7800.000
G1 E1.00000 F1800.000
G1 X100.873 Y100.000 E1.01550 F1720.248
G1 X100.345 Y101.209 E1.06349
G1 X99.232 Y100.607 E1.10954
G1 X99.232 Y99.393 E1.15368
G1 X100.345 Y98.791 E1.19973
G1 X100.681 Y99.561 E1.23032
G1 X100.382 Y99.749 F7800.000
G1 X100.491 Y100.000 E1.24026 F1720.248
G1 X100.177 Y100.720 E1.26884
G1 X99.582 Y100.398 E1.29344
G1 X99.582 Y99.602 E1.32241
G1 X100.177 Y99.280 E1.34701
G1 X100.361 Y99.701 E1.36373
G1 X108.475 Y85.525 F7800.000
G1 X108.475 Y114.475 E2.41688 F1720.248
G1 X91.525 Y114.475 E3.03350
G1 X91.525 Y85.525 E4.08665
G1 X108.422 Y85.525 E4.70135
G1 X108.825 Y85.175 F7800.000
G1 X108.825 Y114.825 E5.77997 F1204.174
G1 X91.175 Y114.825 E6.42204
G1 X91.175 Y85.175 E7.50066
G1 X108.773 Y85.175 E8.14082
G1 X108.233 Y89.032 F7800.000
G1 X91.767 Y105.498 E9.07695 F3440.496
G1 X91.767 Y104.951 E9.09894
G1 X108.233 Y88.485 E10.03507
G1 X108.233 Y87.938 E10.05706
G1 X91.767 Y104.404 E10.99319
G1 X91.767 Y103.857 E11.01518
G1 X108.233 Y87.391 E11.95131
G1 X108.233 Y86.844 E11.97330
G1 X91.767 Y103.310 E12.90943
G1 X91.767 Y102.763 E12.93142
G1 X108.233 Y86.297 E13.86755
G1 X108.205 Y85.778 E13.88845
G1 X91.767 Y102.216 E14.82300
G1 X91.767 Y101.669 E14.84499
G1 X107.669 Y85.767 E15.74905
G1 X107.122 Y85.767 E15.77104
G1 X91.767 Y101.122 E16.64401
G1 X91.767 Y100.575 E16.66600
G1 X106.575 Y85.767 E17.50786
G1 X106.028 Y85.767 E17.52985
G1 X91.767 Y100.028 E18.34062
G1 X91.767 Y99.481 E18.36261
G1 X105.481 Y85.767 E19.14228
G1 X104.934 Y85.767 E19.16427
G1 X91.767 Y98.934 E19.91284
G1 X91.767 Y98.387 E19.93483
G1 X104.387 Y85.767 E20.65230
G1 X103.840 Y85.767 E20.67429
G1 X91.767 Y97.840 E21.36067
G1 X91.767 Y97.293 E21.38266
G1 X103.293 Y85.767 E22.03793
G1 X102.746 Y85.767 E22.05992
G1 X91.767 Y96.746 E22.68410
G1 X91.767 Y96.199 E22.70609
G1 X102.199 Y85.767 E23.29916
G1 X101.652 Y85.767 E23.32115
G1 X91.767 Y95.652 E23.88313
G1 X91.767 Y95.105 E23.90512
G1 X101.105 Y85.767 E24.43600
G1 X100.558 Y85.767 E24.45799
G1 X91.767 Y94.558 E24.95777
G1 X91.767 Y94.011 E24.97976
G1 X100.011 Y85.767 E25.44844
G1 X99.464 Y85.767 E25.47043
G1 X91.767 Y93.464 E25.90801
G1 X91.767 Y92.917 E25.93000
G1 X98.917 Y85.767 E26.33649
G1 X98.370 Y85.767 E26.35848
G1 X91.767 Y92.370 E26.73386
G1 X91.767 Y91.823 E26.75585
G1 X97.823 Y85.767 E27.10014
G1 X97.276 Y85.767 E27.12213
G1 X91.767 Y91.276 E27.43531
G1 X91.767 Y90.729 E27.45730
G1 X96.729 Y85.767 E27.73939
G1 X96.182 Y85.767 E27.76138
G1 X91.767 Y90.182 E28.01237
G1 X91.767 Y89.635 E28.03436
G1 X95.635 Y85.767 E28.25425
G1 X95.088 Y85.767 E28.27624
G1 X91.767 Y89.088 E28.46503
G1 X91.767 Y88.541 E28.48702
G1 X94.541 Y85.767 E28.64471
G1 X93.994 Y85.767 E28.66670
G1 X91.767 Y87.994 E28.79330
G1 X91.767 Y87.447 E28.81529
G1 X93.447 Y85.767 E28.91078
G1 X92.900 Y85.767 E28.93277
G1 X91.767 Y86.900 E28.99717
G1 X91.767 Y86.353 E29.01916
G1 X92.353 Y85.767 E29.05246
G1 X91.806 Y85.767 E29.07445
G1 X91.767 Y85.806 E29.07664
G1 X99.252 Y99.107 F7800.000
G1 X108.233 Y90.126 E29.58726 F3440.496
G1 X108.233 Y89.579 E29.60925
G1 X91.767 Y106.045 E30.54538
G1 X91.767 Y106.592 E30.56737
G1 X98.990 Y99.369 E30.97802
G1 X98.990 Y99.916 E31.00001
G1 X91.767 Y107.139 E31.41065
G1 X91.767 Y107.686 E31.43264
G1 X98.990 Y100.463 E31.84329
G1 X99.158 Y100.842 E31.85996
G1 X91.767 Y108.233 E32.28015
G1 X91.767 Y108.780 E32.30215
G1 X99.513 Y101.034 E32.74252
G1 X99.868 Y101.226 E32.75874
G1 X91.767 Y109.327 E33.21929
G1 X91.767 Y109.874 E33.24128
G1 X100.223 Y101.418 E33.72200
G1 X100.747 Y100.894 F7800.000
G1 X108.233 Y93.408 E34.14757 F3440.496
G1 X108.233 Y93.955 E34.16956
G1 X91.767 Y110.421 E35.10569
G1 X91.767 Y110.968 E35.12768
G1 X108.233 Y94.502 E36.06381
G1 X108.233 Y95.049 E36.08580
G1 X91.767 Y111.515 E37.02193
G1 X91.767 Y112.062 E37.04392
G1 X108.233 Y95.596 E37.98005
G1 X108.233 Y96.143 E38.00204
G1 X91.767 Y112.609 E38.93817
G1 X91.767 Y113.156 E38.96016
G1 X108.233 Y96.690 E39.89629
G1 X108.233 Y97.237 E39.91828
G1 X91.767 Y113.703 E40.85441
G1 X91.795 Y114.222 E40.87531
G1 X108.233 Y97.784 E41.80986
G1 X108.233 Y98.331 E41.83185
G1 X92.331 Y114.233 E42.73591
G1 X92.878 Y114.233 E42.75790
G1 X108.233 Y98.878 E43.63087
G1 X108.233 Y99.425 E43.65286
G1 X93.425 Y114.233 E44.49473
G1 X93.972 Y114.233 E44.51672
G1 X108.233 Y99.972 E45.32748
G1 X108.233 Y100.519 E45.34947
G1 X94.519 Y114.233 E46.12914
G1 X95.066 Y114.233 E46.15113
G1 X108.233 Y101.066 E46.89971
G1 X108.233 Y101.613 E46.92170
G1 X95.613 Y114.233 E47.63917
G1 X96.160 Y114.233 E47.66116
G1 X108.233 Y102.160 E48.34753
G1 X108.233 Y102.707 E48.36952
G1 X96.707 Y114.233 E49.02480
G1 X97.254 Y114.233 E49.04679
G1 X108.233 Y103.254 E49.67096
G1 X108.233 Y103.801 E49.69295
G1 X97.801 Y114.233 E50.28603
G1 X98.348 Y114.233 E50.30802
G1 X108.233 Y104.348 E50.87000
G1 X108.233 Y104.895 E50.89199
G1 X98.895 Y114.233 E51.42287
G1 X99.442 Y114.233 E51.44486
G1 X108.233 Y105.442 E51.94464
G1 X108.233 Y105.989 E51.96663
G1 X99.989 Y114.233 E52.43531
G1 X100.536 Y114.233 E52.45730
G1 X108.233 Y106.536 E52.89488
G1 X108.233 Y107.083 E52.91687
G1 X101.083 Y114.233 E53.32336
G1 X101.630 Y114.233 E53.34535
G1 X108.233 Y107.630 E53.72073
G1 X108.233 Y108.177 E53.74272
G1 X102.177 Y114.233 E54.08701
G1 X102.724 Y114.233 E54.10900
G1 X108.233 Y108.724 E54.42219
G1 X108.233 Y109.271 E54.44418
