; generated by Slic3r 1.0.0RC2 on 2014-01-29 at 14:46:24

; layer_height = 0.25
; perimeters = 1
; top_solid_layers = 5
; bottom_solid_layers = 5
; fill_density = 0.12
; perimeter_speed = 30
; infill_speed = 60
; travel_speed = 130
; nozzle_diameter = 0.35
; filament_diameter = 1.75
; extrusion_multiplier = 1
; perimeters extrusion width = 0.35mm
; infill extrusion width = 0.39mm
; solid infill extrusion width = 0.39mm
; top infill extrusion width = 0.39mm
; first layer extrusion width = 0.70mm

G21 ; set units to millimeters
M107
M104 S220 ; set temperature
G28 ; home all axes
G1 Z5 F5000 ; lift nozzle

M109 S220 ; wait for temperature to be reached
G90 ; use absolute coordinates
G92 E0
M82 ; use absolute distances for extrusion
G1 F1800.000 E-1.00000
G92 E0
G1 Z0.350 F7800.000
G1 X79.130 Y78.010 F7800.000
G1 E1.00000 F1800.000
G1 X80.440 Y77.100 E1.14504 F540.000
G1 X81.880 Y76.430 E1.28946
G1 X83.420 Y76.010 E1.43460
G1 X85.000 Y75.880 E1.57876
G1 X115.000 Y75.880 E4.30664
G1 X116.580 Y76.010 E4.45080
G1 X118.120 Y76.430 E4.59594
G1 X119.560 Y77.100 E4.74036
G1 X120.870 Y78.010 E4.88540
G1 X121.990 Y79.130 E5.02942
G1 X122.900 Y80.440 E5.17446
G1 X123.570 Y81.880 E5.31888
G1 X123.990 Y83.420 E5.46403
G1 X124.120 Y85.000 E5.60818
G1 X124.120 Y115.000 E8.33607
G1 X123.990 Y116.580 E8.48022
G1 X123.570 Y118.120 E8.62537
G1 X122.900 Y119.560 E8.76978
G1 X121.990 Y120.870 E8.91482
G1 X120.870 Y121.990 E9.05885
G1 X119.560 Y122.900 E9.20389
G1 X118.120 Y123.570 E9.34830
G1 X116.580 Y123.990 E9.49345
G1 X115.000 Y124.120 E9.63760
G1 X85.000 Y124.120 E12.36549
G1 X83.420 Y123.990 E12.50965
G1 X81.880 Y123.570 E12.65479
G1 X80.440 Y122.900 E12.79921
G1 X79.130 Y121.990 E12.94425
G1 X78.010 Y120.870 E13.08827
G1 X77.100 Y119.560 E13.23331
G1 X76.430 Y118.120 E13.37773
G1 X76.010 Y116.580 E13.52287
G1 X75.880 Y115.000 E13.66703
G1 X75.880 Y85.000 E16.39491
G1 X76.010 Y83.420 E16.53907
G1 X76.430 Y81.880 E16.68421
G1 X77.100 Y80.440 E16.82863
G1 X78.010 Y79.130 E16.97367
G1 X79.064 Y78.076 E17.10917
G1 X79.540 Y78.490 F7800.000
G1 X80.750 Y77.640 E17.24363 F540.000
G1 X82.090 Y77.010 E17.37827
G1 X83.520 Y76.630 E17.51281
G1 X85.000 Y76.500 E17.64791
G1 X115.000 Y76.500 E20.37580
G1 X116.480 Y76.630 E20.51089
G1 X117.910 Y77.010 E20.64543
G1 X119.250 Y77.640 E20.78007
G1 X120.460 Y78.490 E20.91453
G1 X121.510 Y79.540 E21.04955
G1 X122.360 Y80.750 E21.18401
G1 X122.990 Y82.090 E21.31865
G1 X123.370 Y83.520 E21.45320
G1 X123.500 Y85.000 E21.58829
G1 X123.500 Y115.000 E24.31618
G1 X123.370 Y116.480 E24.45127
G1 X122.990 Y117.910 E24.58581
G1 X122.360 Y119.250 E24.72045
G1 X121.510 Y120.460 E24.85491
G1 X120.460 Y121.510 E24.98994
G1 X119.250 Y122.360 E25.12439
G1 X117.910 Y122.990 E25.25903
G1 X116.480 Y123.370 E25.39358
G1 X115.000 Y123.500 E25.52867
G1 X85.000 Y123.500 E28.25656
G1 X83.520 Y123.370 E28.39165
G1 X82.090 Y122.990 E28.52619
G1 X80.750 Y122.360 E28.66083
G1 X79.540 Y121.510 E28.79529
G1 X78.490 Y120.460 E28.93032
G1 X77.640 Y119.250 E29.06478
G1 X77.010 Y117.910 E29.19942
G1 X76.630 Y116.480 E29.33396
G1 X76.500 Y115.000 E29.46905
G1 X76.500 Y85.000 E32.19694
G1 X76.630 Y83.520 E32.33203
G1 X77.010 Y82.090 E32.46658
G1 X77.640 Y80.750 E32.60122
G1 X78.490 Y79.540 E32.73567
G1 X79.474 Y78.556 E32.86217
G1 X79.430 Y79.430 F7800.000
G1 X80.630 Y78.450 E33.00305 F540.000
G1 X81.990 Y77.720 E33.14341
G1 X83.460 Y77.280 E33.28293
G1 X85.000 Y77.130 E33.42363
G1 X115.000 Y77.130 E36.15151
G1 X116.540 Y77.280 E36.29221
G1 X118.010 Y77.720 E36.43173
G1 X119.370 Y78.450 E36.57209
G1 X120.570 Y79.430 E36.71297
G1 X121.550 Y80.630 E36.85385
G1 X122.280 Y81.990 E36.99420
G1 X122.720 Y83.460 E37.13372
G1 X122.870 Y85.000 E37.27442
G1 X122.870 Y115.000 E40.00231
G1 X122.720 Y116.540 E40.14300
G1 X122.280 Y118.010 E40.28253
G1 X121.550 Y119.370 E40.42288
G1 X120.570 Y120.570 E40.56376
G1 X119.370 Y121.550 E40.70464
G1 X118.010 Y122.280 E40.84499
G1 X116.540 Y122.720 E40.98452
G1 X115.000 Y122.870 E41.12521
G1 X85.000 Y122.870 E43.85310
G1 X83.460 Y122.720 E43.99379
G1 X81.990 Y122.280 E44.13332
G1 X80.630 Y121.550 E44.27367
G1 X79.430 Y120.570 E44.41455
G1 X78.450 Y119.370 E44.55543
G1 X77.720 Y118.010 E44.69578
G1 X77.280 Y116.540 E44.83531
G1 X77.130 Y115.000 E44.97600
G1 X77.130 Y85.000 E47.70389
G1 X77.280 Y83.460 E47.84458
G1 X77.720 Y81.990 E47.98411
G1 X78.450 Y80.630 E48.12446
G1 X79.371 Y79.503 E48.25682
G1 X79.870 Y79.870 F7800.000
G1 X80.970 Y78.970 E48.38605 F540.000
G1 X82.230 Y78.300 E48.51582
G1 X83.590 Y77.890 E48.64498
G1 X85.000 Y77.750 E48.77382
G1 X115.000 Y77.750 E51.50171
G1 X116.410 Y77.890 E51.63055
G1 X117.770 Y78.300 E51.75971
G1 X119.030 Y78.970 E51.88947
G1 X120.130 Y79.870 E52.01871
G1 X121.030 Y80.970 E52.14794
G1 X121.700 Y82.230 E52.27770
G1 X122.110 Y83.590 E52.40687
G1 X122.250 Y85.000 E52.53571
G1 X122.250 Y115.000 E55.26359
G1 X122.110 Y116.410 E55.39244
G1 X121.700 Y117.770 E55.52160
G1 X121.030 Y119.030 E55.65136
G1 X120.130 Y120.130 E55.78059
G1 X119.030 Y121.030 E55.90983
G1 X117.770 Y121.700 E56.03959
G1 X116.410 Y122.110 E56.16875
G1 X115.000 Y122.250 E56.29759
G1 X85.000 Y122.250 E59.02548
G1 X83.590 Y122.110 E59.15432
G1 X82.230 Y121.700 E59.28348
G1 X80.970 Y121.030 E59.41325
G1 X79.870 Y120.130 E59.54248
G1 X78.970 Y119.030 E59.67172
G1 X78.300 Y117.770 E59.80148
G1 X77.890 Y116.410 E59.93064
G1 X77.750 Y115.000 E60.05948
G1 X77.750 Y85.000 E62.78737
G1 X77.890 Y83.590 E62.91621
G1 X78.300 Y82.230 E63.04537
G1 X78.970 Y80.970 E63.17513
G1 X79.811 Y79.943 E63.29585
G1 X80.320 Y80.320 F7800.000
G1 X81.320 Y79.490 E63.41402 F540.000
G1 X82.460 Y78.880 E63.53158
G1 X83.710 Y78.500 E63.65038
G1 X85.000 Y78.380 E63.76819
G1 X115.000 Y78.380 E66.49607
G1 X116.290 Y78.500 E66.61388
G1 X117.540 Y78.880 E66.73268
G1 X118.680 Y79.490 E66.85024
G1 X119.680 Y80.320 E66.96841
G1 X120.510 Y81.320 E67.08658
G1 X121.120 Y82.460 E67.20415
G1 X121.500 Y83.710 E67.32295
G1 X121.620 Y85.000 E67.44075
G1 X121.620 Y115.000 E70.16864
G1 X121.500 Y116.290 E70.28645
G1 X121.120 Y117.540 E70.40525
G1 X120.510 Y118.680 E70.52281
G1 X119.680 Y119.680 E70.64098
G1 X118.680 Y120.510 E70.75915
G1 X117.540 Y121.120 E70.87672
G1 X116.290 Y121.500 E70.99552
G1 X115.000 Y121.620 E71.11332
G1 X85.000 Y121.620 E73.84121
G1 X83.710 Y121.500 E73.95902
G1 X82.460 Y121.120 E74.07781
G1 X81.320 Y120.510 E74.19538
G1 X80.320 Y119.680 E74.31355
G1 X79.490 Y118.680 E74.43172
G1 X78.880 Y117.540 E74.54929
G1 X78.500 Y116.290 E74.66808
G1 X78.380 Y115.000 E74.78589
G1 X78.380 Y85.000 E77.51378
G1 X78.500 Y83.710 E77.63158
G1 X78.880 Y82.460 E77.75038
G1 X79.490 Y81.320 E77.86795
G1 X80.260 Y80.392 E77.97760
G1 F1800.000 E76.97760
G92 E0
G1 X98.621 Y98.998 F7800.000
G1 E1.00000 F1800.000
G1 X100.527 Y98.378 E1.18225 F540.000
G1 X101.705 Y100.000 E1.36451
G1 X100.527 Y101.622 E1.54676
G1 X98.621 Y101.002 E1.72902
G1 X98.621 Y99.091 E1.90276
G1 X99.245 Y99.452 F7800.000
G1 X100.288 Y99.113 E2.00245 F540.000
G1 X100.933 Y100.000 E2.10214
G1 X100.288 Y100.887 E2.20183
G1 X99.245 Y100.548 E2.30152
G1 X99.245 Y99.546 E2.39269
G1 X85.975 Y85.975 F7800.000
G1 X114.025 Y85.975 E4.94329 F540.000
G1 X114.025 Y114.025 E7.49388
G1 X85.975 Y114.025 E10.04448
G1 X85.975 Y86.069 E12.58655
G1 X85.350 Y85.350 F7800.000
G1 X114.650 Y85.350 E15.25079 F378.000
G1 X114.650 Y114.650 E17.91502
G1 X85.350 Y114.650 E20.57926
G1 X85.350 Y85.444 E23.23497
G1 X100.250 Y98.025 F7800.000
G1 X88.621 Y86.396 E24.74092 F1080.000
G1 X87.731 Y86.396 E24.82242
G1 X99.578 Y98.243 E26.35663
G1 X98.907 Y98.462 E26.42131
G1 X86.841 Y86.396 E27.98378
G1 X86.396 Y86.841 E28.04141
G1 X98.235 Y98.680 E29.57451
G1 X98.199 Y99.534 E29.65280
G1 X86.396 Y87.731 E31.18127
G1 X86.396 Y88.621 E31.26277
G1 X98.199 Y100.424 E32.79123
G1 X86.459 Y113.604 F7800.000
G1 X86.396 Y113.541 E32.79938 F1080.000
G1 X86.396 Y112.651 E32.88088
G1 X87.349 Y113.604 E33.00428
G1 X88.239 Y113.604 E33.08578
G1 X86.396 Y111.761 E33.32444
G1 X86.396 Y110.871 E33.40594
G1 X89.129 Y113.604 E33.75985
G1 X90.019 Y113.604 E33.84134
G1 X86.396 Y109.981 E34.31051
G1 X86.396 Y109.091 E34.39201
G1 X90.909 Y113.604 E34.97643
G1 X91.799 Y113.604 E35.05792
G1 X86.396 Y108.201 E35.75760
G1 X86.396 Y107.311 E35.83909
G1 X92.689 Y113.604 E36.65402
G1 X93.579 Y113.604 E36.73552
G1 X86.396 Y106.421 E37.66570
G1 X86.396 Y105.531 E37.74720
G1 X94.469 Y113.604 E38.79263
G1 X95.359 Y113.604 E38.87413
G1 X86.396 Y104.641 E40.03482
G1 X86.396 Y103.751 E40.11632
G1 X96.249 Y113.604 E41.39226
G1 X97.139 Y113.604 E41.47376
G1 X86.396 Y102.861 E42.86496
G1 X86.396 Y101.971 E42.94645
G1 X98.029 Y113.604 E44.45290
G1 X98.919 Y113.604 E44.53440
G1 X86.396 Y101.081 E46.15611
G1 X86.396 Y100.191 E46.23760
G1 X99.809 Y113.604 E47.97456
G1 X100.699 Y113.604 E48.05606
G1 X86.396 Y99.301 E49.90827
G1 X86.396 Y98.411 E49.98977
G1 X101.589 Y113.604 E51.95724
G1 X102.479 Y113.604 E52.03874
G1 X86.396 Y97.521 E54.12146
G1 X86.396 Y96.631 E54.20295
G1 X103.369 Y113.604 E56.40093
G1 X104.259 Y113.604 E56.48243
G1 X86.396 Y95.741 E58.79566
G1 X86.396 Y94.851 E58.87715
G1 X105.149 Y113.604 E61.30564
G1 X106.039 Y113.604 E61.38714
G1 X86.396 Y93.961 E63.93087
G1 X86.396 Y93.071 E64.01237
G1 X106.929 Y113.604 E66.67136
G1 X107.819 Y113.604 E66.75286
G1 X86.396 Y92.181 E69.52710
G1 X86.396 Y91.291 E69.60860
G1 X108.709 Y113.604 E72.49810
G1 X109.599 Y113.604 E72.57960
G1 X86.396 Y90.401 E75.58435
G1 X86.396 Y89.511 E75.66585
G1 X110.489 Y113.604 E78.78586
G1 X111.379 Y113.604 E78.86735
G1 X99.509 Y101.734 E80.40447
G1 X100.728 Y102.062 E80.52001
G1 X112.269 Y113.604 E82.01461
G1 X113.159 Y113.604 E82.09611
G1 X101.102 Y101.547 E83.65746
G1 X101.477 Y101.032 E83.71581
G1 X113.604 Y113.159 E85.28628
G1 X113.604 Y112.269 E85.36778
G1 X101.851 Y100.516 E86.88975
G1 X102.226 Y100.001 E86.94809
G1 X113.604 Y111.379 E88.42156
G1 X113.604 Y110.489 E88.50306
G1 X89.511 Y86.396 E91.62306
G1 X90.401 Y86.396 E91.70456
G1 X113.604 Y109.599 E94.70931
G1 X113.604 Y108.709 E94.79081
G1 X91.291 Y86.396 E97.68030
G1 X92.181 Y86.396 E97.76180
G1 X113.604 Y107.819 E100.53604
G1 X113.604 Y106.929 E100.61754
G1 X93.071 Y86.396 E103.27653
G1 X93.961 Y86.396 E103.35802
G1 X113.604 Y106.039 E105.90176
G1 X113.604 Y105.149 E105.98325
G1 X94.851 Y86.396 E108.41173
G1 X95.741 Y86.396 E108.49323
G1 X113.604 Y104.259 E110.80646
G1 X113.604 Y103.369 E110.88795
G1 X96.631 Y86.396 E113.08593
G1 X97.521 Y86.396 E113.16742
G1 X113.604 Y102.479 E115.25014
G1 X113.604 Y101.589 E115.33164
G1 X98.411 Y86.396 E117.29910
G1 X99.301 Y86.396 E117.38060
G1 X113.604 Y100.699 E119.23281
G1 X113.604 Y99.809 E119.31431
G1 X100.191 Y86.396 E121.05126
G1 X101.081 Y86.396 E121.13276
G1 X113.604 Y98.919 E122.75446
G1 X113.604 Y98.029 E122.83596
G1 X101.971 Y86.396 E124.34240
G1 X102.861 Y86.396 E124.42390
G1 X113.604 Y97.139 E125.81509
G1 X113.604 Y96.249 E125.89659
G1 X103.751 Y86.396 E127.17253
G1 X104.641 Y86.396 E127.25403
G1 X113.604 Y95.359 E128.41471
G1 X113.604 Y94.469 E128.49621
G1 X105.531 Y86.396 E129.54164
G1 X106.421 Y86.396 E129.62314
G1 X113.604 Y93.579 E130.55332
G1 X113.604 Y92.689 E130.63481
G1 X107.311 Y86.396 E131.44974
G1 X108.201 Y86.396 E131.53123
G1 X113.604 Y91.799 E132.23090
G1 X113.604 Y90.909 E132.31240
G1 X109.091 Y86.396 E132.89682
G1 X109.981 Y86.396 E132.97831
G1 X113.604 Y90.019 E133.44747
G1 X113.604 Y89.129 E133.52897
G1 X110.871 Y86.396 E133.88288
G1 X111.761 Y86.396 E133.96438
G1 X113.604 Y88.239 E134.20303
G1 X113.604 Y87.349 E134.28453
G1 X112.651 Y86.396 E134.40793
G1 X113.541 Y86.396 E134.48942
G1 X113.604 Y86.459 E134.49757
M106 S168
M104 S220 ; set temperature
G1 F1800.000 E133.49757
G92 E0
G1 Z0.600 F7800.000
G1 X100.355 Y98.907 F7800.000
G1 E1.00000 F1800.000
G1 X101.149 Y100.000 E1.04913 F1800
G1 X100.355 Y101.093 E1.09827
G1 X99.070 Y100.675 E1.14740
G1 X99.070 Y99.325 E1.19654
G1 X100.305 Y98.924 E1.24376
G1 X100.221 Y99.319 F7800.000
G1 X100.716 Y100.000 E1.27439 F1800
G1 X100.221 Y100.681 E1.30503
G1 X99.420 Y100.421 E1.33566
G1 X99.420 Y99.579 E1.36629
G1 X100.171 Y99.335 E1.39501
G1 X114.475 Y85.525 F7800.000
G1 X114.475 Y114.475 E2.44817 F1800
G1 X85.525 Y114.475 E3.50132
G1 X85.525 Y85.525 E4.55447
G1 X114.422 Y85.525 E5.60571
G1 X114.825 Y85.175 F7800.000
G1 X114.825 Y114.825 E6.68432 F1260
G1 X85.175 Y114.825 E7.76294
G1 X85.175 Y85.175 E8.84156
G1 X114.772 Y85.175 E9.91826
G1 X100.205 Y98.701 F7800.000
G1 X113.139 Y85.767 E10.65317 F3600
G1 X113.686 Y85.767 E10.67514
G1 X100.609 Y98.845 E11.41818
G1 X100.839 Y99.161 E11.43391
G1 X114.213 Y85.787 E12.19385
G1 X114.233 Y86.314 E12.21505
G1 X101.069 Y99.478 E12.96302
G1 X101.299 Y99.794 E12.97874
G1 X114.233 Y86.861 E13.71364
G1 X114.233 Y87.407 E13.73560
G1 X100.939 Y100.701 E14.49095
G1 F1800.000 E13.49095
G92 E0
G1 X99.396 Y98.964 F7800.000
G1 E1.00000 F1800.000
G1 X112.593 Y85.767 E1.74986 F3600
G1 X112.046 Y85.767 E1.77182
G1 X85.767 Y112.046 E3.26498
G1 X85.767 Y111.499 E3.28694
G1 X111.499 Y85.767 E4.74904
G1 X110.953 Y85.767 E4.77100
G1 X85.767 Y110.953 E6.20204
G1 X85.767 Y110.406 E6.22400
G1 X110.406 Y85.767 E7.62398
G1 X109.859 Y85.767 E7.64594
G1 X85.767 Y109.859 E9.01486
G1 X85.767 Y109.313 E9.03682
G1 X109.313 Y85.767 E10.37467
G1 X108.766 Y85.767 E10.39663
G1 X85.767 Y108.766 E11.70342
G1 X85.767 Y108.219 E11.72539
G1 X108.219 Y85.767 E13.00111
G1 X107.673 Y85.767 E13.02308
G1 X85.767 Y107.673 E14.26774
G1 X85.767 Y107.126 E14.28971
G1 X107.126 Y85.767 E15.50331
G1 X106.579 Y85.767 E15.52527
G1 X85.767 Y106.579 E16.70782
G1 X85.767 Y106.033 E16.72978
G1 X106.033 Y85.767 E17.88126
G1 X105.486 Y85.767 E17.90322
G1 X85.767 Y105.486 E19.02364
G1 X85.767 Y104.939 E19.04561
G1 X104.939 Y85.767 E20.13496
G1 X104.393 Y85.767 E20.15693
G1 X85.767 Y104.393 E21.21522
G1 X85.767 Y103.846 E21.23719
G1 X103.846 Y85.767 E22.26442
G1 X103.299 Y85.767 E22.28638
G1 X85.767 Y103.299 E23.28256
G1 X85.767 Y102.753 E23.30452
G1 X102.753 Y85.767 E24.26963
G1 X102.206 Y85.767 E24.29159
G1 X85.767 Y102.206 E25.22564
G1 X85.767 Y101.659 E25.24760
G1 X101.659 Y85.767 E26.15059
G1 X101.113 Y85.767 E26.17256
G1 X85.767 Y101.113 E27.04448
G1 X85.767 Y100.566 E27.06644
G1 X100.566 Y85.767 E27.90731
G1 X100.019 Y85.767 E27.92927
G1 X85.767 Y100.019 E28.73907
G1 X85.767 Y99.473 E28.76104
G1 X99.473 Y85.767 E29.53977
G1 X98.926 Y85.767 E29.56174
G1 X85.767 Y98.926 E30.30942
G1 X85.767 Y98.379 E30.33138
G1 X98.379 Y85.767 E31.04800
G1 X97.833 Y85.767 E31.06996
G1 X85.767 Y97.833 E31.75551
G1 X85.767 Y97.286 E31.77748
G1 X97.286 Y85.767 E32.43197
G1 X96.739 Y85.767 E32.45393
G1 X85.767 Y96.739 E33.07736
G1 X85.767 Y96.193 E33.09933
G1 X96.193 Y85.767 E33.69170
G1 X95.646 Y85.767 E33.71366
G1 X85.767 Y95.646 E34.27497
G1 X85.767 Y95.099 E34.29693
G1 X95.099 Y85.767 E34.82718
G1 X94.553 Y85.767 E34.84914
G1 X85.767 Y94.553 E35.34832
G1 X85.767 Y94.006 E35.37029
G1 X94.006 Y85.767 E35.83841
G1 X93.459 Y85.767 E35.86037
G1 X85.767 Y93.459 E36.29743
G1 X85.767 Y92.913 E36.31940
G1 X92.913 Y85.767 E36.72540
G1 X92.366 Y85.767 E36.74736
G1 X85.767 Y92.366 E37.12230
G1 X85.767 Y91.819 E37.14426
G1 X91.819 Y85.767 E37.48814
G1 X91.273 Y85.767 E37.51010
G1 X85.767 Y91.273 E37.82291
G1 X85.767 Y90.726 E37.84488
G1 X90.726 Y85.767 E38.12663
G1 X90.179 Y85.767 E38.14859
G1 X85.767 Y90.179 E38.39928
G1 X85.767 Y89.633 E38.42124
G1 X89.633 Y85.767 E38.64087
G1 X89.086 Y85.767 E38.66284
G1 X85.767 Y89.086 E38.85140
G1 X85.767 Y88.539 E38.87337
G1 X88.539 Y85.767 E39.03087
G1 X87.993 Y85.767 E39.05284
G1 X85.767 Y87.993 E39.17928
G1 X85.767 Y87.446 E39.20124
G1 X87.446 Y85.767 E39.29662
G1 X86.899 Y85.767 E39.31859
G1 X85.767 Y86.899 E39.38291
G1 X85.767 Y86.353 E39.40487
G1 X86.353 Y85.767 E39.43813
G1 X85.806 Y85.767 E39.46009
G1 X85.767 Y85.806 E39.46229
G1 X98.828 Y99.532 F7800.000
G1 X85.767 Y112.593 E40.20441 F3600
G1 X85.767 Y113.139 E40.22638
G1 X98.828 Y100.078 E40.96850
G1 X98.828 Y100.625 E40.99046
G1 X85.767 Y113.686 E41.73259
G1 X85.787 Y114.213 E41.75379
G1 X99.070 Y100.930 E42.50856
G1 X99.483 Y101.064 E42.52599
G1 X86.314 Y114.233 E43.27424
G1 X86.861 Y114.233 E43.29620
