; generated by Slic3r 1.0.0RC2 on 2014-01-29 at 18:18:59

; layer_height = 0.25
; perimeters = 1
; top_solid_layers = 5
; bottom_solid_layers = 5
; fill_density = 0.12
; perimeter_speed = 30
; infill_speed = 60
; travel_speed = 130
; nozzle_diameter = 0.35
; filament_diameter = 1.75
; extrusion_multiplier = 1
; perimeters extrusion width = 0.35mm
; infill extrusion width = 0.39mm
; solid infill extrusion width = 0.39mm
; top infill extrusion width = 0.39mm
; first layer extrusion width = 0.70mm

G21 ; set units to millimeters
M107
M104 S220 ; set temperature
G28 ; home all axes
G1 Z5 F5000 ; lift nozzle

M109 S220 ; wait for temperature to be reached
G90 ; use absolute coordinates
G92 E0
M82 ; use absolute distances for extrusion
G1 F1800.000 E-1.00000
G92 E0
G1 Z0.350 F7800.000
G1 X81.010 Y79.130 F7800.000
G1 E1.00000 F1800.000
G1 X82.130 Y78.010 E1.14403 F540.000
G1 X83.440 Y77.100 E1.28906
G1 X84.880 Y76.430 E1.43348
G1 X86.420 Y76.010 E1.57863
G1 X88.000 Y75.880 E1.72278
G1 X112.000 Y75.880 E3.90509
G1 X113.580 Y76.010 E4.04924
G1 X115.120 Y76.430 E4.19439
G1 X116.560 Y77.100 E4.33881
G1 X117.870 Y78.010 E4.48385
G1 X118.990 Y79.130 E4.62787
G1 X119.900 Y80.440 E4.77291
G1 X120.570 Y81.880 E4.91733
G1 X120.990 Y83.420 E5.06247
G1 X121.120 Y85.000 E5.20663
G1 X121.120 Y115.000 E7.93451
G1 X120.990 Y116.580 E8.07867
G1 X120.570 Y118.120 E8.22381
G1 X119.900 Y119.560 E8.36823
G1 X118.990 Y120.870 E8.51327
G1 X117.870 Y121.990 E8.65730
G1 X116.560 Y122.900 E8.80233
G1 X115.120 Y123.570 E8.94675
G1 X113.580 Y123.990 E9.09190
G1 X112.000 Y124.120 E9.23605
G1 X88.000 Y124.120 E11.41836
G1 X86.420 Y123.990 E11.56252
G1 X84.880 Y123.570 E11.70766
G1 X83.440 Y122.900 E11.85208
G1 X82.130 Y121.990 E11.99712
G1 X81.010 Y120.870 E12.14114
G1 X80.100 Y119.560 E12.28618
G1 X79.430 Y118.120 E12.43060
G1 X79.010 Y116.580 E12.57574
G1 X78.880 Y115.000 E12.71990
G1 X78.880 Y85.000 E15.44778
G1 X79.010 Y83.420 E15.59194
G1 X79.430 Y81.880 E15.73709
G1 X80.100 Y80.440 E15.88150
G1 X80.957 Y79.207 E16.01802
G1 X81.490 Y79.540 F7800.000
G1 X82.540 Y78.490 E16.15304 F540.000
G1 X83.750 Y77.640 E16.28750
G1 X85.090 Y77.010 E16.42214
G1 X86.520 Y76.630 E16.55668
G1 X88.000 Y76.500 E16.69178
G1 X112.000 Y76.500 E18.87409
G1 X113.480 Y76.630 E19.00918
G1 X114.910 Y77.010 E19.14372
G1 X116.250 Y77.640 E19.27836
G1 X117.460 Y78.490 E19.41282
G1 X118.510 Y79.540 E19.54784
G1 X119.360 Y80.750 E19.68230
G1 X119.990 Y82.090 E19.81694
G1 X120.370 Y83.520 E19.95149
G1 X120.500 Y85.000 E20.08658
G1 X120.500 Y115.000 E22.81447
G1 X120.370 Y116.480 E22.94956
G1 X119.990 Y117.910 E23.08410
G1 X119.360 Y119.250 E23.21874
G1 X118.510 Y120.460 E23.35320
G1 X117.460 Y121.510 E23.48823
G1 X116.250 Y122.360 E23.62269
G1 X114.910 Y122.990 E23.75733
G1 X113.480 Y123.370 E23.89187
G1 X112.000 Y123.500 E24.02696
G1 X88.000 Y123.500 E26.20927
G1 X86.520 Y123.370 E26.34437
G1 X85.090 Y122.990 E26.47891
G1 X83.750 Y122.360 E26.61355
G1 X82.540 Y121.510 E26.74801
G1 X81.490 Y120.460 E26.88303
G1 X80.640 Y119.250 E27.01749
G1 X80.010 Y117.910 E27.15213
G1 X79.630 Y116.480 E27.28667
G1 X79.500 Y115.000 E27.42177
G1 X79.500 Y85.000 E30.14965
G1 X79.630 Y83.520 E30.28475
G1 X80.010 Y82.090 E30.41929
G1 X80.640 Y80.750 E30.55393
G1 X81.436 Y79.617 E30.67986
G1 X82.430 Y79.430 F7800.000
G1 X83.630 Y78.450 E30.82074 F540.000
G1 X84.990 Y77.720 E30.96110
G1 X86.460 Y77.280 E31.10062
G1 X88.000 Y77.130 E31.24132
G1 X112.000 Y77.130 E33.42363
G1 X113.540 Y77.280 E33.56432
G1 X115.010 Y77.720 E33.70385
G1 X116.370 Y78.450 E33.84420
G1 X117.570 Y79.430 E33.98508
G1 X118.550 Y80.630 E34.12596
G1 X119.280 Y81.990 E34.26631
G1 X119.720 Y83.460 E34.40584
G1 X119.870 Y85.000 E34.54653
G1 X119.870 Y115.000 E37.27442
G1 X119.720 Y116.540 E37.41511
G1 X119.280 Y118.010 E37.55464
G1 X118.550 Y119.370 E37.69499
G1 X117.570 Y120.570 E37.83587
G1 X116.370 Y121.550 E37.97675
G1 X115.010 Y122.280 E38.11710
G1 X113.540 Y122.720 E38.25663
G1 X112.000 Y122.870 E38.39732
G1 X88.000 Y122.870 E40.57963
G1 X86.460 Y122.720 E40.72033
G1 X84.990 Y122.280 E40.85985
G1 X83.630 Y121.550 E41.00021
G1 X82.430 Y120.570 E41.14109
G1 X81.450 Y119.370 E41.28197
G1 X80.720 Y118.010 E41.42232
G1 X80.280 Y116.540 E41.56184
G1 X80.130 Y115.000 E41.70254
G1 X80.130 Y85.000 E44.43043
G1 X80.280 Y83.460 E44.57112
G1 X80.720 Y81.990 E44.71065
G1 X81.450 Y80.630 E44.85100
G1 X82.371 Y79.503 E44.98335
G1 X82.870 Y79.870 F7800.000
G1 X83.970 Y78.970 E45.11259 F540.000
G1 X85.230 Y78.300 E45.24235
G1 X86.590 Y77.890 E45.37151
G1 X88.000 Y77.750 E45.50035
G1 X112.000 Y77.750 E47.68266
G1 X113.410 Y77.890 E47.81151
G1 X114.770 Y78.300 E47.94067
G1 X116.030 Y78.970 E48.07043
G1 X117.130 Y79.870 E48.19966
G1 X118.030 Y80.970 E48.32890
G1 X118.700 Y82.230 E48.45866
G1 X119.110 Y83.590 E48.58782
G1 X119.250 Y85.000 E48.71666
G1 X119.250 Y115.000 E51.44455
G1 X119.110 Y116.410 E51.57339
G1 X118.700 Y117.770 E51.70255
G1 X118.030 Y119.030 E51.83232
G1 X117.130 Y120.130 E51.96155
G1 X116.030 Y121.030 E52.09079
G1 X114.770 Y121.700 E52.22055
G1 X113.410 Y122.110 E52.34971
G1 X112.000 Y122.250 E52.47855
G1 X88.000 Y122.250 E54.66086
G1 X86.590 Y122.110 E54.78970
G1 X85.230 Y121.700 E54.91886
G1 X83.970 Y121.030 E55.04863
G1 X82.870 Y120.130 E55.17786
G1 X81.970 Y119.030 E55.30710
G1 X81.300 Y117.770 E55.43686
G1 X80.890 Y116.410 E55.56602
G1 X80.750 Y115.000 E55.69486
G1 X80.750 Y85.000 E58.42275
G1 X80.890 Y83.590 E58.55159
G1 X81.300 Y82.230 E58.68075
G1 X81.970 Y80.970 E58.81051
G1 X82.811 Y79.943 E58.93123
G1 X83.320 Y80.320 F7800.000
G1 X84.320 Y79.490 E59.04940 F540.000
G1 X85.460 Y78.880 E59.16696
G1 X86.710 Y78.500 E59.28576
G1 X88.000 Y78.380 E59.40357
G1 X112.000 Y78.380 E61.58588
G1 X113.290 Y78.500 E61.70368
G1 X114.540 Y78.880 E61.82248
G1 X115.680 Y79.490 E61.94005
G1 X116.680 Y80.320 E62.05822
G1 X117.510 Y81.320 E62.17639
G1 X118.120 Y82.460 E62.29395
G1 X118.500 Y83.710 E62.41275
G1 X118.620 Y85.000 E62.53056
G1 X118.620 Y115.000 E65.25844
G1 X118.500 Y116.290 E65.37625
G1 X118.120 Y117.540 E65.49505
G1 X117.510 Y118.680 E65.61261
G1 X116.680 Y119.680 E65.73078
G1 X115.680 Y120.510 E65.84895
G1 X114.540 Y121.120 E65.96652
G1 X113.290 Y121.500 E66.08532
G1 X112.000 Y121.620 E66.20312
G1 X88.000 Y121.620 E68.38543
G1 X86.710 Y121.500 E68.50324
G1 X85.460 Y121.120 E68.62204
G1 X84.320 Y120.510 E68.73961
G1 X83.320 Y119.680 E68.85778
G1 X82.490 Y118.680 E68.97595
G1 X81.880 Y117.540 E69.09351
G1 X81.500 Y116.290 E69.21231
G1 X81.380 Y115.000 E69.33012
G1 X81.380 Y85.000 E72.05800
G1 X81.500 Y83.710 E72.17581
G1 X81.880 Y82.460 E72.29461
G1 X82.490 Y81.320 E72.41217
G1 X83.260 Y80.392 E72.52182
G1 F1800.000 E71.52182
G92 E0
G1 X98.702 Y99.050 F7800.000
G1 E1.00000 F1800.000
G1 X100.541 Y98.303 E1.18054 F540.000
G1 X101.528 Y100.000 E1.35904
G1 X100.541 Y101.697 E1.53755
G1 X98.702 Y100.950 E1.71808
G1 X98.702 Y99.144 E1.88237
G1 X99.326 Y99.470 F7800.000
G1 X100.273 Y99.086 E1.97532 F540.000
G1 X100.805 Y100.000 E2.07146
G1 X100.273 Y100.914 E2.16760
G1 X99.326 Y100.530 E2.26055
G1 X99.326 Y99.564 E2.34833
G1 X88.975 Y85.975 F7800.000
G1 X111.025 Y85.975 E4.35334 F540.000
G1 X111.025 Y114.025 E6.90394
G1 X88.975 Y114.025 E8.90896
G1 X88.975 Y86.069 E11.45103
G1 X88.350 Y85.350 F7800.000
G1 X111.650 Y85.350 E13.56969 F378.000
G1 X111.650 Y114.650 E16.23392
G1 X88.350 Y114.650 E18.35258
G1 X88.350 Y85.444 E21.00830
G1 X101.088 Y98.406 F7800.000
G1 X110.604 Y107.921 E22.24647 F1080.000
G1 X110.604 Y107.027 E22.32875
G1 X89.973 Y86.396 E25.01323
G1 X89.396 Y86.714 E25.07381
G1 X100.534 Y97.851 E26.52302
G1 X99.898 Y98.109 E26.58618
G1 X89.396 Y87.608 E27.95264
G1 X89.396 Y88.502 E28.03492
G1 X99.262 Y98.367 E29.31863
G1 X98.626 Y98.626 E29.38179
G1 X89.396 Y89.396 E30.58274
G1 X89.396 Y90.291 E30.66502
G1 X98.280 Y99.174 E31.82099
G1 X98.280 Y100.069 E31.90327
G1 X89.396 Y91.185 E33.05925
G1 X89.396 Y92.079 E33.14153
G1 X110.604 Y113.286 E35.90108
G1 X110.027 Y113.604 E35.96166
G1 X89.396 Y92.973 E38.64614
G1 X89.396 Y93.867 E38.72842
G1 X109.133 Y113.604 E41.29654
G1 X108.238 Y113.604 E41.37882
G1 X89.396 Y94.762 E43.83059
G1 X89.396 Y95.656 E43.91286
G1 X107.344 Y113.604 E46.24827
G1 X106.450 Y113.604 E46.33055
G1 X89.396 Y96.550 E48.54960
G1 X89.396 Y97.444 E48.63187
G1 X105.556 Y113.604 E50.73456
G1 X104.661 Y113.604 E50.81684
G1 X89.396 Y98.339 E52.80317
G1 X89.396 Y99.233 E52.88545
G1 X103.767 Y113.604 E54.75542
G1 X102.873 Y113.604 E54.83770
G1 X89.396 Y100.127 E56.59131
G1 X89.396 Y101.021 E56.67359
G1 X101.979 Y113.604 E58.31084
G1 X101.085 Y113.604 E58.39312
G1 X89.396 Y101.915 E59.91401
G1 X89.396 Y102.810 E59.99629
G1 X100.190 Y113.604 E61.40082
G1 X99.296 Y113.604 E61.48310
G1 X89.396 Y103.704 E62.77128
G1 X89.396 Y104.598 E62.85355
G1 X98.402 Y113.604 E64.02537
G1 X97.508 Y113.604 E64.10765
G1 X89.396 Y105.492 E65.16311
G1 X89.396 Y106.387 E65.24539
G1 X96.613 Y113.604 E66.18448
G1 X95.719 Y113.604 E66.26676
G1 X89.396 Y107.281 E67.08950
G1 X89.396 Y108.175 E67.17178
G1 X94.825 Y113.604 E67.87816
G1 X93.931 Y113.604 E67.96044
G1 X89.396 Y109.069 E68.55046
G1 X89.396 Y109.964 E68.63274
G1 X93.036 Y113.604 E69.10640
G1 X92.142 Y113.604 E69.18868
G1 X89.396 Y110.858 E69.54599
G1 X89.396 Y111.752 E69.62827
G1 X91.248 Y113.604 E69.86921
G1 X90.354 Y113.604 E69.95149
G1 X89.396 Y112.646 E70.07608
G1 X89.396 Y113.540 E70.15835
G1 X89.460 Y113.604 E70.16658
G1 X101.932 Y100.143 F7800.000
G1 X110.604 Y108.815 E71.29499 F1080.000
G1 X110.604 Y109.709 E71.37727
G1 X101.603 Y100.709 E72.54845
G1 X101.274 Y101.274 E72.60864
G1 X110.604 Y110.604 E73.82260
G1 X110.604 Y111.498 E73.90487
G1 X100.946 Y101.840 E75.16161
G1 X100.242 Y102.031 E75.22866
G1 X110.604 Y112.392 E76.57691
G1 X110.604 Y106.133 F7800.000
G1 X90.867 Y86.396 E79.14503 F1080.000
G1 X91.762 Y86.396 E79.22731
G1 X110.604 Y105.238 E81.67907
G1 X110.604 Y104.344 E81.76135
G1 X92.656 Y86.396 E84.09675
G1 X93.550 Y86.396 E84.17903
G1 X110.604 Y103.450 E86.39807
G1 X110.604 Y102.556 E86.48035
G1 X94.444 Y86.396 E88.58303
G1 X95.339 Y86.396 E88.66531
G1 X110.604 Y101.661 E90.65164
G1 X110.604 Y100.767 E90.73392
G1 X96.233 Y86.396 E92.60388
G1 X97.127 Y86.396 E92.68616
G1 X110.604 Y99.873 E94.43977
G1 X110.604 Y98.979 E94.52205
G1 X98.021 Y86.396 E96.15930
G1 X98.916 Y86.396 E96.24157
G1 X110.604 Y98.084 E97.76246
G1 X110.604 Y97.190 E97.84474
G1 X99.810 Y86.396 E99.24927
G1 X100.704 Y86.396 E99.33155
G1 X110.604 Y96.296 E100.61972
G1 X110.604 Y95.402 E100.70200
G1 X101.598 Y86.396 E101.87382
G1 X102.492 Y86.396 E101.95609
G1 X110.604 Y94.508 E103.01155
G1 X110.604 Y93.613 E103.09383
G1 X103.387 Y86.396 E104.03292
G1 X104.281 Y86.396 E104.11520
G1 X110.604 Y92.719 E104.93794
G1 X110.604 Y91.825 E105.02021
G1 X105.175 Y86.396 E105.72659
G1 X106.069 Y86.396 E105.80887
G1 X110.604 Y90.931 E106.39889
G1 X110.604 Y90.036 E106.48117
G1 X106.964 Y86.396 E106.95483
G1 X107.858 Y86.396 E107.03711
G1 X110.604 Y89.142 E107.39441
G1 X110.604 Y88.248 E107.47668
G1 X108.752 Y86.396 E107.71763
G1 X109.646 Y86.396 E107.79990
G1 X110.604 Y87.354 E107.92449
G1 X110.604 Y86.460 E108.00677
G1 X110.540 Y86.396 E108.01499
M106 S215
M104 S220 ; set temperature
G1 F1800.000 E107.01499
G92 E0
G1 Z0.600 F7800.000
G1 X100.348 Y98.867 F7800.000
G1 E1.00000 F1800.000
G1 X101.007 Y100.000 E1.04769 F1800
G1 X100.348 Y101.133 E1.09538
G1 X99.151 Y100.647 E1.14238
G1 X99.151 Y99.353 E1.18948
G1 X100.300 Y98.886 E1.23457
G1 X100.199 Y99.305 F7800.000
G1 X100.602 Y100.000 E1.26381 F1800
G1 X100.199 Y100.695 E1.29304
G1 X99.501 Y100.412 E1.32041
G1 X99.501 Y99.588 E1.35037
G1 X100.150 Y99.325 E1.37583
G1 X111.475 Y85.525 F7800.000
G1 X111.475 Y114.475 E2.42898 F1800
G1 X88.525 Y114.475 E3.26386
G1 X88.525 Y85.525 E4.31702
G1 X111.422 Y85.525 E5.14999
G1 X111.825 Y85.175 F7800.000
G1 X111.825 Y114.825 E6.22860 F1260
G1 X88.175 Y114.825 E7.08895
G1 X88.175 Y85.175 E8.16756
G1 X111.772 Y85.175 E9.02600
G1 X98.909 Y99.724 F7800.000
G1 X88.767 Y109.866 E9.60242 F3600
G1 X88.767 Y110.413 E9.62439
G1 X98.909 Y100.271 E10.20081
G1 X98.914 Y100.812 E10.22258
G1 X88.767 Y110.959 E10.79928
G1 X88.767 Y111.506 E10.82126
G1 X99.303 Y100.970 E11.42006
G1 X99.692 Y101.128 E11.43692
G1 X88.767 Y112.053 E12.05783
G1 X88.767 Y112.600 E12.07980
G1 X100.081 Y101.286 E12.72281
G1 X111.233 Y114.194 F7800.000
G1 X111.194 Y114.233 E12.72501 F3600
G1 X110.647 Y114.233 E12.74698
G1 X111.233 Y113.647 E12.78026
G1 X111.233 Y113.100 E12.80223
G1 X110.100 Y114.233 E12.86659
G1 X109.554 Y114.233 E12.88856
G1 X111.233 Y112.554 E12.98399
G1 X111.233 Y112.007 E13.00597
G1 X109.007 Y114.233 E13.13248
G1 X108.460 Y114.233 E13.15446
G1 X111.233 Y111.460 E13.31204
G1 X111.233 Y110.913 E13.33402
G1 X107.913 Y114.233 E13.52269
G1 X107.366 Y114.233 E13.54466
G1 X111.233 Y110.366 E13.76441
G1 X111.233 Y109.820 E13.78638
G1 X106.820 Y114.233 E14.03720
G1 X106.273 Y114.233 E14.05918
G1 X111.233 Y109.273 E14.34108
G1 X111.233 Y108.726 E14.36305
G1 X105.726 Y114.233 E14.67603
G1 X105.179 Y114.233 E14.69801
G1 X111.233 Y108.179 E15.04207
G1 X111.233 Y107.632 E15.06404
G1 X104.632 Y114.233 E15.43918
G1 X104.086 Y114.233 E15.46115
G1 X111.233 Y107.086 E15.86736
G1 X111.233 Y106.539 E15.88934
G1 X103.539 Y114.233 E16.32663
G1 X102.992 Y114.233 E16.34861
G1 X111.233 Y105.992 E16.81698
G1 X111.233 Y105.445 E16.83895
G1 X102.445 Y114.233 E17.33840
G1 X101.898 Y114.233 E17.36037
G1 X111.233 Y104.898 E17.89090
G1 X111.233 Y104.351 E17.91287
G1 X101.351 Y114.233 E18.47448
G1 X100.805 Y114.233 E18.49645
G1 X111.233 Y103.805 E19.08913
G1 X111.233 Y103.258 E19.11111
G1 X100.258 Y114.233 E19.73487
G1 X99.711 Y114.233 E19.75684
G1 X111.233 Y102.711 E20.41168
G1 X111.233 Y102.164 E20.43366
G1 X99.164 Y114.233 E21.11957
G1 X98.617 Y114.233 E21.14155
G1 X111.233 Y101.617 E21.85854
G1 X111.233 Y101.071 E21.88052
G1 X98.071 Y114.233 E22.62859
G1 X97.524 Y114.233 E22.65057
G1 X111.233 Y100.524 E23.42972
G1 X111.233 Y99.977 E23.45169
G1 X96.977 Y114.233 E24.26192
G1 X96.430 Y114.233 E24.28390
G1 X111.233 Y99.430 E25.12520
G1 X111.233 Y98.883 E25.14718
G1 X95.883 Y114.233 E26.01956
G1 X95.336 Y114.233 E26.04154
G1 X111.233 Y98.336 E26.94500
G1 X111.233 Y97.790 E26.96697
G1 X94.790 Y114.233 E27.90152
G1 X94.243 Y114.233 E27.92349
G1 X111.233 Y97.243 E28.88911
G1 X111.233 Y96.696 E28.91109
G1 X93.696 Y114.233 E29.90778
G1 X93.149 Y114.233 E29.92976
G1 X111.233 Y96.149 E30.95753
G1 X111.233 Y95.602 E30.97951
G1 X92.602 Y114.233 E32.03836
G1 X92.056 Y114.233 E32.06034
G1 X111.233 Y95.056 E33.15027
G1 X111.233 Y94.509 E33.17224
G1 X91.509 Y114.233 E34.29325
G1 X90.962 Y114.233 E34.31523
G1 X111.233 Y93.962 E35.46731
G1 X111.233 Y93.415 E35.48929
G1 X90.415 Y114.233 E36.67246
G1 X89.868 Y114.233 E36.69443
G1 X111.233 Y92.868 E37.90867
G1 X111.233 Y92.322 E37.93065
G1 X89.322 Y114.233 E39.17597
G1 X88.790 Y114.217 E39.19733
G1 X111.233 Y91.775 E40.47284
G1 X111.233 Y91.228 E40.49482
G1 X88.767 Y113.693 E41.77164
G1 X88.767 Y113.147 E41.79362
G1 X111.233 Y90.681 E43.07044
G1 X111.233 Y90.134 E43.09242
G1 X101.177 Y100.190 E43.66394
G1 X101.116 Y99.705 E43.68361
G1 X111.233 Y89.587 E44.25861
G1 X111.233 Y89.041 E44.28059
G1 X100.915 Y99.359 E44.86701
G1 X100.714 Y99.013 E44.88309
G1 X111.233 Y88.494 E45.48094
G1 X111.233 Y87.947 E45.50292
G1 X100.513 Y98.667 E46.11219
G1 X99.809 Y98.824 E46.14118
G1 X111.233 Y87.400 E46.79047
G1 X111.233 Y86.853 E46.81245
G1 X88.767 Y109.319 E48.08927
G1 X88.767 Y108.772 E48.11125
G1 X111.233 Y86.307 E49.38807
G1 X111.210 Y85.783 E49.40914
G1 X88.767 Y108.225 E50.68465
G1 X88.767 Y107.678 E50.70663
G1 X110.678 Y85.767 E51.95195
G1 X110.132 Y85.767 E51.97392
G1 X88.767 Y107.132 E53.18817
G1 X88.767 Y106.585 E53.21014
G1 X109.585 Y85.767 E54.39331
G1 X109.038 Y85.767 E54.41528
G1 X88.767 Y106.038 E55.56737
G1 X88.767 Y105.491 E55.58934
G1 X108.491 Y85.767 E56.71035
G1 X107.944 Y85.767 E56.73233
G1 X88.767 Y104.944 E57.82226
G1 X88.767 Y104.398 E57.84423
G1 X107.398 Y85.767 E58.90308
G1 X106.851 Y85.767 E58.92506
G1 X88.767 Y103.851 E59.95283
G1 X88.767 Y103.304 E59.97481
G1 X106.304 Y85.767 E60.97151
