; generated by Slic3r 1.1.3 on 2014-06-09 at 21:52:37

; perimeters extrusion width = 0.34mm
; infill extrusion width = 0.60mm
; solid infill extrusion width = 0.37mm
; top infill extrusion width = 0.35mm

G21 ; set units to millimeters
M107
G28 ; home all axes
M104 S230 ; lower temp after/durring first layer improve overhangs
M140 S90 ; lower temp after/durring first layer improve overhangs
G90 ; use absolute coordinates
G92 E0
M82 ; use absolute distances for extrusion
G1 F1200.000 E-1.75000
G92 E0
G1 Z0.168 F4800.000
G1 X133.669 Y107.656 F4800.000
G1 E1.75000 F1200.000
G1 X134.638 Y106.633 E1.76320 F3060.000
G1 X136.743 Y104.796 E1.78937
G1 X138.527 Y103.640 E1.80928
G1 X140.566 Y102.701 E1.83030
G1 X143.689 Y102.016 E1.86025
G1 X145.573 Y102.016 E1.87789
G1 X147.975 Y102.413 E1.90070
G1 X149.271 Y102.997 E1.91401
G1 X151.219 Y104.118 E1.93507
G1 X151.763 Y104.471 E1.94113
G1 X172.901 Y119.241 E2.18266
G1 X173.943 Y120.075 E2.19516
G1 X174.883 Y121.001 E2.20751
G1 X175.248 Y121.416 E2.21269
G1 X175.690 Y121.965 E2.21930
G1 X176.408 Y122.995 E2.23106
G1 X176.724 Y123.516 E2.23677
G1 X177.020 Y124.047 E2.24245
G1 X177.538 Y125.112 E2.25355
G1 X177.985 Y126.215 E2.26469
G1 X178.357 Y127.330 E2.27571
G1 X178.660 Y128.456 E2.28663
G1 X178.904 Y129.601 E2.29759
G1 X179.092 Y130.765 E2.30864
G1 X179.223 Y131.933 E2.31964
G1 X179.305 Y133.121 E2.33080
G1 X179.336 Y134.318 E2.34201
G1 X179.319 Y135.516 E2.35323
G1 X179.257 Y136.731 E2.36463
G1 X179.149 Y137.947 E2.37606
G1 X178.997 Y139.161 E2.38752
G1 X178.802 Y140.386 E2.39914
G1 X178.565 Y141.600 E2.41073
G1 X178.286 Y142.816 E2.42241
G1 X177.967 Y144.020 E2.43408
G1 X177.608 Y145.215 E2.44576
G1 X177.209 Y146.403 E2.45750
G1 X176.774 Y147.566 E2.46913
G1 X176.299 Y148.718 E2.48080
G1 X175.786 Y149.851 E2.49245
G1 X175.239 Y150.953 E2.50397
G1 X174.651 Y152.038 E2.51553
G1 X174.028 Y153.090 E2.52698
G1 X173.370 Y154.107 E2.53833
G1 X172.671 Y155.097 E2.54967
G1 X171.931 Y156.054 E2.56101
G1 X171.158 Y156.962 E2.57218
G1 X170.337 Y157.837 E2.58342
G1 X169.462 Y158.675 E2.59476
G1 X168.551 Y159.451 E2.60597
G1 X167.573 Y160.185 E2.61742
G1 X166.543 Y160.852 E2.62891
G1 X165.647 Y161.322 E2.63839
G1 X141.278 Y172.242 E2.88851
G1 X139.425 Y173.033 E2.90737
G1 X137.909 Y173.508 E2.92225
G1 X136.662 Y173.794 E2.93423
G1 X134.990 Y173.984 E2.95000
G1 X133.595 Y173.981 E2.96306
G1 X132.754 Y173.959 E2.97094
G1 X131.117 Y173.731 E2.98642
G1 X128.951 Y173.102 E3.00755
G1 X127.434 Y172.427 E3.02310
G1 X126.360 Y171.839 E3.03457
G1 X124.952 Y170.842 E3.05072
G1 X123.986 Y169.973 E3.06290
G1 X122.984 Y168.873 E3.07684
G1 X122.139 Y167.736 E3.09010
G1 X121.486 Y166.683 E3.10171
G1 X120.374 Y164.353 E3.12588
G1 X119.577 Y161.915 E3.14991
G1 X119.045 Y159.377 E3.17420
G1 X118.749 Y156.751 E3.19895
G1 X118.664 Y154.337 E3.22158
G1 X118.756 Y151.815 E3.24521
G1 X118.795 Y151.283 E3.25021
G1 X119.116 Y148.480 E3.27663
G1 X119.627 Y145.664 E3.30343
G1 X120.226 Y143.189 E3.32729
G1 X125.211 Y124.051 E3.51252
G1 X126.940 Y119.122 E3.56144
G1 X129.062 Y114.504 E3.60904
G1 X131.590 Y110.312 E3.65489
G1 X133.636 Y107.697 E3.68599
G1 X133.957 Y107.881 F4800.000
G1 X134.879 Y106.908 E3.69854 F3060.000
G1 X136.983 Y105.071 E3.72471
G1 X138.680 Y103.972 E3.74364
G1 X140.719 Y103.033 E3.76467
G1 X143.689 Y102.382 E3.79314
G1 X145.573 Y102.382 E3.81079
G1 X147.914 Y102.779 E3.83303
G1 X149.090 Y103.314 E3.84513
G1 X151.023 Y104.427 E3.86603
G1 X151.553 Y104.771 E3.87194
G1 X172.681 Y119.533 E4.11335
G1 X173.694 Y120.343 E4.12549
G1 X174.608 Y121.242 E4.13750
G1 X174.973 Y121.657 E4.14268
G1 X175.395 Y122.181 E4.14898
G1 X176.096 Y123.185 E4.16044
G1 X176.412 Y123.706 E4.16615
G1 X176.694 Y124.212 E4.17158
G1 X177.201 Y125.254 E4.18243
G1 X177.640 Y126.334 E4.19335
G1 X178.005 Y127.429 E4.20416
G1 X178.303 Y128.535 E4.21489
G1 X178.544 Y129.662 E4.22568
G1 X178.729 Y130.809 E4.23656
G1 X178.859 Y131.960 E4.24741
G1 X178.939 Y133.133 E4.25842
G1 X178.970 Y134.315 E4.26950
G1 X178.954 Y135.499 E4.28059
G1 X178.892 Y136.700 E4.29186
G1 X178.786 Y137.903 E4.30317
G1 X178.636 Y139.105 E4.31451
G1 X178.442 Y140.317 E4.32601
G1 X178.208 Y141.520 E4.33748
G1 X177.932 Y142.724 E4.34905
G1 X177.616 Y143.916 E4.36061
G1 X177.261 Y145.100 E4.37218
G1 X176.866 Y146.276 E4.38380
G1 X176.436 Y147.428 E4.39532
G1 X175.966 Y148.568 E4.40687
G1 X175.457 Y149.690 E4.41841
G1 X174.916 Y150.780 E4.42980
G1 X174.335 Y151.853 E4.44123
G1 X173.719 Y152.892 E4.45255
G1 X173.070 Y153.898 E4.46376
G1 X172.380 Y154.875 E4.47496
G1 X171.651 Y155.819 E4.48613
G1 X170.889 Y156.714 E4.49715
G1 X170.081 Y157.576 E4.50821
G1 X169.221 Y158.399 E4.51936
G1 X168.328 Y159.161 E4.53036
G1 X167.369 Y159.881 E4.54158
G1 X166.362 Y160.534 E4.55283
G1 X165.498 Y160.989 E4.56197
G1 X141.129 Y171.908 E4.81208
G1 X139.307 Y172.687 E4.83064
G1 X137.827 Y173.151 E4.84516
G1 X136.580 Y173.438 E4.85715
G1 X134.990 Y173.618 E4.87214
G1 X133.605 Y173.616 E4.88511
G1 X132.764 Y173.593 E4.89299
G1 X131.207 Y173.377 E4.90771
G1 X129.091 Y172.764 E4.92835
G1 X127.609 Y172.106 E4.94353
G1 X126.535 Y171.519 E4.95500
G1 X125.197 Y170.570 E4.97036
G1 X124.230 Y169.701 E4.98253
G1 X123.277 Y168.655 E4.99579
G1 X121.811 Y166.517 E5.02007
G1 X120.719 Y164.233 E5.04378
G1 X119.933 Y161.835 E5.06742
G1 X119.408 Y159.332 E5.09137
G1 X119.114 Y156.737 E5.11583
G1 X119.029 Y154.337 E5.13833
G1 X119.121 Y151.830 E5.16182
G1 X119.158 Y151.322 E5.16659
G1 X119.477 Y148.544 E5.19278
G1 X119.982 Y145.750 E5.21937
G1 X120.580 Y143.281 E5.24317
G1 X125.557 Y124.170 E5.42813
G1 X127.274 Y119.272 E5.47675
G1 X129.378 Y114.689 E5.52398
G1 X131.878 Y110.537 E5.56937
G1 X133.924 Y107.923 E5.60046
G1 X134.245 Y108.107 F4800.000
G1 X135.119 Y107.184 E5.61237 F3060.000
G1 X137.224 Y105.347 E5.63854
G1 X138.833 Y104.304 E5.65650
G1 X140.872 Y103.365 E5.67752
G1 X143.689 Y102.747 E5.70453
G1 X145.573 Y102.747 E5.72218
G1 X147.850 Y103.144 E5.74383
G1 X148.908 Y103.632 E5.75474
G1 X150.827 Y104.735 E5.77548
G1 X151.344 Y105.071 E5.78124
G1 X172.462 Y119.826 E6.02253
G1 X173.445 Y120.611 E6.03431
G1 X174.333 Y121.483 E6.04598
G1 X174.698 Y121.899 E6.05116
G1 X175.099 Y122.397 E6.05715
G1 X175.783 Y123.374 E6.06832
G1 X176.099 Y123.896 E6.07403
G1 X176.367 Y124.377 E6.07919
G1 X176.864 Y125.396 E6.08980
G1 X177.294 Y126.454 E6.10050
G1 X177.652 Y127.528 E6.11110
G1 X177.946 Y128.614 E6.12165
G1 X178.183 Y129.723 E6.13226
G1 X178.365 Y130.852 E6.14298
G1 X178.494 Y131.987 E6.15368
G1 X178.574 Y133.144 E6.16454
G1 X178.605 Y134.311 E6.17548
G1 X178.589 Y135.482 E6.18644
G1 X178.528 Y136.669 E6.19758
G1 X178.422 Y137.859 E6.20877
G1 X178.274 Y139.049 E6.21999
G1 X178.083 Y140.248 E6.23137
G1 X177.852 Y141.439 E6.24273
G1 X177.578 Y142.631 E6.25419
G1 X177.266 Y143.812 E6.26563
G1 X176.914 Y144.985 E6.27709
G1 X176.523 Y146.149 E6.28860
G1 X176.097 Y147.290 E6.30000
G1 X175.632 Y148.418 E6.31144
G1 X175.129 Y149.528 E6.32285
G1 X174.594 Y150.607 E6.33412
G1 X174.020 Y151.668 E6.34543
G1 X173.411 Y152.695 E6.35661
G1 X172.770 Y153.689 E6.36768
G1 X172.090 Y154.653 E6.37874
G1 X171.370 Y155.584 E6.38975
G1 X170.620 Y156.466 E6.40060
G1 X169.826 Y157.314 E6.41148
G1 X168.981 Y158.124 E6.42244
G1 X168.104 Y158.871 E6.43324
G1 X167.165 Y159.577 E6.44424
G1 X166.180 Y160.217 E6.45524
G1 X165.348 Y160.655 E6.46404
G1 X140.980 Y171.574 E6.71415
G1 X139.190 Y172.341 E6.73239
G1 X137.745 Y172.795 E6.74657
G1 X136.498 Y173.082 E6.75855
G1 X134.990 Y173.253 E6.77277
G1 X133.615 Y173.250 E6.78565
G1 X132.774 Y173.228 E6.79353
G1 X131.297 Y173.022 E6.80749
G1 X129.230 Y172.426 E6.82764
G1 X127.785 Y171.785 E6.84245
G1 X126.711 Y171.198 E6.85391
G1 X125.441 Y170.298 E6.86849
G1 X124.475 Y169.429 E6.88066
G1 X123.571 Y168.437 E6.89324
G1 X122.137 Y166.350 E6.91695
G1 X121.065 Y164.113 E6.94019
G1 X120.290 Y161.755 E6.96343
G1 X119.771 Y159.288 E6.98704
G1 X119.480 Y156.724 E7.01122
G1 X119.395 Y154.337 E7.03358
G1 X119.487 Y151.844 E7.05695
G1 X119.522 Y151.362 E7.06148
G1 X119.837 Y148.607 E7.08744
G1 X120.338 Y145.836 E7.11382
G1 X120.934 Y143.372 E7.13756
G1 X125.903 Y124.289 E7.32226
G1 X127.608 Y119.422 E7.37056
G1 X129.694 Y114.873 E7.41743
G1 X132.166 Y110.763 E7.46235
G1 X134.212 Y108.148 E7.49345
G1 X134.533 Y108.332 F4800.000
G1 X135.360 Y107.459 E7.50471 F3060.000
G1 X137.464 Y105.622 E7.53088
G1 X138.986 Y104.636 E7.54786
G1 X141.025 Y103.697 E7.56888
G1 X143.689 Y103.113 E7.59443
G1 X145.573 Y103.113 E7.61207
G1 X148.727 Y103.950 E7.64264
G1 X150.631 Y105.044 E7.66321
G1 X151.134 Y105.371 E7.66883
G1 X172.242 Y120.118 E7.91000
G1 X173.196 Y120.878 E7.92142
G1 X174.058 Y121.725 E7.93274
G1 X174.804 Y122.612 E7.94360
G1 X175.470 Y123.564 E7.95448
G1 X175.786 Y124.085 E7.96019
G1 X176.041 Y124.542 E7.96508
G1 X176.527 Y125.538 E7.97546
G1 X176.948 Y126.573 E7.98593
G1 X177.300 Y127.626 E7.99633
G1 X177.589 Y128.694 E8.00669
G1 X177.822 Y129.783 E8.01713
G1 X178.002 Y130.895 E8.02767
G1 X178.129 Y132.014 E8.03822
G1 X178.208 Y133.155 E8.04894
G1 X178.239 Y134.308 E8.05974
G1 X178.223 Y135.464 E8.07057
G1 X178.164 Y136.638 E8.08158
G1 X178.059 Y137.815 E8.09264
G1 X177.913 Y138.992 E8.10375
G1 X177.724 Y140.180 E8.11501
G1 X177.495 Y141.358 E8.12626
G1 X177.224 Y142.539 E8.13760
G1 X176.915 Y143.708 E8.14894
G1 X176.567 Y144.869 E8.16028
G1 X176.180 Y146.022 E8.17167
G1 X175.758 Y147.152 E8.18297
G1 X175.298 Y148.269 E8.19428
G1 X174.801 Y149.367 E8.20558
G1 X174.272 Y150.434 E8.21673
G1 X173.704 Y151.483 E8.22790
G1 X173.103 Y152.498 E8.23895
G1 X172.470 Y153.479 E8.24989
G1 X171.799 Y154.431 E8.26080
G1 X171.090 Y155.349 E8.27165
G1 X170.351 Y156.218 E8.28234
G1 X169.570 Y157.052 E8.29305
G1 X168.741 Y157.848 E8.30381
G1 X167.881 Y158.582 E8.31440
G1 X166.962 Y159.273 E8.32517
G1 X165.999 Y159.899 E8.33593
G1 X165.199 Y160.321 E8.34440
G1 X140.831 Y171.240 E8.59449
G1 X139.072 Y171.995 E8.61242
G1 X137.663 Y172.438 E8.62625
G1 X136.416 Y172.725 E8.63824
G1 X134.990 Y172.887 E8.65168
G1 X133.625 Y172.885 E8.66447
G1 X132.784 Y172.862 E8.67235
G1 X131.387 Y172.668 E8.68555
G1 X129.370 Y172.088 E8.70521
G1 X127.960 Y171.464 E8.71965
G1 X126.886 Y170.877 E8.73112
G1 X125.686 Y170.026 E8.74490
G1 X124.719 Y169.157 E8.75707
G1 X123.864 Y168.219 E8.76896
G1 X122.463 Y166.184 E8.79211
G1 X121.410 Y163.993 E8.81488
G1 X120.647 Y161.675 E8.83773
G1 X120.134 Y159.243 E8.86101
G1 X119.845 Y156.710 E8.88489
G1 X119.761 Y154.337 E8.90713
G1 X119.852 Y151.858 E8.93036
G1 X119.885 Y151.401 E8.93465
G1 X120.197 Y148.670 E8.96039
G1 X120.693 Y145.922 E8.98655
G1 X121.288 Y143.464 E9.01023
G1 X126.249 Y124.408 E9.19467
G1 X127.941 Y119.572 E9.24266
G1 X130.009 Y115.058 E9.28916
G1 X132.454 Y110.988 E9.33363
G1 X134.500 Y108.373 E9.36472
G1 F1200.000 E7.61472
G92 E0
G1 X142.215 Y137.471 F4800.000
G1 E1.75000 F1200.000
M204 S900
G1 X140.390 Y136.878 E1.76798 F2040.000
G1 X140.390 Y134.958 E1.78595
G1 X142.215 Y134.365 E1.80393
G1 X143.343 Y135.918 E1.82191
G1 X142.246 Y137.428 E1.83940
M204 S900
G1 X142.076 Y137.041 F4800.000
M204 S900
G1 X140.755 Y136.612 E1.85240 F2040.000
G1 X140.755 Y135.224 E1.86540
G1 X142.076 Y134.795 E1.87840
G1 X142.891 Y135.918 E1.89140
G1 X142.106 Y136.998 E1.90390
M204 S900
G1 X141.936 Y136.611 F4800.000
M204 S900
G1 X141.121 Y136.346 E1.91193 F1530.000
G1 X141.121 Y135.489 E1.91995
G1 X141.936 Y135.225 E1.92797
G1 X142.439 Y135.918 E1.93600
G1 X141.967 Y136.568 E1.94353
M204 S900
G1 X141.794 Y136.931 F4800.000
G1 F1200.000 E0.19353
G92 E0
G1 X148.998 Y147.449 F4800.000
G1 E1.75000 F1200.000
M204 S900
G1 X144.816 Y156.544 E1.84376 F2040.000
G1 X143.974 Y158.100 E1.86033
G1 X143.059 Y159.527 E1.87620
G1 X142.754 Y159.962 E1.88119
G1 X141.708 Y161.328 E1.89730
G1 X140.643 Y162.475 E1.91195
G1 X139.549 Y163.418 E1.92549
G1 X138.957 Y163.863 E1.93242
G1 X137.808 Y164.615 E1.94528
G1 X136.688 Y165.114 E1.95677
G1 X135.985 Y165.352 E1.96371
G1 X134.886 Y165.605 E1.97428
G1 X133.083 Y165.585 E1.99117
G1 X132.092 Y165.333 E2.00074
G1 X131.411 Y165.051 E2.00765
G1 X130.475 Y164.539 E2.01764
G1 X129.656 Y163.803 E2.02795
G1 X128.912 Y162.801 E2.03964
G1 X128.266 Y161.538 E2.05293
G1 X127.742 Y160.032 E2.06787
G1 X127.356 Y158.309 E2.08441
G1 X127.121 Y156.399 E2.10243
G1 X127.044 Y154.337 E2.12176
G1 X127.128 Y152.159 E2.14217
G1 X127.374 Y149.902 E2.16344
G1 X127.778 Y147.605 E2.18528
G1 X128.339 Y145.285 E2.20764
G1 X133.146 Y126.744 E2.38703
G1 X134.600 Y122.519 E2.42888
G1 X136.322 Y118.689 E2.46822
G1 X138.227 Y115.427 E2.50360
G1 X140.214 Y112.888 E2.53379
G1 X142.154 Y111.195 E2.55790
G1 X143.890 Y110.395 E2.57581
G1 X145.330 Y110.395 E2.58930
G1 X146.897 Y111.299 E2.60624
G1 X153.762 Y118.727 E2.70097
G1 X167.248 Y125.570 E2.84262
G1 X167.899 Y125.964 E2.84975
G1 X168.271 Y126.243 E2.85410
G1 X168.618 Y126.565 E2.85853
G1 X168.949 Y126.942 E2.86323
G1 X169.263 Y127.373 E2.86822
G1 X169.557 Y127.857 E2.87353
G1 X169.828 Y128.394 E2.87917
G1 X170.076 Y128.981 E2.88513
G1 X170.295 Y129.615 E2.89142
G1 X170.485 Y130.296 E2.89803
G1 X170.646 Y131.017 E2.90496
G1 X170.774 Y131.778 E2.91218
G1 X170.869 Y132.574 E2.91969
G1 X170.930 Y133.402 E2.92747
G1 X170.957 Y134.258 E2.93549
G1 X170.949 Y135.139 E2.94374
G1 X170.906 Y136.039 E2.95218
G1 X170.828 Y136.956 E2.96080
G1 X170.716 Y137.886 E2.96957
G1 X170.569 Y138.825 E2.97848
G1 X170.388 Y139.768 E2.98747
G1 X170.175 Y140.712 E2.99653
G1 X169.929 Y141.653 E3.00564
G1 X169.652 Y142.586 E3.01476
G1 X169.346 Y143.508 E3.02385
G1 X169.010 Y144.414 E3.03291
G1 X168.648 Y145.302 E3.04189
G1 X168.260 Y146.167 E3.05077
G1 X167.847 Y147.006 E3.05953
G1 X167.413 Y147.815 E3.06813
G1 X166.959 Y148.590 E3.07654
G1 X166.486 Y149.329 E3.08476
G1 X165.998 Y150.029 E3.09275
G1 X165.497 Y150.685 E3.10048
G1 X164.985 Y151.296 E3.10795
G1 X164.464 Y151.860 E3.11513
G1 X163.939 Y152.373 E3.12202
G1 X163.410 Y152.834 E3.12858
G1 X162.883 Y153.241 E3.13482
G1 X162.382 Y153.576 E3.14046
G1 X159.693 Y153.367 E3.16572
G1 X156.931 Y153.575 E3.19167
G1 X151.798 Y149.612 E3.25241
G1 X151.437 Y149.539 E3.25586
G1 X151.276 Y149.478 E3.25747
G1 X151.142 Y149.399 E3.25892
G1 X151.000 Y149.251 E3.26084
G1 X150.897 Y148.916 E3.26413
G1 X149.040 Y147.481 E3.28611
M204 S900
G1 X149.138 Y148.019 F4800.000
M204 S900
G1 X145.143 Y156.708 E3.37568 F2040.000
G1 X144.289 Y158.286 E3.39249
G1 X143.363 Y159.731 E3.40856
G1 X143.049 Y160.179 E3.41369
G1 X141.988 Y161.564 E3.43003
G1 X140.897 Y162.739 E3.44504
G1 X139.778 Y163.703 E3.45888
G1 X139.168 Y164.163 E3.46604
G1 X137.984 Y164.937 E3.47928
G1 X136.821 Y165.454 E3.49120
G1 X136.085 Y165.704 E3.49848
G1 X134.927 Y165.971 E3.50961
G1 X133.033 Y165.950 E3.52736
G1 X131.977 Y165.681 E3.53757
G1 X131.253 Y165.382 E3.54490
G1 X130.262 Y164.840 E3.55548
G1 X129.384 Y164.051 E3.56653
G1 X128.600 Y162.995 E3.57885
G1 X127.929 Y161.682 E3.59266
G1 X127.389 Y160.132 E3.60803
G1 X126.995 Y158.371 E3.62494
G1 X126.756 Y156.428 E3.64327
G1 X126.678 Y154.337 E3.66287
G1 X126.763 Y152.132 E3.68354
G1 X127.012 Y149.850 E3.70503
G1 X127.420 Y147.530 E3.72710
G1 X127.984 Y145.196 E3.74959
G1 X132.796 Y126.639 E3.92915
G1 X134.260 Y122.384 E3.97129
G1 X135.996 Y118.521 E4.01096
G1 X137.924 Y115.221 E4.04675
G1 X139.947 Y112.636 E4.07750
G1 X141.953 Y110.885 E4.10244
G1 X143.809 Y110.029 E4.12158
G1 X145.427 Y110.029 E4.13673
G1 X147.133 Y111.016 E4.15519
G1 X153.986 Y118.431 E4.24976
G1 X167.424 Y125.249 E4.39090
G1 X168.108 Y125.663 E4.39838
G1 X168.506 Y125.962 E4.40305
G1 X168.880 Y126.310 E4.40783
G1 X169.235 Y126.713 E4.41286
G1 X169.568 Y127.170 E4.41815
G1 X169.877 Y127.679 E4.42374
G1 X170.161 Y128.241 E4.42962
G1 X170.418 Y128.850 E4.43582
G1 X170.644 Y129.506 E4.44232
G1 X170.840 Y130.207 E4.44913
G1 X171.005 Y130.947 E4.45624
G1 X171.136 Y131.726 E4.46363
G1 X171.233 Y132.539 E4.47130
G1 X171.295 Y133.383 E4.47923
G1 X171.323 Y134.254 E4.48740
G1 X171.314 Y135.149 E4.49578
G1 X171.271 Y136.063 E4.50435
G1 X171.192 Y136.994 E4.51309
G1 X171.078 Y137.936 E4.52199
G1 X170.929 Y138.888 E4.53101
G1 X170.746 Y139.843 E4.54012
G1 X170.530 Y140.799 E4.54929
G1 X170.281 Y141.751 E4.55852
G1 X170.001 Y142.696 E4.56774
