; generated by Slic3r 1.0.0RC1 on 2013-12-24 at 20:26:09

; layer_height = 0.25
; perimeters = 3
; top_solid_layers = 6
; bottom_solid_layers = 3
; fill_density = 0.4
; perimeter_speed = 30
; infill_speed = 60
; travel_speed = 130
; nozzle_diameter = 0.35
; filament_diameter = 1.75
; extrusion_multiplier = 1
; perimeters extrusion width = 0.35mm
; infill extrusion width = 0.39mm
; solid infill extrusion width = 0.39mm
; top infill extrusion width = 0.39mm
; support material extrusion width = 0.35mm
; first layer extrusion width = 0.70mm

G21 ; set units to millimeters
M107
M104 S200 ; set temperature
G28 ; home all axes
G1 Z5 F5000 ; lift nozzle

M109 S200 ; wait for temperature to be reached
G90 ; use absolute coordinates
G92 E0
M82 ; use absolute distances for extrusion
G1 F1800.000 E-1.00000
G92 E0
G1 Z0.350 F7800.000
G1 X122.415 Y139.275 F7800.000
G1 E1.00000 F1800.000
G1 X145.645 Y117.795 E3.87692 F540.000
G1 X146.775 Y116.945 E4.00549
G1 X148.065 Y116.365 E4.13410
G1 X149.435 Y116.065 E4.26163
G1 X150.845 Y116.065 E4.38984
G1 X152.225 Y116.365 E4.51825
G1 X153.505 Y116.945 E4.64603
G1 X154.635 Y117.785 E4.77406
G1 X179.075 Y140.355 E7.79905
G1 X179.655 Y140.965 E7.87559
G1 X180.155 Y141.635 E7.95161
G1 X182.645 Y145.495 E8.36929
G1 X183.045 Y146.205 E8.44339
G1 X184.475 Y149.165 E8.74230
G1 X184.705 Y149.725 E8.79735
G1 X184.895 Y150.295 E8.85198
G1 X185.395 Y152.125 E9.02448
G1 X185.525 Y152.695 E9.07764
G1 X185.605 Y153.275 E9.13088
G1 X185.815 Y155.565 E9.33998
G1 X185.835 Y156.165 E9.39457
G1 X185.835 Y165.445 E10.23840
G1 X185.745 Y166.535 E10.33785
G1 X185.515 Y167.915 E10.46506
G1 X185.355 Y168.635 E10.53213
G1 X185.115 Y169.325 E10.59856
G1 X183.985 Y172.095 E10.87059
G1 X183.675 Y172.755 E10.93689
G1 X183.295 Y173.385 E11.00379
G1 X181.295 Y176.255 E11.32187
G1 X180.765 Y176.915 E11.39884
G1 X180.155 Y177.505 E11.47601
G1 X177.645 Y179.645 E11.77593
G1 X177.035 Y180.105 E11.84540
G1 X176.375 Y180.495 E11.91511
G1 X172.745 Y182.365 E12.28641
G1 X171.885 Y182.735 E12.37154
G1 X170.975 Y182.975 E12.45711
G1 X166.755 Y183.795 E12.84801
G1 X166.135 Y183.885 E12.90498
G1 X165.505 Y183.915 E12.96233
G1 X137.595 Y183.955 E15.50018
G1 X134.595 Y183.955 E15.77297
G1 X133.895 Y183.925 E15.83668
G1 X133.205 Y183.815 E15.90021
G1 X130.175 Y183.165 E16.18200
G1 X129.285 Y182.905 E16.26631
G1 X127.135 Y182.115 E16.47458
G1 X126.365 Y181.775 E16.55112
G1 X123.875 Y180.485 E16.80612
G1 X123.355 Y180.185 E16.86071
G1 X122.865 Y179.845 E16.91494
G1 X120.105 Y177.705 E17.23250
G1 X119.185 Y176.825 E17.34827
G1 X118.435 Y175.795 E17.46412
G1 X115.875 Y171.395 E17.92700
G1 X115.525 Y170.695 E17.99817
G1 X115.255 Y169.965 E18.06894
G1 X114.425 Y167.195 E18.33188
G1 X114.225 Y166.255 E18.41927
G1 X114.155 Y165.295 E18.50679
G1 X114.155 Y156.115 E19.34152
G1 X114.175 Y155.505 E19.39702
G1 X114.265 Y154.895 E19.45309
G1 X114.955 Y151.205 E19.79443
G1 X115.255 Y150.125 E19.89636
G1 X115.735 Y149.105 E19.99886
G1 X119.785 Y142.115 E20.73344
G1 X120.335 Y141.305 E20.82247
G1 X121.005 Y140.585 E20.91190
G1 X122.347 Y139.340 E21.07838
G1 F1800.000 E20.07838
G92 E0
G1 X143.072 Y149.695 F7800.000
G1 E1.00000 F1800.000
G1 X144.370 Y148.003 E1.19395 F540.000
G1 X146.062 Y146.704 E1.38789
G1 X148.033 Y145.888 E1.58184
G1 X150.147 Y145.610 E1.77578
G1 X152.262 Y145.888 E1.96973
G1 X154.233 Y146.704 E2.16367
G1 X155.925 Y148.003 E2.35762
G1 X157.223 Y149.695 E2.55156
G1 X158.039 Y151.666 E2.74551
G1 X158.318 Y153.780 E2.93945
G1 X158.250 Y154.298 E2.98696
G1 X158.039 Y155.895 E3.13340
G1 X157.223 Y157.866 E3.32734
G1 X155.925 Y159.558 E3.52129
G1 X154.233 Y160.856 E3.71523
G1 X152.262 Y161.672 E3.90918
G1 X150.147 Y161.951 E4.10312
G1 X148.033 Y161.672 E4.29707
G1 X146.062 Y160.856 E4.49102
G1 X144.370 Y159.558 E4.68496
G1 X143.072 Y157.866 E4.87891
G1 X142.255 Y155.895 E5.07285
G1 X141.977 Y153.780 E5.26680
G1 X142.255 Y151.666 E5.46074
G1 X143.036 Y149.782 E5.64616
G1 X143.617 Y150.010 F7800.000
G1 X144.816 Y148.449 E5.82515 F540.000
G1 X146.028 Y147.518 E5.96411
G1 X146.377 Y147.250 E6.00413
G1 X148.196 Y146.497 E6.18312
G1 X150.147 Y146.240 E6.36210
G1 X152.099 Y146.497 E6.54108
G1 X153.917 Y147.250 E6.72007
G1 X155.479 Y148.449 E6.89905
G1 X156.677 Y150.010 E7.07804
G1 X157.431 Y151.829 E7.25702
G1 X157.688 Y153.780 E7.43600
G1 X157.431 Y155.732 E7.61499
G1 X156.677 Y157.550 E7.79397
G1 X155.479 Y159.112 E7.97296
G1 X153.917 Y160.310 E8.15194
G1 X152.099 Y161.064 E8.33092
G1 X150.147 Y161.320 E8.50991
G1 X148.196 Y161.064 E8.68889
G1 X146.377 Y160.310 E8.86788
G1 X144.816 Y159.112 E9.04686
G1 X143.617 Y157.550 E9.22585
G1 X142.864 Y155.732 E9.40483
G1 X142.607 Y153.780 E9.58381
G1 X142.864 Y151.829 E9.76280
G1 X143.581 Y150.097 E9.93326
G1 X144.163 Y150.325 F7800.000
G1 X145.261 Y148.894 E10.09728 F378.000
G1 X146.408 Y148.014 E10.22876
G1 X146.692 Y147.796 E10.26130
G1 X148.359 Y147.106 E10.42533
G1 X150.147 Y146.870 E10.58935
G1 X151.936 Y147.106 E10.75337
G1 X153.602 Y147.796 E10.91740
G1 X155.033 Y148.894 E11.08142
G1 X156.131 Y150.325 E11.24544
G1 X156.822 Y151.992 E11.40946
G1 X157.057 Y153.780 E11.57349
G1 X156.822 Y155.569 E11.73751
G1 X156.131 Y157.235 E11.90153
G1 X155.033 Y158.666 E12.06555
G1 X153.886 Y159.547 E12.19704
G1 X153.602 Y159.764 E12.22958
G1 X151.936 Y160.455 E12.39360
G1 X150.147 Y160.690 E12.55762
G1 X148.359 Y160.455 E12.72165
G1 X146.692 Y159.764 E12.88567
G1 X145.261 Y158.666 E13.04969
G1 X144.163 Y157.235 E13.21371
G1 X143.473 Y155.569 E13.37774
G1 X143.237 Y153.780 E13.54176
G1 X143.473 Y151.992 E13.70578
G1 X144.127 Y150.412 E13.86128
G1 X143.875 Y149.771 F7800.000
G1 X128.004 Y145.320 F7800.000
G1 X150.148 Y124.841 E16.60390 F540.000
G1 X173.358 Y146.265 E19.47602
G1 X175.681 Y149.872 E19.86615
G1 X177.008 Y152.619 E20.14356
G1 X177.435 Y154.170 E20.28983
G1 X177.624 Y156.242 E20.47903
G1 X177.624 Y165.319 E21.30434
G1 X177.442 Y166.391 E21.40319
G1 X176.446 Y168.835 E21.64319
G1 X174.663 Y171.384 E21.92603
G1 X172.454 Y173.271 E22.19022
G1 X169.186 Y174.958 E22.52465
G1 X165.348 Y175.702 E22.88012
G1 X162.874 Y175.702 E23.10510
G1 X160.428 Y175.185 E23.33245
G1 X157.456 Y174.041 E23.62195
G1 X154.761 Y172.217 E23.91786
G1 X152.677 Y170.113 E24.18714
G1 X150.293 Y165.037 E24.69711
G1 X147.449 Y170.044 E25.22073
G1 X144.998 Y172.439 E25.53231
G1 X142.686 Y174.015 E25.78673
G1 X141.008 Y174.746 E25.95318
G1 X137.378 Y175.737 E26.29532
G1 X134.766 Y175.737 E26.53284
G1 X132.016 Y175.152 E26.78842
G1 X130.064 Y174.431 E26.97767
G1 X127.799 Y173.260 E27.20955
G1 X125.399 Y171.399 E27.48571
G1 X123.087 Y167.432 E27.90316
G1 X122.376 Y165.066 E28.12778
G1 X122.376 Y156.267 E28.92788
G1 X122.994 Y153.000 E29.23025
G1 X126.785 Y146.446 E29.91870
G1 X127.935 Y145.383 E30.06107
G1 X127.579 Y144.861 F7800.000
G1 X150.148 Y123.991 E32.85618 F540.000
G1 X173.841 Y145.860 E35.78804
G1 X176.227 Y149.566 E36.18887
G1 X177.596 Y152.399 E36.47493
G1 X178.052 Y154.058 E36.63143
G1 X178.248 Y156.214 E36.82828
G1 X178.248 Y165.371 E37.66095
G1 X178.046 Y166.563 E37.77083
G1 X176.998 Y169.136 E38.02345
G1 X175.129 Y171.807 E38.31991
G1 X172.805 Y173.793 E38.59791
G1 X169.393 Y175.555 E38.94707
G1 X165.408 Y176.327 E39.31615
G1 X162.808 Y176.327 E39.55253
G1 X160.249 Y175.786 E39.79035
G1 X157.165 Y174.598 E40.09086
G1 X154.360 Y172.700 E40.39883
G1 X152.157 Y170.476 E40.68347
G1 X150.240 Y166.395 E41.09352
G1 X147.948 Y170.429 E41.51543
G1 X145.396 Y172.925 E41.84004
G1 X142.989 Y174.564 E42.10481
G1 X141.216 Y175.337 E42.28070
G1 X137.462 Y176.362 E42.63456
G1 X134.700 Y176.362 E42.88567
G1 X131.842 Y175.754 E43.15133
G1 X129.811 Y175.004 E43.34821
G1 X127.461 Y173.788 E43.58879
G1 X124.920 Y171.818 E43.88118
G1 X122.510 Y167.683 E44.31639
G1 X121.752 Y165.158 E44.55610
G1 X121.752 Y156.209 E45.36986
G1 X122.399 Y152.779 E45.68724
G1 X126.292 Y146.052 E46.39397
G1 X127.510 Y144.925 E46.54493
G1 X127.155 Y144.402 F7800.000
G1 X150.147 Y123.140 E49.39254 F378.000
G1 X174.323 Y145.454 E52.38412
G1 X176.773 Y149.260 E52.79567
G1 X178.183 Y152.178 E53.09037
G1 X178.670 Y153.946 E53.25710
G1 X178.873 Y156.186 E53.46159
G1 X178.873 Y165.424 E54.30163
G1 X178.651 Y166.735 E54.42253
G1 X177.551 Y169.436 E54.68777
G1 X175.595 Y172.230 E54.99785
G1 X173.156 Y174.315 E55.28965
G1 X169.600 Y176.151 E55.65356
G1 X165.468 Y176.952 E56.03625
G1 X162.743 Y176.952 E56.28402
G1 X160.071 Y176.387 E56.53231
G1 X156.874 Y175.156 E56.84384
G1 X153.959 Y173.184 E57.16386
G1 X151.637 Y170.839 E57.46388
G1 X150.187 Y167.752 E57.77400
G1 X148.448 Y170.814 E58.09420
G1 X145.793 Y173.410 E58.43183
G1 X143.293 Y175.114 E58.70695
G1 X141.424 Y175.928 E58.89228
G1 X137.545 Y176.987 E59.25787
G1 X134.634 Y176.987 E59.52257
G1 X131.668 Y176.356 E59.79832
G1 X129.559 Y175.577 E60.00282
G1 X127.124 Y174.317 E60.25210
G1 X124.441 Y172.238 E60.56071
G1 X121.933 Y167.934 E61.01369
G1 X121.127 Y165.250 E61.26848
G1 X121.127 Y156.150 E62.09591
G1 X121.805 Y152.558 E62.42830
G1 X125.798 Y145.657 E63.15331
G1 X127.086 Y144.466 E63.31285
G1 X127.752 Y144.587 F7800.000
G1 X142.587 Y157.798 F7800.000
G1 X129.396 Y144.607 E65.01430 F1080.000
G1 X129.856 Y144.181 E65.07151
G1 X141.960 Y156.285 E66.63273
G1 X141.735 Y155.173 E66.73619
G1 X130.317 Y143.755 E68.20893
G1 X130.777 Y143.329 E68.26614
G1 X141.600 Y154.152 E69.66214
G1 X141.617 Y153.282 E69.74149
G1 X131.238 Y142.903 E71.08024
G1 X131.698 Y142.477 E71.13745
G1 X141.720 Y152.499 E72.43009
G1 X141.823 Y151.716 E72.50215
G1 X132.159 Y142.051 E73.74870
G1 X132.619 Y141.625 E73.80591
G1 X142.051 Y151.057 E75.02241
G1 X142.311 Y150.430 E75.08429
G1 X133.080 Y141.200 E76.27488
G1 X133.541 Y140.774 E76.33209
G1 X142.570 Y149.803 E77.49677
G1 X142.891 Y149.238 E77.55608
G1 X134.001 Y140.348 E78.70273
G1 X134.462 Y139.922 E78.75994
G1 X143.276 Y148.736 E79.89682
G1 X143.661 Y148.235 E79.95448
G1 X134.922 Y139.496 E81.08161
G1 X135.383 Y139.070 E81.13882
G1 X144.045 Y147.733 E82.25618
G1 X144.540 Y147.341 E82.31373
G1 X135.843 Y138.644 E83.43546
G1 X136.304 Y138.218 E83.49267
G1 X145.041 Y146.956 E84.61969
G1 X145.543 Y146.571 E84.67735
G1 X136.764 Y137.793 E85.80966
G1 X137.225 Y137.367 E85.86687
G1 X146.093 Y146.235 E87.01075
G1 X146.720 Y145.976 E87.07263
G1 X137.685 Y136.941 E88.23796
G1 X138.146 Y136.515 E88.29517
G1 X147.347 Y145.716 E89.48194
G1 X147.986 Y145.469 E89.54446
G1 X138.606 Y136.089 E90.75432
G1 X139.067 Y135.663 E90.81153
G1 X148.770 Y145.366 E92.06302
G1 X149.553 Y145.263 E92.13508
G1 X139.527 Y135.237 E93.42820
G1 X139.988 Y134.811 E93.48541
G1 X150.393 Y145.217 E94.82754
G1 X151.414 Y145.351 E94.92145
G1 X140.448 Y134.386 E96.33585
G1 X140.909 Y133.960 E96.39306
G1 X152.465 Y145.516 E97.88364
G1 X153.979 Y146.143 F7800.000
G1 X141.370 Y133.534 E99.50999 F1080.000
G1 X141.830 Y133.108 E99.56720
G1 X176.444 Y167.722 E104.03185
G1 X176.701 Y167.092 E104.09388
G1 X142.291 Y132.682 E108.53221
G1 X142.751 Y132.256 E108.58942
G1 X176.957 Y166.462 E113.00144
G1 X177.124 Y165.743 E113.06882
G1 X143.212 Y131.830 E117.44295
G1 X143.672 Y131.404 E117.50016
G1 X177.202 Y164.934 E121.82494
G1 X177.202 Y164.048 E121.90578
G1 X144.133 Y130.979 E126.17116
G1 X144.593 Y130.553 E126.22837
G1 X177.202 Y163.161 E130.43435
G1 X177.202 Y162.275 E130.51519
G1 X145.054 Y130.127 E134.66177
G1 X145.514 Y129.701 E134.71898
G1 X177.202 Y161.388 E138.80616
G1 X177.202 Y160.502 E138.88700
G1 X145.975 Y129.275 E142.91478
G1 X146.435 Y128.849 E142.97199
G1 X177.202 Y159.616 E146.94036
G1 X177.202 Y158.729 E147.02121
G1 X146.896 Y128.423 E150.93018
G1 X147.356 Y127.997 E150.98739
G1 X177.202 Y157.843 E154.83697
G1 X177.202 Y156.956 E154.91781
G1 X147.817 Y127.571 E158.70799
G1 X148.277 Y127.146 E158.76520
G1 X177.183 Y156.051 E162.49350
G1 X177.094 Y155.076 E162.58280
G1 X148.738 Y126.720 E166.24026
G1 X149.198 Y126.294 E166.29747
G1 X176.968 Y154.064 E169.87932
G1 X176.632 Y152.841 E169.99501
G1 X149.659 Y125.868 E173.47405
G1 X150.120 Y125.442 E173.53126
G1 X175.833 Y151.155 E176.84785
G1 X174.717 Y149.153 F7800.000
G1 X160.941 Y135.378 E178.62461 F1080.000
G1 X157.785 Y149.949 F7800.000
G1 X176.188 Y168.352 E180.99826 F1080.000
G1 X175.871 Y168.922 E181.05771
G1 X158.412 Y151.462 E183.30968
G1 X158.576 Y152.513 E183.40672
G1 X175.506 Y169.443 E185.59036
G1 X175.141 Y169.964 E185.64841
G1 X158.711 Y153.534 E187.76765
G1 X158.665 Y154.375 E187.84442
G1 X174.776 Y170.486 E189.92250
G1 X174.402 Y170.999 E189.98037
G1 X158.562 Y155.158 E192.02355
G1 X158.459 Y155.941 E192.09561
G1 X173.953 Y171.435 E194.09410
G1 X173.475 Y171.844 E194.15144
G1 X158.212 Y156.581 E196.12014
G1 X157.952 Y157.208 E196.18201
G1 X172.997 Y172.252 E198.12254
G1 X172.519 Y172.661 E198.17988
G1 X157.692 Y157.834 E200.09226
G1 X157.356 Y158.385 E200.15107
G1 X172.002 Y173.030 E202.04008
G1 X171.417 Y173.332 E202.10008
G1 X156.971 Y158.886 E203.96333
G1 X156.587 Y159.388 E204.02099
G1 X170.832 Y173.634 E205.85847
G1 X170.248 Y173.935 E205.91847
G1 X156.195 Y159.882 E207.73111
G1 X155.693 Y160.267 E207.78877
G1 X169.663 Y174.237 E209.59070
G1 X169.079 Y174.539 E209.65070
G1 X155.191 Y160.652 E211.44191
G1 X154.690 Y161.037 E211.49957
G1 X168.345 Y174.692 E213.26083
G1 X167.602 Y174.835 E213.32981
G1 X154.124 Y161.357 E215.06827
G1 X153.497 Y161.617 E215.13014
G1 X166.860 Y174.979 E216.85367
G1 X166.117 Y175.123 E216.92265
G1 X152.871 Y161.877 E218.63125
G1 X152.212 Y162.104 E218.69482
G1 X165.375 Y175.267 E220.39262
G1 X164.501 Y175.280 E220.47228
G1 X151.429 Y162.207 E222.15846
G1 X150.645 Y162.310 E222.23052
G1 X163.615 Y175.280 E223.90340
G1 X162.678 Y175.230 E223.98900
G1 X149.776 Y162.327 E225.65320
G1 X148.755 Y162.193 E225.74710
G1 X161.554 Y174.992 E227.39797
G1 X160.396 Y174.721 E227.50639
G1 X147.643 Y161.967 E229.15137
G1 X146.130 Y161.341 F7800.000
G1 X149.814 Y165.025 E229.62661 F1080.000
G1 X149.493 Y165.590 E229.68591
G1 X128.935 Y145.032 E232.33754
G1 X128.475 Y145.458 E232.39475
G1 X149.172 Y166.156 E235.06436
G1 X148.851 Y166.721 E235.12366
G1 X128.014 Y145.884 E237.81126
G1 X127.560 Y146.316 E237.86844
G1 X148.530 Y167.286 E240.57327
G1 X148.209 Y167.852 E240.63257
G1 X127.116 Y146.759 E243.35314
G1 X126.776 Y147.305 E243.41182
G1 X147.888 Y168.417 E246.13493
G1 X147.567 Y168.982 E246.19422
G1 X126.451 Y147.866 E248.91782
G1 X126.126 Y148.428 E248.97699
G1 X147.246 Y169.548 E251.70107
G1 X146.850 Y170.039 E251.75857
G1 X125.801 Y148.989 E254.47361
G1 X125.476 Y149.551 E254.53278
G1 X146.402 Y170.477 E257.23190
G1 X145.954 Y170.915 E257.28907
G1 X125.151 Y150.112 E259.97229
G1 X124.826 Y150.674 E260.03146
G1 X145.506 Y171.353 E262.69877
G1 X145.058 Y171.792 E262.75594
G1 X124.501 Y151.236 E265.40734
G1 X124.177 Y151.797 E265.46651
G1 X144.588 Y172.209 E268.09925
G1 X144.061 Y172.568 E268.15744
G1 X123.852 Y152.359 E270.76409
G1 X123.527 Y152.920 E270.82325
G1 X143.534 Y172.927 E273.40380
G1 X143.006 Y173.286 E273.46199
G1 X123.311 Y153.591 E276.00236
G1 X123.170 Y154.336 E276.07156
G1 X142.479 Y173.645 E278.56205
G1 X141.861 Y173.914 E278.62347
G1 X123.029 Y155.082 E281.05248
G1 X122.889 Y155.828 E281.12169
G1 X141.244 Y174.183 E283.48922
G1 X140.596 Y174.421 E283.55220
G1 X122.798 Y156.623 E285.84781
G1 X122.798 Y157.510 E285.92866
G1 X139.900 Y174.611 E288.13446
G1 X139.203 Y174.801 E288.20029
G1 X122.798 Y158.396 E290.31628
G1 X122.798 Y159.283 E290.39712
G1 X138.507 Y174.991 E292.42330
G1 X137.811 Y175.182 E292.48913
G1 X122.798 Y160.169 E294.42550
G1 X122.798 Y161.055 E294.50634
G1 X137.058 Y175.315 E296.34562
G1 X136.171 Y175.315 E296.42646
G1 X122.798 Y161.942 E298.15140
G1 X122.798 Y162.828 E298.23225
G1 X135.285 Y175.315 E299.84286
G1 X134.288 Y175.204 E299.93439
G1 X122.798 Y163.715 E301.41634
G1 X122.798 Y164.601 E301.49719
G1 X133.162 Y174.965 E302.83394
G1 X132.012 Y174.701 E302.94155
G1 X123.006 Y165.695 E304.10321
G1 X123.386 Y166.962 E304.22388
G1 X130.606 Y174.182 E305.15515
G1 X128.884 Y173.346 F7800.000
G1 X124.421 Y168.883 E305.73081 F1080.000
G1 X125.659 Y171.008 F7800.000
G1 X125.923 Y171.271 E305.76480 F1080.000
G1 X151.584 Y166.795 F7800.000
G1 X158.955 Y174.166 E306.71549 F1080.000
