; generated by Slic3r 1.0.0RC2 on 2014-01-10 at 17:19:38

; layer_height = 0.25
; perimeters = 1
; top_solid_layers = 5
; bottom_solid_layers = 3
; fill_density = 0.2
; perimeter_speed = 30
; infill_speed = 60
; travel_speed = 130
; nozzle_diameter = 0.35
; filament_diameter = 1.75
; extrusion_multiplier = 1
; perimeters extrusion width = 0.35mm
; infill extrusion width = 0.39mm
; solid infill extrusion width = 0.39mm
; top infill extrusion width = 0.39mm
; first layer extrusion width = 0.70mm

G21 ; set units to millimeters
M107
M104 S220 ; set temperature
G28 ; home all axes
G1 Z5 F5000 ; lift nozzle

M109 S220 ; wait for temperature to be reached
G90 ; use absolute coordinates
G92 E0
M82 ; use absolute distances for extrusion
G1 F1800.000 E-1.00000
G92 E0
G1 Z0.350 F7800.000
G1 X40.100 Y23.035 F7800.000
G1 E1.00000 F1800.000
G1 X41.220 Y21.795 E1.15194 F540.000
G1 X42.740 Y20.435 E1.33740
G1 X44.060 Y19.475 E1.48581
G1 X45.560 Y18.815 E1.63482
G1 X47.500 Y18.185 E1.82030
G1 X48.700 Y17.895 E1.93255
G1 X49.930 Y17.805 E2.04469
G1 X70.130 Y17.805 E3.88147
G1 X72.110 Y17.855 E4.06157
G1 X72.770 Y17.895 E4.12169
G1 X78.690 Y18.545 E4.66323
G1 X79.630 Y18.705 E4.74994
G1 X83.260 Y19.555 E5.08894
G1 X84.280 Y19.875 E5.18614
G1 X87.490 Y21.105 E5.49872
G1 X88.630 Y21.645 E5.61342
G1 X93.050 Y24.215 E6.07833
G1 X93.740 Y24.675 E6.15374
G1 X94.390 Y25.195 E6.22943
G1 X96.380 Y27.005 E6.47403
G1 X96.940 Y27.575 E6.54669
G1 X97.450 Y28.205 E6.62039
G1 X98.650 Y29.855 E6.80591
G1 X98.980 Y30.345 E6.85963
G1 X100.210 Y32.335 E7.07235
G1 X100.830 Y33.565 E7.19760
G1 X101.220 Y34.885 E7.32276
G1 X102.060 Y38.955 E7.70064
G1 X102.220 Y40.545 E7.84595
G1 X102.060 Y42.135 E7.99126
G1 X101.220 Y46.215 E8.37003
G1 X100.820 Y47.545 E8.49632
G1 X100.200 Y48.785 E8.62238
G1 X98.970 Y50.765 E8.83433
G1 X98.650 Y51.235 E8.88603
G1 X97.450 Y52.885 E9.07155
G1 X96.650 Y53.815 E9.18310
G1 X74.290 Y76.205 E12.06038
G1 X73.810 Y76.655 E12.12021
G1 X71.900 Y78.275 E12.34794
G1 X71.350 Y78.695 E12.41087
G1 X70.760 Y79.075 E12.47468
G1 X69.000 Y80.095 E12.65965
G1 X67.970 Y80.595 E12.76376
G1 X65.920 Y81.415 E12.96453
G1 X64.890 Y81.755 E13.06316
G1 X63.810 Y81.935 E13.16271
G1 X61.780 Y82.145 E13.34829
G1 X60.970 Y82.185 E13.42203
G1 X58.880 Y82.185 E13.61207
G1 X57.650 Y82.095 E13.72421
G1 X56.450 Y81.805 E13.83647
G1 X54.510 Y81.175 E14.02194
G1 X54.000 Y80.995 E14.07112
G1 X51.960 Y80.175 E14.27104
G1 X50.830 Y79.605 E14.38612
G1 X49.810 Y78.875 E14.50018
G1 X47.900 Y77.255 E14.72791
G1 X46.220 Y75.755 E14.93270
G1 X45.620 Y75.155 E15.00986
G1 X45.090 Y74.495 E15.08683
G1 X43.400 Y72.155 E15.34929
G1 X43.000 Y71.555 E15.41486
G1 X42.670 Y70.925 E15.47953
G1 X41.190 Y67.805 E15.79353
G1 X40.360 Y65.945 E15.97874
G1 X40.010 Y65.015 E16.06909
G1 X38.970 Y61.575 E16.39587
G1 X38.750 Y60.625 E16.48454
G1 X38.100 Y56.845 E16.83330
G1 X38.000 Y55.935 E16.91654
G1 X37.790 Y51.985 E17.27622
G1 X37.780 Y29.525 E19.31850
G1 X37.940 Y27.905 E19.46652
G1 X38.440 Y26.345 E19.61548
G1 X39.260 Y24.485 E19.80032
G1 X40.053 Y23.117 E19.94417
G1 X40.600 Y23.405 F7800.000
G1 X41.640 Y22.265 E20.08448 F540.000
G1 X43.160 Y20.905 E20.26994
G1 X44.380 Y20.025 E20.40673
G1 X45.750 Y19.405 E20.54346
G1 X47.690 Y18.775 E20.72893
G1 X48.800 Y18.515 E20.83260
G1 X49.930 Y18.425 E20.93567
G1 X70.110 Y18.425 E22.77063
G1 X72.090 Y18.475 E22.95073
G1 X72.700 Y18.515 E23.00632
G1 X78.620 Y19.165 E23.54785
G1 X79.480 Y19.315 E23.62723
G1 X83.110 Y20.165 E23.96624
G1 X84.050 Y20.455 E24.05569
G1 X87.260 Y21.685 E24.36826
G1 X88.310 Y22.185 E24.47401
G1 X92.730 Y24.755 E24.93892
G1 X93.380 Y25.175 E25.00929
G1 X93.970 Y25.665 E25.07903
G1 X95.960 Y27.475 E25.32363
G1 X96.480 Y27.995 E25.39050
G1 X96.940 Y28.575 E25.45781
G1 X98.450 Y30.675 E25.69300
G1 X99.680 Y32.665 E25.90573
G1 X100.250 Y33.795 E26.02081
G1 X100.610 Y35.005 E26.13560
G1 X101.450 Y39.075 E26.51349
G1 X101.600 Y40.545 E26.64785
G1 X101.450 Y42.005 E26.78130
G1 X100.610 Y46.085 E27.16008
G1 X100.240 Y47.315 E27.27687
G1 X99.670 Y48.455 E27.39277
G1 X98.440 Y50.435 E27.60472
G1 X96.940 Y52.515 E27.83790
G1 X96.210 Y53.375 E27.94048
G1 X73.850 Y75.765 E30.81776
G1 X73.410 Y76.175 E30.87245
G1 X71.500 Y77.795 E31.10018
G1 X70.990 Y78.185 E31.15856
G1 X70.450 Y78.535 E31.21708
G1 X68.690 Y79.555 E31.40204
G1 X67.740 Y80.015 E31.49802
G1 X65.690 Y80.835 E31.69879
G1 X64.740 Y81.145 E31.78965
G1 X63.750 Y81.315 E31.88099
G1 X61.720 Y81.525 E32.06656
G1 X60.970 Y81.565 E32.13486
G1 X58.880 Y81.565 E32.32490
G1 X57.750 Y81.475 E32.42798
G1 X56.640 Y81.215 E32.53164
G1 X54.700 Y80.585 E32.71711
G1 X54.240 Y80.415 E32.76170
G1 X52.200 Y79.595 E32.96162
G1 X51.160 Y79.075 E33.06735
G1 X50.210 Y78.395 E33.17359
G1 X48.300 Y76.775 E33.40132
G1 X46.640 Y75.285 E33.60415
G1 X46.080 Y74.735 E33.67552
G1 X45.590 Y74.125 E33.74667
G1 X43.900 Y71.785 E34.00913
G1 X43.540 Y71.235 E34.06890
G1 X43.230 Y70.655 E34.12870
G1 X41.830 Y67.705 E34.42562
G1 X40.930 Y65.685 E34.62670
G1 X40.610 Y64.835 E34.70929
G1 X39.570 Y61.395 E35.03607
G1 X39.370 Y60.525 E35.11724
G1 X38.720 Y56.745 E35.46600
G1 X38.620 Y55.895 E35.54382
G1 X38.410 Y51.945 E35.90350
G1 X38.400 Y29.525 E37.94215
G1 X38.560 Y28.035 E38.07841
G1 X39.020 Y26.605 E38.21500
G1 X39.840 Y24.745 E38.39984
G1 X40.553 Y23.487 E38.53139
G1 X41.110 Y23.775 F7800.000
G1 X42.050 Y22.725 E38.65954 F540.000
G1 X43.570 Y21.365 E38.84500
G1 X44.690 Y20.565 E38.97015
G1 X45.940 Y20.005 E39.09470
G1 X47.880 Y19.375 E39.28017
G1 X48.890 Y19.135 E39.37457
G1 X49.930 Y19.055 E39.46941
G1 X70.100 Y19.055 E41.30346
G1 X72.080 Y19.105 E41.48356
G1 X72.630 Y19.135 E41.53365
G1 X78.550 Y19.785 E42.07518
G1 X79.340 Y19.925 E42.14814
G1 X82.970 Y20.775 E42.48714
G1 X83.830 Y21.035 E42.56884
G1 X87.040 Y22.265 E42.88141
G1 X88.000 Y22.725 E42.97821
G1 X92.420 Y25.295 E43.44312
G1 X93.010 Y25.685 E43.50743
G1 X93.550 Y26.125 E43.57077
G1 X95.540 Y27.935 E43.81537
G1 X96.010 Y28.415 E43.87646
G1 X96.440 Y28.935 E43.93781
G1 X97.640 Y30.585 E44.12333
G1 X97.920 Y31.005 E44.16923
G1 X99.150 Y32.995 E44.38195
G1 X99.670 Y34.025 E44.48687
G1 X100.000 Y35.135 E44.59217
G1 X100.840 Y39.205 E44.97005
G1 X100.970 Y40.545 E45.09247
G1 X100.840 Y41.885 E45.21488
G1 X100.000 Y45.965 E45.59366
G1 X99.660 Y47.075 E45.69922
G1 X99.140 Y48.125 E45.80576
G1 X97.910 Y50.105 E46.01771
G1 X97.640 Y50.505 E46.06160
G1 X96.440 Y52.155 E46.24711
G1 X95.770 Y52.935 E46.34061
G1 X73.410 Y75.325 E49.21790
G1 X73.010 Y75.695 E49.26744
G1 X71.100 Y77.315 E49.49518
G1 X70.630 Y77.675 E49.54901
G1 X70.130 Y77.995 E49.60299
G1 X68.370 Y79.015 E49.78796
G1 X67.510 Y79.435 E49.87499
G1 X65.460 Y80.255 E50.07575
G1 X64.590 Y80.535 E50.15886
G1 X63.680 Y80.695 E50.24287
G1 X61.650 Y80.905 E50.42844
G1 X60.970 Y80.935 E50.49034
G1 X58.880 Y80.935 E50.68038
G1 X57.840 Y80.855 E50.77522
G1 X56.830 Y80.615 E50.86962
G1 X54.470 Y79.835 E51.09563
G1 X52.430 Y79.015 E51.29555
G1 X51.480 Y78.535 E51.39234
G1 X50.610 Y77.915 E51.48948
G1 X48.570 Y76.185 E51.73269
G1 X47.050 Y74.825 E51.91816
G1 X46.550 Y74.315 E51.98310
G1 X46.100 Y73.765 E52.04772
G1 X44.410 Y71.425 E52.31018
G1 X44.080 Y70.915 E52.36542
G1 X43.790 Y70.385 E52.42035
G1 X42.390 Y67.435 E52.71727
G1 X41.500 Y65.435 E52.91632
G1 X41.210 Y64.655 E52.99199
G1 X40.170 Y61.215 E53.31877
G1 X39.980 Y60.415 E53.39354
G1 X39.330 Y56.635 E53.74230
G1 X39.240 Y55.865 E53.81279
G1 X39.030 Y51.915 E54.17247
G1 X39.030 Y29.525 E56.20838
G1 X39.170 Y28.155 E56.33360
G1 X39.590 Y26.855 E56.45783
G1 X40.410 Y24.995 E56.64266
G1 X41.063 Y23.857 E56.76204
G1 F1800.000 E55.76204
G92 E0
G1 X59.067 Y39.550 F7800.000
G1 E1.00000 F1800.000
G1 X60.973 Y38.931 E1.18226 F540.000
G1 X62.151 Y40.552 E1.36452
G1 X60.973 Y42.174 E1.54677
G1 X59.067 Y41.555 E1.72903
G1 X59.067 Y39.644 E1.90277
G1 X59.692 Y40.004 F7800.000
G1 X60.735 Y39.666 E2.00246 F540.000
G1 X61.379 Y40.552 E2.10215
G1 X60.735 Y41.439 E2.20184
G1 X59.692 Y41.101 E2.30153
G1 X59.692 Y40.098 E2.39270
G1 X50.088 Y26.650 F7800.000
G1 X69.883 Y26.650 E4.19261 F540.000
G1 X70.406 Y26.705 E4.24045
G1 X71.868 Y26.705 E4.37336
G1 X77.667 Y27.340 E4.90382
G1 X81.175 Y28.163 E5.23148
G1 X84.254 Y29.341 E5.53126
G1 X88.518 Y31.820 E5.97975
G1 X90.355 Y33.495 E6.20574
G1 X91.473 Y35.034 E6.37878
G1 X92.592 Y36.847 E6.57249
G1 X93.356 Y40.552 E6.91652
G1 X92.980 Y42.435 E7.09104
G1 X92.592 Y44.258 E7.26055
G1 X91.473 Y46.071 E7.45426
G1 X90.355 Y47.610 E7.62730
G1 X88.518 Y49.285 E7.85330
G1 X84.254 Y51.764 E8.30178
G1 X81.175 Y52.942 E8.60156
G1 X77.667 Y53.765 E8.92922
G1 X74.202 Y54.152 E9.24621
G1 X73.528 Y58.096 E9.61004
G1 X73.117 Y60.031 E9.78990
G1 X72.105 Y63.363 E10.10654
G1 X70.775 Y66.167 E10.38875
G1 X68.008 Y69.983 E10.81732
G1 X66.255 Y71.467 E11.02624
G1 X64.624 Y72.409 E11.19747
G1 X62.769 Y73.156 E11.37929
G1 X60.928 Y73.350 E11.54765
G1 X59.043 Y73.350 E11.71900
G1 X57.283 Y72.778 E11.88733
G1 X55.415 Y72.025 E12.07047
G1 X53.636 Y70.519 E12.28240
G1 X52.208 Y69.234 E12.45708
G1 X50.630 Y67.055 E12.70166
G1 X49.275 Y64.196 E12.98938
G1 X48.475 Y62.399 E13.16824
G1 X47.465 Y59.074 E13.48417
G1 X46.839 Y55.413 E13.82197
G1 X46.625 Y51.545 E14.17418
G1 X46.625 Y29.740 E16.15690
G1 X47.285 Y28.256 E16.30463
G1 X48.493 Y27.169 E16.45237
G1 X49.999 Y26.679 E16.59639
G1 X49.726 Y26.111 F7800.000
G1 X49.989 Y26.025 E16.62152 F378.000
G1 X69.916 Y26.025 E18.43340
G1 X70.439 Y26.080 E18.48125
G1 X71.901 Y26.080 E18.61416
G1 X77.773 Y26.723 E19.15136
G1 X81.359 Y27.564 E19.48624
G1 X84.524 Y28.775 E19.79437
G1 X88.890 Y31.314 E20.25366
G1 X90.823 Y33.076 E20.49145
G1 X91.993 Y34.686 E20.67242
G1 X93.181 Y36.611 E20.87813
G1 X93.993 Y40.552 E21.24406
G1 X93.592 Y42.561 E21.43029
G1 X93.181 Y44.494 E21.61000
G1 X91.993 Y46.419 E21.81571
G1 X90.823 Y48.029 E21.99669
G1 X88.890 Y49.791 E22.23447
G1 X84.524 Y52.330 E22.69377
G1 X81.359 Y53.541 E23.00189
G1 X77.773 Y54.382 E23.33678
G1 X74.739 Y54.721 E23.61440
G1 X74.142 Y58.214 E23.93661
G1 X73.722 Y60.187 E24.12003
G1 X72.689 Y63.589 E24.44331
G1 X71.315 Y66.487 E24.73498
G1 X68.469 Y70.411 E25.17573
G1 X66.616 Y71.980 E25.39659
G1 X64.898 Y72.972 E25.57692
G1 X62.922 Y73.768 E25.77070
G1 X60.961 Y73.975 E25.94999
G1 X58.944 Y73.975 E26.13333
G1 X57.069 Y73.365 E26.31261
G1 X55.088 Y72.567 E26.50687
G1 X53.225 Y70.990 E26.72881
G1 X51.741 Y69.654 E26.91037
G1 X50.090 Y67.375 E27.16622
G1 X48.707 Y64.457 E27.45986
G1 X47.888 Y62.618 E27.64293
G1 X46.856 Y59.218 E27.96595
G1 X46.217 Y55.483 E28.31057
G1 X46.000 Y51.562 E28.66759
G1 X46.000 Y29.607 E30.66396
G1 X46.769 Y27.880 E30.83585
G1 X48.173 Y26.615 E31.00774
G1 X49.637 Y26.140 E31.14771
G1 X61.468 Y38.895 F7800.000
G1 X76.090 Y53.517 E33.03144 F1080.000
G1 X73.559 Y55.412 F7800.000
G1 X60.664 Y42.517 E34.69275 F1080.000
G1 X61.373 Y42.341 E34.75935
G1 X73.688 Y54.656 E36.34589
G1 X73.818 Y53.900 E36.41577
G1 X61.746 Y41.828 E37.97098
G1 X62.118 Y41.316 E38.02872
G1 X74.497 Y53.695 E39.62353
G1 X75.294 Y53.606 E39.69653
G1 X62.491 Y40.803 E41.34594
G1 X81.361 Y28.685 F7800.000
G1 X92.847 Y40.171 E42.82570 F1080.000
G1 X92.826 Y41.036 E42.90446
G1 X80.144 Y28.354 E44.53823
G1 X78.988 Y28.083 E44.64645
G1 X92.675 Y41.770 E46.40972
G1 X92.523 Y42.504 E46.47799
G1 X77.831 Y27.812 E48.37076
G1 X76.804 Y27.670 E48.46523
G1 X92.372 Y43.238 E50.47085
G1 X92.220 Y43.972 E50.53912
G1 X75.810 Y27.561 E52.65332
G1 X74.816 Y27.452 E52.74443
G1 X91.915 Y44.552 E54.94737
G1 X91.577 Y45.099 E55.00598
G1 X73.821 Y27.343 E57.29347
G1 X72.827 Y27.235 E57.38458
G1 X91.239 Y45.647 E59.75662
G1 X90.879 Y46.171 E59.81462
G1 X71.834 Y27.127 E62.26812
G1 X70.949 Y27.127 E62.34877
G1 X90.506 Y46.684 E64.86834
G1 X90.134 Y47.197 E64.92608
G1 X70.026 Y27.089 E67.51656
G1 X69.123 Y27.072 E67.59881
G1 X89.694 Y47.642 E70.24890
G1 X89.231 Y48.065 E70.30599
G1 X68.238 Y27.072 E73.01048
G1 X67.353 Y27.072 E73.09113
G1 X88.768 Y48.487 E75.85003
G1 X88.304 Y48.909 E75.90712
G1 X66.467 Y27.072 E78.72042
G1 X65.582 Y27.072 E78.80107
G1 X87.752 Y49.242 E81.65731
G1 X87.193 Y49.568 E81.71630
G1 X64.697 Y27.072 E84.61448
G1 X63.811 Y27.072 E84.69513
G1 X86.633 Y49.894 E87.63525
G1 X86.073 Y50.219 E87.69424
G1 X62.926 Y27.072 E90.67630
G1 X62.041 Y27.072 E90.75695
G1 X85.513 Y50.545 E93.78094
G1 X84.953 Y50.870 E93.83994
G1 X61.155 Y27.072 E96.90587
G1 X60.270 Y27.072 E96.98653
G1 X84.393 Y51.196 E100.09440
G1 X83.799 Y51.487 E100.15468
G1 X59.384 Y27.072 E103.30007
G1 X58.499 Y27.072 E103.38073
G1 X83.159 Y51.732 E106.55768
G1 X82.519 Y51.977 E106.62014
G1 X57.614 Y27.072 E109.82866
G1 X56.728 Y27.072 E109.90931
G1 X81.878 Y52.222 E113.14938
G1 X81.238 Y52.467 E113.21184
G1 X55.843 Y27.072 E116.48347
G1 X54.958 Y27.072 E116.56413
G1 X80.543 Y52.657 E119.86031
G1 X79.826 Y52.826 E119.92741
G1 X54.072 Y27.072 E123.24526
G1 X53.187 Y27.072 E123.32591
G1 X79.109 Y52.994 E126.66542
G1 X78.391 Y53.162 E126.73253
G1 X52.302 Y27.072 E130.09371
G1 X51.416 Y27.072 E130.17436
G1 X77.674 Y53.330 E133.55721
G1 X76.887 Y53.428 E133.62951
G1 X50.531 Y27.072 E137.02495
G1 X49.770 Y27.197 E137.09514
G1 X61.040 Y38.466 E138.54694
G1 X60.371 Y38.683 E138.61095
G1 X49.102 Y27.414 E140.06274
G1 X48.517 Y27.714 E140.12265
G1 X59.703 Y38.900 E141.56375
G1 X59.035 Y39.117 E141.62775
G1 X48.053 Y28.135 E143.04258
G1 X47.610 Y28.578 E143.09961
G1 X58.645 Y39.613 E144.52128
G1 X58.645 Y40.499 E144.60193
G1 X47.333 Y29.186 E146.05933
G1 X47.060 Y29.799 E146.12042
G1 X73.430 Y56.168 E149.51762
G1 X73.300 Y56.924 E149.58750
G1 X47.046 Y30.670 E152.96982
G1 X47.046 Y31.556 E153.05047
G1 X73.171 Y57.680 E156.41613
G1 X73.027 Y58.422 E156.48496
G1 X47.046 Y32.441 E159.83211
G1 X47.046 Y33.326 E159.91276
G1 X72.872 Y59.152 E163.23992
G1 X72.717 Y59.882 E163.30792
G1 X47.046 Y34.212 E166.61509
G1 X47.046 Y35.097 E166.69575
G1 X72.514 Y60.564 E169.97673
G1 X72.307 Y61.244 E170.04139
G1 X47.046 Y35.982 E173.29581
G1 X47.046 Y36.868 E173.37646
G1 X72.101 Y61.923 E176.60431
G1 X71.895 Y62.602 E176.66896
G1 X47.046 Y37.753 E179.87024
G1 X47.046 Y38.638 E179.95089
G1 X71.681 Y63.273 E183.12455
G1 X71.396 Y63.873 E183.18510
G1 X47.046 Y39.524 E186.32207
G1 X47.046 Y40.409 E186.40272
G1 X71.111 Y64.474 E189.50301
G1 X70.826 Y65.075 E189.56356
G1 X47.046 Y41.294 E192.62717
G1 X47.046 Y42.180 E192.70782
G1 X70.542 Y65.675 E195.73475
G1 X70.210 Y66.229 E195.79353
G1 X47.046 Y43.065 E198.77769
G1 X47.046 Y43.951 E198.85834
G1 X69.837 Y66.742 E201.79455
G1 X69.465 Y67.255 E201.85230
G1 X47.046 Y44.836 E204.74056
G1 X47.046 Y45.721 E204.82121
G1 X69.093 Y67.768 E207.66153
G1 X68.721 Y68.281 E207.71928
G1 X47.046 Y46.607 E210.51166
G1 X47.046 Y47.492 E210.59231
G1 X68.349 Y68.795 E213.33674
G1 X67.977 Y69.308 E213.39449
G1 X47.046 Y48.377 E216.09097
G1 X47.046 Y49.263 E216.17162
G1 X67.565 Y69.781 E218.81504
G1 X67.098 Y70.200 E218.87215
G1 X47.046 Y50.148 E221.45550
G1 X47.046 Y51.033 E221.53615
G1 X66.619 Y70.606 E224.05773
G1 X66.140 Y71.012 E224.11495
G1 X47.069 Y51.941 E226.57185
G1 X47.121 Y52.879 E226.65737
G1 X65.600 Y71.358 E229.03808
G1 X65.039 Y71.682 E229.09712
G1 X47.173 Y53.816 E231.39883
G1 X47.225 Y54.753 E231.48435
G1 X64.478 Y72.006 E233.70705
G1 X63.851 Y72.265 E233.76879
G1 X47.322 Y55.736 E235.89828
G1 X47.505 Y56.804 E235.99698
G1 X63.220 Y72.520 E238.02163
G1 X62.569 Y72.753 E238.08471
G1 X47.687 Y57.872 E240.00185
G1 X47.870 Y58.940 E240.10055
G1 X61.767 Y72.837 E241.89095
G1 X60.966 Y72.922 E241.96433
G1 X48.249 Y60.205 E243.60268
G1 X48.635 Y61.476 E243.72373
G1 X60.087 Y72.928 E245.19910
G1 X59.202 Y72.928 E245.27975
G1 X49.148 Y62.874 E246.57499
G1 X49.883 Y64.495 F7800.000
G1 X57.935 Y72.546 E247.61225 F1080.000
G1 X56.518 Y72.015 F7800.000
G1 X50.681 Y66.178 E248.36419 F1080.000
G1 X52.407 Y68.789 F7800.000
G1 X52.970 Y69.352 E248.43671 F1080.000
G1 X82.795 Y29.234 F7800.000
G1 X92.617 Y39.056 E249.70212 F1080.000
G1 X92.387 Y37.941 E249.80587
G1 X84.303 Y29.857 E250.84734
G1 X86.419 Y31.087 F7800.000
G1 X91.964 Y36.632 E251.56175 F1080.000
G1 X90.157 Y33.940 F7800.000
G1 X89.535 Y33.318 E251.64184 F1080.000
M104 S220 ; set temperature
G1 F1800.000 E250.64184
G92 E0
