; generated by Slic3r 1.0.0RC3 on 2014-03-11 at 20:37:16

; layer_height = 0.25
; perimeters = 1
; top_solid_layers = 4
; bottom_solid_layers = 3
; fill_density = 0.15
; perimeter_speed = 30
; infill_speed = 60
; travel_speed = 130
; nozzle_diameter = 0.35
; filament_diameter = 1.75
; extrusion_multiplier = 1
; perimeters extrusion width = 0.35mm
; infill extrusion width = 0.39mm
; solid infill extrusion width = 0.39mm
; top infill extrusion width = 0.39mm
; first layer extrusion width = 0.70mm

G21 ; set units to millimeters
M107
M104 S220 ; set temperature
G28 ; home all axes
G1 Z5 F5000 ; lift nozzle

M109 S220 ; wait for temperature to be reached
G90 ; use absolute coordinates
G92 E0
M82 ; use absolute distances for extrusion
G1 F1800.000 E-1.00000
G92 E0
G1 Z0.350 F7800.000
G1 X139.260 Y64.485 F7800.000
G1 E1.00000 F1800.000
G1 X140.100 Y63.035 E1.15237 F540.000
G1 X141.220 Y61.795 E1.30431
G1 X142.740 Y60.435 E1.48977
G1 X144.060 Y59.475 E1.63818
G1 X145.560 Y58.815 E1.78720
G1 X147.500 Y58.185 E1.97267
G1 X148.700 Y57.895 E2.08493
G1 X149.930 Y57.805 E2.19707
G1 X170.130 Y57.805 E4.03385
G1 X172.110 Y57.855 E4.21394
G1 X172.770 Y57.895 E4.27407
G1 X178.690 Y58.545 E4.81561
G1 X179.630 Y58.705 E4.90231
G1 X183.260 Y59.555 E5.24131
G1 X184.280 Y59.875 E5.33852
G1 X187.490 Y61.105 E5.65110
G1 X188.630 Y61.645 E5.76580
G1 X193.050 Y64.215 E6.23071
G1 X193.740 Y64.675 E6.30611
G1 X194.390 Y65.195 E6.38180
G1 X196.380 Y67.005 E6.62641
G1 X196.940 Y67.575 E6.69906
G1 X197.450 Y68.205 E6.77277
G1 X198.650 Y69.855 E6.95828
G1 X198.980 Y70.345 E7.01200
G1 X200.210 Y72.335 E7.22473
G1 X200.830 Y73.565 E7.34997
G1 X201.220 Y74.885 E7.47513
G1 X202.060 Y78.955 E7.85301
G1 X202.220 Y80.545 E7.99832
G1 X202.060 Y82.135 E8.14363
G1 X201.220 Y86.215 E8.52240
G1 X200.820 Y87.545 E8.64869
G1 X200.200 Y88.785 E8.77475
G1 X198.970 Y90.765 E8.98671
G1 X198.650 Y91.235 E9.03841
G1 X197.450 Y92.885 E9.22392
G1 X196.650 Y93.815 E9.33547
G1 X174.290 Y116.205 E12.21276
G1 X173.810 Y116.655 E12.27259
G1 X171.900 Y118.275 E12.50032
G1 X171.350 Y118.695 E12.56324
G1 X170.760 Y119.075 E12.62706
G1 X169.000 Y120.095 E12.81203
G1 X167.970 Y120.595 E12.91614
G1 X165.920 Y121.415 E13.11690
G1 X164.890 Y121.755 E13.21553
G1 X163.810 Y121.935 E13.31509
G1 X161.780 Y122.145 E13.50066
G1 X160.970 Y122.185 E13.57440
G1 X158.880 Y122.185 E13.76445
G1 X157.650 Y122.095 E13.87659
G1 X156.450 Y121.805 E13.98884
G1 X154.000 Y120.995 E14.22348
G1 X151.960 Y120.175 E14.42340
G1 X150.830 Y119.605 E14.53849
G1 X149.810 Y118.875 E14.65254
G1 X147.900 Y117.255 E14.88027
G1 X146.220 Y115.755 E15.08506
G1 X145.620 Y115.155 E15.16222
G1 X145.090 Y114.495 E15.23919
G1 X143.400 Y112.155 E15.50165
G1 X143.000 Y111.555 E15.56722
G1 X142.670 Y110.925 E15.63189
G1 X141.270 Y107.975 E15.92881
G1 X140.360 Y105.945 E16.13110
G1 X140.010 Y105.015 E16.22145
G1 X138.970 Y101.575 E16.54823
G1 X138.750 Y100.625 E16.63690
G1 X138.100 Y96.845 E16.98566
G1 X138.000 Y95.935 E17.06890
G1 X137.790 Y91.985 E17.42858
G1 X137.780 Y69.525 E19.47086
G1 X137.940 Y67.905 E19.61888
G1 X138.440 Y66.345 E19.76784
G1 X139.222 Y64.571 E19.94415
G1 X139.840 Y64.745 F7800.000
G1 X140.600 Y63.405 E20.08423 F540.000
G1 X141.640 Y62.265 E20.22455
G1 X143.160 Y60.905 E20.41001
G1 X144.380 Y60.025 E20.54679
G1 X145.750 Y59.405 E20.68352
G1 X147.690 Y58.775 E20.86900
G1 X148.800 Y58.515 E20.97266
G1 X149.930 Y58.425 E21.07574
G1 X170.110 Y58.425 E22.91070
G1 X172.090 Y58.475 E23.09079
G1 X172.700 Y58.515 E23.14638
G1 X178.620 Y59.165 E23.68792
G1 X179.480 Y59.315 E23.76730
G1 X183.110 Y60.165 E24.10630
G1 X184.050 Y60.455 E24.19575
G1 X187.260 Y61.685 E24.50833
G1 X188.310 Y62.185 E24.61408
G1 X192.730 Y64.755 E25.07899
G1 X193.380 Y65.175 E25.14936
G1 X193.970 Y65.665 E25.21909
G1 X195.960 Y67.475 E25.46370
G1 X196.480 Y67.995 E25.53056
G1 X196.940 Y68.575 E25.59788
G1 X198.450 Y70.675 E25.83307
G1 X199.680 Y72.665 E26.04579
G1 X200.250 Y73.795 E26.16087
G1 X200.610 Y75.005 E26.27567
G1 X201.450 Y79.075 E26.65355
G1 X201.600 Y80.545 E26.78791
G1 X201.450 Y82.005 E26.92137
G1 X200.610 Y86.085 E27.30014
G1 X200.240 Y87.315 E27.41693
G1 X199.670 Y88.455 E27.53283
G1 X198.440 Y90.435 E27.74478
G1 X196.940 Y92.515 E27.97797
G1 X196.210 Y93.375 E28.08054
G1 X173.850 Y115.765 E30.95783
G1 X173.410 Y116.175 E31.01251
G1 X171.500 Y117.795 E31.24025
G1 X170.990 Y118.185 E31.29862
G1 X170.450 Y118.535 E31.35714
G1 X168.690 Y119.555 E31.54211
G1 X167.740 Y120.015 E31.63809
G1 X165.690 Y120.835 E31.83885
G1 X164.740 Y121.145 E31.92972
G1 X163.750 Y121.315 E32.02105
G1 X161.720 Y121.525 E32.20663
G1 X160.970 Y121.565 E32.27492
G1 X158.880 Y121.565 E32.46496
G1 X157.750 Y121.475 E32.56804
G1 X156.640 Y121.215 E32.67170
G1 X154.700 Y120.585 E32.85717
G1 X154.240 Y120.415 E32.90177
G1 X152.200 Y119.595 E33.10169
G1 X151.160 Y119.075 E33.20742
G1 X150.210 Y118.395 E33.31365
G1 X148.300 Y116.775 E33.54138
G1 X146.640 Y115.285 E33.74421
G1 X146.080 Y114.735 E33.81558
G1 X145.590 Y114.125 E33.88673
G1 X143.900 Y111.785 E34.14920
G1 X143.540 Y111.235 E34.20897
G1 X143.230 Y110.655 E34.26877
G1 X141.830 Y107.705 E34.56568
G1 X140.930 Y105.685 E34.76677
G1 X140.610 Y104.835 E34.84935
G1 X139.570 Y101.395 E35.17613
G1 X139.370 Y100.525 E35.25731
G1 X138.720 Y96.745 E35.60606
G1 X138.620 Y95.895 E35.68389
G1 X138.410 Y91.945 E36.04357
G1 X138.400 Y69.525 E38.08221
G1 X138.560 Y68.035 E38.21847
G1 X139.020 Y66.605 E38.35506
G1 X139.802 Y64.831 E38.53138
G1 X140.410 Y64.995 F7800.000
G1 X141.110 Y63.775 E38.65927 F540.000
G1 X142.050 Y62.725 E38.78742
G1 X143.570 Y61.365 E38.97288
G1 X144.690 Y60.565 E39.09803
G1 X145.940 Y60.005 E39.22258
G1 X147.880 Y59.375 E39.40805
G1 X148.890 Y59.135 E39.50245
G1 X149.930 Y59.055 E39.59729
G1 X170.100 Y59.055 E41.43134
G1 X172.080 Y59.105 E41.61144
G1 X172.630 Y59.135 E41.66153
G1 X178.550 Y59.785 E42.20307
G1 X179.340 Y59.925 E42.27602
G1 X182.970 Y60.775 E42.61502
G1 X183.830 Y61.035 E42.69672
G1 X187.040 Y62.265 E43.00930
G1 X188.000 Y62.725 E43.10609
G1 X192.420 Y65.295 E43.57100
G1 X193.010 Y65.685 E43.63531
G1 X193.550 Y66.125 E43.69865
G1 X195.540 Y67.935 E43.94325
G1 X196.010 Y68.415 E44.00434
G1 X196.440 Y68.935 E44.06569
G1 X197.640 Y70.585 E44.25121
G1 X197.920 Y71.005 E44.29711
G1 X199.150 Y72.995 E44.50983
G1 X199.670 Y74.025 E44.61475
G1 X200.000 Y75.135 E44.72005
G1 X200.840 Y79.205 E45.09793
G1 X200.970 Y80.545 E45.22035
G1 X200.840 Y81.885 E45.34277
G1 X200.000 Y85.965 E45.72154
G1 X199.660 Y87.075 E45.82710
G1 X199.140 Y88.125 E45.93364
G1 X197.910 Y90.105 E46.14560
G1 X197.640 Y90.505 E46.18948
G1 X196.440 Y92.155 E46.37499
G1 X195.770 Y92.935 E46.46849
G1 X173.410 Y115.325 E49.34578
G1 X173.010 Y115.695 E49.39533
G1 X171.100 Y117.315 E49.62306
G1 X170.630 Y117.675 E49.67689
G1 X170.130 Y117.995 E49.73087
G1 X168.370 Y119.015 E49.91584
G1 X167.510 Y119.435 E50.00287
G1 X165.460 Y120.255 E50.20363
G1 X164.590 Y120.535 E50.28674
G1 X163.680 Y120.695 E50.37075
G1 X161.650 Y120.905 E50.55632
G1 X160.970 Y120.935 E50.61822
G1 X158.880 Y120.935 E50.80826
G1 X157.840 Y120.855 E50.90311
G1 X156.830 Y120.615 E50.99750
G1 X154.470 Y119.835 E51.22351
G1 X152.430 Y119.015 E51.42343
G1 X151.480 Y118.535 E51.52022
G1 X150.610 Y117.915 E51.61736
G1 X148.570 Y116.185 E51.86058
G1 X147.050 Y114.825 E52.04604
G1 X146.550 Y114.315 E52.11098
G1 X146.100 Y113.765 E52.17560
G1 X144.410 Y111.425 E52.43806
G1 X144.080 Y110.915 E52.49330
G1 X143.790 Y110.385 E52.54823
G1 X142.390 Y107.435 E52.84515
G1 X141.500 Y105.435 E53.04420
G1 X141.210 Y104.655 E53.11987
G1 X140.170 Y101.215 E53.44665
G1 X139.980 Y100.415 E53.52142
G1 X139.330 Y96.635 E53.87018
G1 X139.240 Y95.865 E53.94067
G1 X139.030 Y91.915 E54.30035
G1 X139.030 Y69.525 E56.33626
G1 X139.170 Y68.155 E56.46149
G1 X139.590 Y66.855 E56.58571
G1 X140.372 Y65.081 E56.76202
G1 F1800.000 E55.76202
G92 E0
G1 X159.067 Y79.550 F7800.000
G1 E1.00000 F1800.000
G1 X160.973 Y78.931 E1.18226 F540.000
G1 X162.151 Y80.553 E1.36452
G1 X160.973 Y82.174 E1.54677
G1 X159.067 Y81.555 E1.72903
G1 X159.067 Y79.644 E1.90276
G1 X159.692 Y80.004 F7800.000
G1 X160.735 Y79.666 E2.00246 F540.000
G1 X161.379 Y80.552 E2.10215
G1 X160.735 Y81.439 E2.20184
G1 X159.692 Y81.101 E2.30153
G1 X159.692 Y80.098 E2.39270
G1 F1800.000 E1.39270
G92 E0
G1 X150.088 Y66.650 F7800.000
G1 E1.00000 F1800.000
G1 X169.883 Y66.650 E2.79990 F540.000
G1 X170.406 Y66.705 E2.84775
G1 X171.868 Y66.705 E2.98066
G1 X177.667 Y67.340 E3.51112
G1 X181.175 Y68.163 E3.83878
G1 X184.254 Y69.341 E4.13856
G1 X188.518 Y71.820 E4.58704
G1 X190.355 Y73.495 E4.81304
G1 X191.473 Y75.034 E4.98608
G1 X192.592 Y76.847 E5.17979
G1 X193.356 Y80.552 E5.52382
G1 X192.980 Y82.435 E5.69834
G1 X192.592 Y84.258 E5.86785
G1 X191.473 Y86.071 E6.06156
G1 X190.355 Y87.610 E6.23460
G1 X188.518 Y89.285 E6.46059
G1 X184.254 Y91.764 E6.90908
G1 X181.175 Y92.942 E7.20886
G1 X177.667 Y93.765 E7.53652
G1 X174.202 Y94.152 E7.85351
G1 X173.528 Y98.096 E8.21734
G1 X173.117 Y100.031 E8.39719
G1 X172.105 Y103.363 E8.71384
G1 X170.775 Y106.167 E8.99605
G1 X168.008 Y109.983 E9.42462
G1 X166.255 Y111.467 E9.63353
G1 X164.624 Y112.409 E9.80476
G1 X162.769 Y113.156 E9.98659
G1 X160.928 Y113.350 E10.15495
G1 X159.043 Y113.350 E10.32630
G1 X157.283 Y112.778 E10.49463
G1 X155.415 Y112.025 E10.67777
G1 X153.636 Y110.519 E10.88970
G1 X152.208 Y109.234 E11.06437
G1 X150.630 Y107.055 E11.30896
G1 X149.275 Y104.196 E11.59668
G1 X148.475 Y102.399 E11.77554
G1 X147.465 Y99.074 E12.09147
G1 X146.839 Y95.413 E12.42927
G1 X146.625 Y91.545 E12.78148
G1 X146.625 Y69.740 E14.76420
G1 X147.285 Y68.256 E14.91193
G1 X148.493 Y67.169 E15.05967
G1 X149.999 Y66.679 E15.20369
G1 X149.726 Y66.111 F7800.000
G1 X149.989 Y66.025 E15.22882 F378.000
G1 X169.916 Y66.025 E17.04070
G1 X170.439 Y66.080 E17.08855
G1 X171.901 Y66.080 E17.22146
G1 X177.773 Y66.723 E17.75865
G1 X181.359 Y67.564 E18.09354
G1 X184.524 Y68.775 E18.40167
G1 X188.890 Y71.314 E18.86096
G1 X190.823 Y73.076 E19.09874
G1 X191.993 Y74.686 E19.27972
G1 X193.181 Y76.611 E19.48543
G1 X193.993 Y80.552 E19.85136
G1 X193.592 Y82.561 E20.03759
G1 X193.181 Y84.494 E20.21730
G1 X191.993 Y86.419 E20.42301
G1 X190.823 Y88.029 E20.60398
G1 X188.890 Y89.791 E20.84177
G1 X184.524 Y92.330 E21.30106
G1 X181.359 Y93.541 E21.60919
G1 X177.773 Y94.382 E21.94407
G1 X174.739 Y94.721 E22.22170
G1 X174.142 Y98.214 E22.54391
G1 X173.722 Y100.187 E22.72733
G1 X172.689 Y103.589 E23.05061
G1 X171.315 Y106.487 E23.34228
G1 X168.469 Y110.411 E23.78302
G1 X166.616 Y111.980 E24.00389
G1 X164.898 Y112.972 E24.18422
G1 X162.922 Y113.768 E24.37800
G1 X160.961 Y113.975 E24.55729
G1 X158.944 Y113.975 E24.74063
G1 X157.069 Y113.365 E24.91991
G1 X155.088 Y112.567 E25.11417
G1 X153.225 Y110.990 E25.33611
G1 X151.741 Y109.654 E25.51767
G1 X150.090 Y107.375 E25.77352
G1 X148.707 Y104.457 E26.06716
G1 X147.888 Y102.618 E26.25023
G1 X146.856 Y99.218 E26.57325
G1 X146.217 Y95.483 E26.91786
G1 X146.000 Y91.562 E27.27489
G1 X146.000 Y69.607 E29.27126
G1 X146.769 Y67.880 E29.44315
G1 X148.173 Y66.615 E29.61504
G1 X149.637 Y66.140 E29.75500
G1 F1800.000 E28.75500
G92 E0
G1 X161.565 Y78.991 F7800.000
G1 E1.00000 F1800.000
G1 X176.071 Y93.497 E2.86884 F1080.000
G1 X173.540 Y95.394 F7800.000
G1 X160.697 Y82.550 E4.52350 F1080.000
G1 X161.388 Y82.356 E4.58894
G1 X173.670 Y94.638 E6.17114
G1 X173.799 Y93.882 E6.24102
G1 X161.761 Y81.844 E7.79188
G1 X162.134 Y81.331 E7.84962
G1 X174.478 Y93.675 E9.43998
G1 X175.275 Y93.586 E9.51298
G1 X162.506 Y80.818 E11.15795
G1 F1800.000 E10.15795
G92 E0
G1 X181.398 Y68.722 F7800.000
G1 E1.00000 F1800.000
G1 X192.820 Y80.144 E2.47147 F1080.000
G1 X192.808 Y81.018 E2.55107
G1 X180.173 Y68.383 E4.17883
G1 X179.016 Y68.112 E4.28705
G1 X192.657 Y81.752 E6.04432
G1 X192.505 Y82.486 E6.11259
G1 X177.860 Y67.840 E7.99936
G1 X176.828 Y67.694 E8.09429
G1 X192.354 Y83.220 E10.09449
G1 X192.202 Y83.954 E10.16276
G1 X175.834 Y67.585 E12.27153
G1 X174.840 Y67.476 E12.36264
G1 X191.900 Y84.536 E14.56049
G1 X191.562 Y85.084 E14.61909
G1 X173.846 Y67.367 E16.90149
G1 X172.851 Y67.259 E16.99260
G1 X191.224 Y85.631 E19.35955
G1 X190.864 Y86.156 E19.41755
G1 X171.857 Y67.150 E21.86616
G1 X170.970 Y67.148 E21.94694
G1 X190.491 Y86.669 E24.46180
G1 X190.118 Y87.182 E24.51954
G1 X170.050 Y67.113 E27.10497
G1 X169.145 Y67.093 E27.18746
G1 X189.679 Y87.627 E29.83287
G1 X189.216 Y88.050 E29.88996
G1 X168.259 Y67.093 E32.58976
G1 X167.374 Y67.093 E32.67042
G1 X188.752 Y88.472 E35.42462
G1 X188.289 Y88.894 E35.48172
G1 X166.489 Y67.093 E38.29032
G1 X165.603 Y67.093 E38.37098
G1 X187.737 Y89.227 E41.22246
G1 X187.177 Y89.552 E41.28146
G1 X164.718 Y67.093 E44.17488
G1 X163.833 Y67.093 E44.25554
G1 X186.617 Y89.878 E47.19090
G1 X186.057 Y90.204 E47.24989
G1 X162.947 Y67.093 E50.22720
G1 X162.062 Y67.093 E50.30785
G1 X185.498 Y90.529 E53.32710
G1 X184.938 Y90.855 E53.38609
G1 X161.176 Y67.093 E56.44727
G1 X160.291 Y67.093 E56.52793
G1 X184.378 Y91.180 E59.63105
G1 X183.783 Y91.470 E59.69136
G1 X159.406 Y67.093 E62.83189
G1 X158.520 Y67.093 E62.91254
G1 X183.142 Y91.715 E66.08463
G1 X182.502 Y91.960 E66.14709
G1 X157.635 Y67.093 E69.35073
G1 X156.750 Y67.093 E69.43139
G1 X181.862 Y92.205 E72.66659
G1 X181.221 Y92.450 E72.72905
G1 X155.864 Y67.093 E75.99581
G1 X154.979 Y67.093 E76.07646
G1 X180.525 Y92.640 E79.36762
G1 X179.808 Y92.808 E79.43472
G1 X154.094 Y67.093 E82.74754
G1 X153.208 Y67.093 E82.82819
G1 X179.091 Y92.976 E86.16268
G1 X178.374 Y93.144 E86.22978
G1 X152.323 Y67.093 E89.58594
G1 X151.438 Y67.093 E89.66659
G1 X177.657 Y93.312 E93.04441
G1 X176.867 Y93.409 E93.11684
G1 X150.552 Y67.093 E96.50704
G1 X149.787 Y67.214 E96.57757
G1 X161.023 Y78.449 E98.02501
G1 X160.354 Y78.666 E98.08902
G1 X149.119 Y67.431 E99.53646
G1 X148.532 Y67.729 E99.59644
G1 X159.686 Y78.883 E101.03341
G1 X159.018 Y79.100 E101.09742
G1 X148.066 Y68.149 E102.50832
G1 X147.622 Y68.590 E102.56535
G1 X158.624 Y79.592 E103.98279
G1 X158.624 Y80.477 E104.06345
G1 X147.349 Y69.202 E105.51602
G1 X147.076 Y69.815 E105.57711
G1 X173.411 Y96.150 E108.96985
G1 X173.282 Y96.906 E109.03973
G1 X147.068 Y70.692 E112.41693
G1 X147.068 Y71.577 E112.49758
G1 X173.152 Y97.662 E115.85812
G1 X173.009 Y98.404 E115.92698
G1 X147.068 Y72.462 E119.26907
G1 X147.068 Y73.348 E119.34973
G1 X172.854 Y99.134 E122.67183
G1 X172.699 Y99.864 E122.73983
G1 X147.068 Y74.233 E126.04194
G1 X147.068 Y75.118 E126.12260
G1 X172.497 Y100.547 E129.39864
G1 X172.290 Y101.226 E129.46329
G1 X147.068 Y76.004 E132.71277
G1 X147.068 Y76.889 E132.79342
G1 X172.084 Y101.906 E136.01632
G1 X171.878 Y102.585 E136.08098
G1 X147.068 Y77.774 E139.27731
G1 X147.068 Y78.660 E139.35796
G1 X171.665 Y103.257 E142.52681
G1 X171.380 Y103.857 E142.58736
G1 X147.068 Y79.545 E145.71953
G1 X147.068 Y80.430 E145.80019
G1 X171.095 Y104.458 E148.89567
G1 X170.810 Y105.059 E148.95622
G1 X147.068 Y81.316 E152.01502
G1 X147.068 Y82.201 E152.09568
G1 X170.526 Y105.659 E155.11779
G1 X170.194 Y106.213 E155.17660
G1 X147.068 Y83.087 E158.15605
G1 X147.068 Y83.972 E158.23670
G1 X169.822 Y106.727 E161.16820
G1 X169.450 Y107.240 E161.22595
G1 X147.068 Y84.857 E164.10950
G1 X147.068 Y85.743 E164.19016
G1 X169.078 Y107.753 E167.02577
G1 X168.706 Y108.266 E167.08352
G1 X147.068 Y86.628 E169.87118
G1 X147.068 Y87.513 E169.95183
G1 X168.334 Y108.779 E172.69155
G1 X167.961 Y109.293 E172.74930
G1 X147.068 Y88.399 E175.44108
G1 X147.068 Y89.284 E175.52173
G1 X167.563 Y109.779 E178.16215
G1 X167.083 Y110.185 E178.21938
G1 X147.068 Y90.169 E180.79803
G1 X147.068 Y91.055 E180.87868
G1 X166.604 Y110.591 E183.39557
G1 X166.124 Y110.997 E183.45280
G1 X147.091 Y91.964 E185.90483
G1 X147.143 Y92.901 E185.99035
G1 X165.585 Y111.343 E188.36615
G1 X165.023 Y111.667 E188.42519
G1 X147.195 Y93.839 E190.72198
G1 X147.247 Y94.776 E190.80750
G1 X164.462 Y111.991 E193.02528
G1 X163.835 Y112.249 E193.08706
G1 X147.348 Y95.762 E195.21108
G1 X147.531 Y96.830 E195.30978
G1 X163.204 Y112.503 E197.32896
G1 X162.549 Y112.734 E197.39221
G1 X147.714 Y97.898 E199.30349
G1 X147.896 Y98.966 E199.40220
G1 X161.748 Y112.818 E201.18674
