; generated by Slic3r 1.0.0RC2 on 2014-01-10 at 19:28:20

; layer_height = 0.25
; perimeters = 1
; top_solid_layers = 5
; bottom_solid_layers = 3
; fill_density = 0.15
; perimeter_speed = 30
; infill_speed = 60
; travel_speed = 130
; nozzle_diameter = 0.35
; filament_diameter = 1.75
; extrusion_multiplier = 1
; perimeters extrusion width = 0.35mm
; infill extrusion width = 0.39mm
; solid infill extrusion width = 0.39mm
; top infill extrusion width = 0.39mm
; first layer extrusion width = 0.70mm

G21 ; set units to millimeters
M107
M104 S220 ; set temperature
G28 ; home all axes
G1 Z5 F5000 ; lift nozzle

M109 S220 ; wait for temperature to be reached
G90 ; use absolute coordinates
G92 E0
M82 ; use absolute distances for extrusion
G1 F1800.000 E-1.00000
G92 E0
G1 Z0.350 F7800.000
G1 X40.600 Y23.405 F7800.000
G1 E1.00000 F1800.000
G1 X41.640 Y22.265 E1.14031 F540.000
G1 X43.160 Y20.905 E1.32578
G1 X44.380 Y20.025 E1.46256
G1 X45.750 Y19.405 E1.59929
G1 X47.690 Y18.775 E1.78477
G1 X48.800 Y18.515 E1.88843
G1 X49.930 Y18.425 E1.99150
G1 X70.110 Y18.425 E3.82646
G1 X72.090 Y18.475 E4.00656
G1 X72.700 Y18.515 E4.06215
G1 X78.620 Y19.165 E4.60369
G1 X79.480 Y19.315 E4.68307
G1 X83.110 Y20.165 E5.02207
G1 X84.050 Y20.455 E5.11152
G1 X87.260 Y21.685 E5.42410
G1 X88.310 Y22.185 E5.52984
G1 X92.730 Y24.755 E5.99475
G1 X93.380 Y25.175 E6.06512
G1 X93.970 Y25.665 E6.13486
G1 X95.960 Y27.475 E6.37946
G1 X96.480 Y27.995 E6.44633
G1 X96.940 Y28.575 E6.51364
G1 X98.450 Y30.675 E6.74884
G1 X99.680 Y32.665 E6.96156
G1 X100.250 Y33.795 E7.07664
G1 X100.610 Y35.005 E7.19143
G1 X101.450 Y39.075 E7.56932
G1 X101.600 Y40.545 E7.70368
G1 X101.450 Y42.005 E7.83713
G1 X100.610 Y46.085 E8.21591
G1 X100.240 Y47.315 E8.33270
G1 X99.670 Y48.455 E8.44860
G1 X98.440 Y50.435 E8.66055
G1 X96.940 Y52.515 E8.89373
G1 X96.210 Y53.375 E8.99631
G1 X73.850 Y75.765 E11.87359
G1 X73.410 Y76.175 E11.92828
G1 X71.500 Y77.795 E12.15601
G1 X70.990 Y78.185 E12.21439
G1 X70.450 Y78.535 E12.27291
G1 X68.690 Y79.555 E12.45788
G1 X67.740 Y80.015 E12.55385
G1 X65.690 Y80.835 E12.75462
G1 X64.740 Y81.145 E12.84548
G1 X63.750 Y81.315 E12.93682
G1 X61.720 Y81.525 E13.12239
G1 X60.970 Y81.565 E13.19069
G1 X58.880 Y81.565 E13.38073
G1 X57.750 Y81.475 E13.48381
G1 X56.640 Y81.215 E13.58747
G1 X54.700 Y80.585 E13.77294
G1 X54.240 Y80.415 E13.81754
G1 X52.200 Y79.595 E14.01746
G1 X51.160 Y79.075 E14.12319
G1 X50.210 Y78.395 E14.22942
G1 X48.300 Y76.775 E14.45715
G1 X46.640 Y75.285 E14.65998
G1 X46.080 Y74.735 E14.73135
G1 X45.590 Y74.125 E14.80250
G1 X43.900 Y71.785 E15.06496
G1 X43.540 Y71.235 E15.12474
G1 X43.230 Y70.655 E15.18454
G1 X41.830 Y67.705 E15.48145
G1 X40.930 Y65.685 E15.68254
G1 X40.610 Y64.835 E15.76512
G1 X39.570 Y61.395 E16.09190
G1 X39.370 Y60.525 E16.17307
G1 X38.720 Y56.745 E16.52183
G1 X38.620 Y55.895 E16.59966
G1 X38.410 Y51.945 E16.95934
G1 X38.400 Y29.525 E18.99798
G1 X38.560 Y28.035 E19.13424
G1 X39.020 Y26.605 E19.27083
G1 X39.840 Y24.745 E19.45567
G1 X40.553 Y23.487 E19.58722
G1 X41.110 Y23.775 F7800.000
G1 X42.050 Y22.725 E19.71537 F540.000
G1 X43.570 Y21.365 E19.90083
G1 X44.690 Y20.565 E20.02598
G1 X45.940 Y20.005 E20.15053
G1 X47.880 Y19.375 E20.33600
G1 X48.890 Y19.135 E20.43040
G1 X49.930 Y19.055 E20.52524
G1 X70.100 Y19.055 E22.35929
G1 X72.080 Y19.105 E22.53939
G1 X72.630 Y19.135 E22.58948
G1 X78.550 Y19.785 E23.13102
G1 X79.340 Y19.925 E23.20397
G1 X82.970 Y20.775 E23.54297
G1 X83.830 Y21.035 E23.62467
G1 X87.040 Y22.265 E23.93725
G1 X88.000 Y22.725 E24.03404
G1 X92.420 Y25.295 E24.49895
G1 X93.010 Y25.685 E24.56326
G1 X93.550 Y26.125 E24.62660
G1 X95.540 Y27.935 E24.87120
G1 X96.010 Y28.415 E24.93229
G1 X96.440 Y28.935 E24.99364
G1 X97.640 Y30.585 E25.17916
G1 X97.920 Y31.005 E25.22506
G1 X99.150 Y32.995 E25.43778
G1 X99.670 Y34.025 E25.54270
G1 X100.000 Y35.135 E25.64800
G1 X100.840 Y39.205 E26.02588
G1 X100.970 Y40.545 E26.14830
G1 X100.840 Y41.885 E26.27072
G1 X100.000 Y45.965 E26.64949
G1 X99.660 Y47.075 E26.75505
G1 X99.140 Y48.125 E26.86159
G1 X97.910 Y50.105 E27.07355
G1 X97.640 Y50.505 E27.11743
G1 X96.440 Y52.155 E27.30294
G1 X95.770 Y52.935 E27.39644
G1 X73.410 Y75.325 E30.27373
G1 X73.010 Y75.695 E30.32328
G1 X71.100 Y77.315 E30.55101
G1 X70.630 Y77.675 E30.60484
G1 X70.130 Y77.995 E30.65882
G1 X68.370 Y79.015 E30.84379
G1 X67.510 Y79.435 E30.93082
G1 X65.460 Y80.255 E31.13158
G1 X64.590 Y80.535 E31.21469
G1 X63.680 Y80.695 E31.29870
G1 X61.650 Y80.905 E31.48427
G1 X60.970 Y80.935 E31.54617
G1 X58.880 Y80.935 E31.73621
G1 X57.840 Y80.855 E31.83106
G1 X56.830 Y80.615 E31.92545
G1 X54.470 Y79.835 E32.15146
G1 X52.430 Y79.015 E32.35138
G1 X51.480 Y78.535 E32.44817
G1 X50.610 Y77.915 E32.54531
G1 X48.570 Y76.185 E32.78853
G1 X47.050 Y74.825 E32.97399
G1 X46.550 Y74.315 E33.03893
G1 X46.100 Y73.765 E33.10355
G1 X44.410 Y71.425 E33.36601
G1 X44.080 Y70.915 E33.42125
G1 X43.790 Y70.385 E33.47618
G1 X42.390 Y67.435 E33.77310
G1 X41.500 Y65.435 E33.97215
G1 X41.210 Y64.655 E34.04782
G1 X40.170 Y61.215 E34.37460
G1 X39.980 Y60.415 E34.44937
G1 X39.330 Y56.635 E34.79813
G1 X39.240 Y55.865 E34.86862
G1 X39.030 Y51.915 E35.22830
G1 X39.030 Y29.525 E37.26421
G1 X39.170 Y28.155 E37.38943
G1 X39.590 Y26.855 E37.51366
G1 X40.410 Y24.995 E37.69850
G1 X41.063 Y23.857 E37.81787
G1 F1800.000 E36.81787
G92 E0
G1 X59.067 Y39.550 F7800.000
G1 E1.00000 F1800.000
G1 X60.973 Y38.931 E1.18226 F540.000
G1 X62.151 Y40.553 E1.36452
G1 X60.973 Y42.174 E1.54677
G1 X59.067 Y41.555 E1.72903
G1 X59.067 Y39.644 E1.90276
G1 X59.692 Y40.004 F7800.000
G1 X60.735 Y39.666 E2.00246 F540.000
G1 X61.379 Y40.552 E2.10215
G1 X60.735 Y41.439 E2.20184
G1 X59.692 Y41.101 E2.30153
G1 X59.692 Y40.098 E2.39270
G1 F1800.000 E1.39270
G92 E0
G1 X50.088 Y26.650 F7800.000
G1 E1.00000 F1800.000
G1 X69.883 Y26.650 E2.79990 F540.000
G1 X70.406 Y26.705 E2.84775
G1 X71.868 Y26.705 E2.98066
G1 X77.667 Y27.340 E3.51112
G1 X81.175 Y28.163 E3.83878
G1 X84.254 Y29.341 E4.13856
G1 X88.518 Y31.820 E4.58704
G1 X90.355 Y33.495 E4.81304
G1 X91.473 Y35.034 E4.98608
G1 X92.592 Y36.847 E5.17979
G1 X93.356 Y40.552 E5.52382
G1 X92.980 Y42.435 E5.69834
G1 X92.592 Y44.258 E5.86785
G1 X91.473 Y46.071 E6.06156
G1 X90.355 Y47.610 E6.23460
G1 X88.518 Y49.285 E6.46059
G1 X84.254 Y51.764 E6.90908
G1 X81.175 Y52.942 E7.20886
G1 X77.667 Y53.765 E7.53652
G1 X74.202 Y54.152 E7.85351
G1 X73.528 Y58.096 E8.21734
G1 X73.117 Y60.031 E8.39719
G1 X72.105 Y63.363 E8.71384
G1 X70.775 Y66.167 E8.99605
G1 X68.008 Y69.983 E9.42462
G1 X66.255 Y71.467 E9.63353
G1 X64.624 Y72.409 E9.80476
G1 X62.769 Y73.156 E9.98659
G1 X60.928 Y73.350 E10.15495
G1 X59.043 Y73.350 E10.32630
G1 X57.283 Y72.778 E10.49463
G1 X55.415 Y72.025 E10.67777
G1 X53.636 Y70.519 E10.88970
G1 X52.208 Y69.234 E11.06437
G1 X50.630 Y67.055 E11.30896
G1 X49.275 Y64.196 E11.59668
G1 X48.475 Y62.399 E11.77554
G1 X47.465 Y59.074 E12.09147
G1 X46.839 Y55.413 E12.42927
G1 X46.625 Y51.545 E12.78148
G1 X46.625 Y29.740 E14.76420
G1 X47.285 Y28.256 E14.91193
G1 X48.493 Y27.169 E15.05967
G1 X49.999 Y26.679 E15.20369
G1 X49.726 Y26.111 F7800.000
G1 X49.989 Y26.025 E15.22882 F378.000
G1 X69.916 Y26.025 E17.04070
G1 X70.439 Y26.080 E17.08855
G1 X71.901 Y26.080 E17.22146
G1 X77.773 Y26.723 E17.75865
G1 X81.359 Y27.564 E18.09354
G1 X84.524 Y28.775 E18.40167
G1 X88.890 Y31.314 E18.86096
G1 X90.823 Y33.076 E19.09874
G1 X91.993 Y34.686 E19.27972
G1 X93.181 Y36.611 E19.48543
G1 X93.993 Y40.552 E19.85136
G1 X93.592 Y42.561 E20.03759
G1 X93.181 Y44.494 E20.21730
G1 X91.993 Y46.419 E20.42301
G1 X90.823 Y48.029 E20.60398
G1 X88.890 Y49.791 E20.84177
G1 X84.524 Y52.330 E21.30106
G1 X81.359 Y53.541 E21.60919
G1 X77.773 Y54.382 E21.94407
G1 X74.739 Y54.721 E22.22170
G1 X74.142 Y58.214 E22.54391
G1 X73.722 Y60.187 E22.72733
G1 X72.689 Y63.589 E23.05061
G1 X71.315 Y66.487 E23.34228
G1 X68.469 Y70.411 E23.78302
G1 X66.616 Y71.980 E24.00389
G1 X64.898 Y72.972 E24.18422
G1 X62.922 Y73.768 E24.37800
G1 X60.961 Y73.975 E24.55729
G1 X58.944 Y73.975 E24.74063
G1 X57.069 Y73.365 E24.91991
G1 X55.088 Y72.567 E25.11417
G1 X53.225 Y70.990 E25.33611
G1 X51.741 Y69.654 E25.51767
G1 X50.090 Y67.375 E25.77352
G1 X48.707 Y64.457 E26.06716
G1 X47.888 Y62.618 E26.25023
G1 X46.856 Y59.218 E26.57325
G1 X46.217 Y55.483 E26.91786
G1 X46.000 Y51.562 E27.27489
G1 X46.000 Y29.607 E29.27126
G1 X46.769 Y27.880 E29.44315
G1 X48.173 Y26.615 E29.61504
G1 X49.637 Y26.140 E29.75500
G1 F1800.000 E28.75500
G92 E0
G1 X61.468 Y38.895 F7800.000
G1 E1.00000 F1800.000
G1 X76.090 Y53.517 E2.88373 F1080.000
G1 X73.559 Y55.412 F7800.000
G1 X60.664 Y42.517 E4.54504 F1080.000
G1 X61.373 Y42.341 E4.61164
G1 X73.688 Y54.656 E6.19819
G1 X73.818 Y53.900 E6.26806
G1 X61.746 Y41.828 E7.82327
G1 X62.118 Y41.316 E7.88101
G1 X74.497 Y53.695 E9.47582
G1 X75.294 Y53.606 E9.54882
G1 X62.491 Y40.803 E11.19823
G1 F1800.000 E10.19823
G92 E0
G1 X81.361 Y28.685 F7800.000
G1 E1.00000 F1800.000
G1 X92.847 Y40.171 E2.47976 F1080.000
G1 X92.826 Y41.036 E2.55852
G1 X80.144 Y28.354 E4.19229
G1 X78.988 Y28.083 E4.30051
G1 X92.675 Y41.770 E6.06378
G1 X92.523 Y42.504 E6.13205
G1 X77.831 Y27.812 E8.02482
G1 X76.804 Y27.670 E8.11929
G1 X92.372 Y43.238 E10.12491
G1 X92.220 Y43.972 E10.19318
G1 X75.810 Y27.561 E12.30738
G1 X74.816 Y27.452 E12.39849
G1 X91.915 Y44.552 E14.60143
G1 X91.577 Y45.099 E14.66004
G1 X73.821 Y27.343 E16.94753
G1 X72.827 Y27.235 E17.03864
G1 X91.239 Y45.647 E19.41068
G1 X90.879 Y46.171 E19.46868
G1 X71.834 Y27.127 E21.92218
G1 X70.949 Y27.127 E22.00284
G1 X90.506 Y46.684 E24.52240
G1 X90.134 Y47.197 E24.58014
G1 X70.026 Y27.089 E27.17062
G1 X69.123 Y27.072 E27.25287
G1 X89.694 Y47.642 E29.90296
G1 X89.231 Y48.065 E29.96005
G1 X68.238 Y27.072 E32.66454
G1 X67.353 Y27.072 E32.74520
G1 X88.768 Y48.487 E35.50409
G1 X88.304 Y48.909 E35.56118
G1 X66.467 Y27.072 E38.37448
G1 X65.582 Y27.072 E38.45513
G1 X87.752 Y49.242 E41.31137
G1 X87.193 Y49.568 E41.37036
G1 X64.697 Y27.072 E44.26854
G1 X63.811 Y27.072 E44.34919
G1 X86.633 Y49.894 E47.28931
G1 X86.073 Y50.219 E47.34830
G1 X62.926 Y27.072 E50.33036
G1 X62.041 Y27.072 E50.41101
G1 X85.513 Y50.545 E53.43501
G1 X84.953 Y50.870 E53.49400
G1 X61.155 Y27.072 E56.55993
G1 X60.270 Y27.072 E56.64059
G1 X84.393 Y51.196 E59.74846
G1 X83.799 Y51.487 E59.80874
G1 X59.384 Y27.072 E62.95413
G1 X58.499 Y27.072 E63.03479
G1 X83.159 Y51.732 E66.21174
G1 X82.519 Y51.977 E66.27420
G1 X57.614 Y27.072 E69.48272
G1 X56.728 Y27.072 E69.56337
G1 X81.878 Y52.222 E72.80344
G1 X81.238 Y52.467 E72.86590
G1 X55.843 Y27.072 E76.13753
G1 X54.958 Y27.072 E76.21819
G1 X80.543 Y52.657 E79.51437
G1 X79.826 Y52.826 E79.58147
G1 X54.072 Y27.072 E82.89932
G1 X53.187 Y27.072 E82.97997
G1 X79.109 Y52.994 E86.31949
G1 X78.391 Y53.162 E86.38659
G1 X52.302 Y27.072 E89.74777
G1 X51.416 Y27.072 E89.82842
G1 X77.674 Y53.330 E93.21127
G1 X76.887 Y53.428 E93.28357
G1 X50.531 Y27.072 E96.67901
G1 X49.770 Y27.197 E96.74921
G1 X61.040 Y38.466 E98.20100
G1 X60.371 Y38.683 E98.26501
G1 X49.102 Y27.414 E99.71680
G1 X48.517 Y27.714 E99.77671
G1 X59.703 Y38.900 E101.21781
G1 X59.035 Y39.117 E101.28181
G1 X48.053 Y28.135 E102.69664
G1 X47.610 Y28.578 E102.75367
G1 X58.645 Y39.613 E104.17534
G1 X58.645 Y40.499 E104.25600
G1 X47.333 Y29.186 E105.71339
G1 X47.060 Y29.799 E105.77448
G1 X73.430 Y56.168 E109.17168
G1 X73.300 Y56.924 E109.24156
G1 X47.046 Y30.670 E112.62388
G1 X47.046 Y31.556 E112.70453
G1 X73.171 Y57.680 E116.07020
G1 X73.027 Y58.422 E116.13902
G1 X47.046 Y32.441 E119.48617
G1 X47.046 Y33.326 E119.56682
G1 X72.872 Y59.152 E122.89398
G1 X72.717 Y59.882 E122.96199
G1 X47.046 Y34.212 E126.26916
G1 X47.046 Y35.097 E126.34981
G1 X72.514 Y60.564 E129.63080
G1 X72.307 Y61.244 E129.69545
G1 X47.046 Y35.982 E132.94987
G1 X47.046 Y36.868 E133.03052
G1 X72.101 Y61.923 E136.25837
G1 X71.895 Y62.602 E136.32302
G1 X47.046 Y37.753 E139.52430
G1 X47.046 Y38.638 E139.60495
G1 X71.681 Y63.273 E142.77861
G1 X71.396 Y63.873 E142.83916
G1 X47.046 Y39.524 E145.97613
G1 X47.046 Y40.409 E146.05678
G1 X71.111 Y64.474 E149.15707
G1 X70.826 Y65.075 E149.21762
G1 X47.046 Y41.294 E152.28123
G1 X47.046 Y42.180 E152.36188
G1 X70.542 Y65.675 E155.38881
G1 X70.210 Y66.229 E155.44759
G1 X47.046 Y43.065 E158.43175
G1 X47.046 Y43.951 E158.51240
G1 X69.837 Y66.742 E161.44861
G1 X69.465 Y67.255 E161.50636
G1 X47.046 Y44.836 E164.39462
G1 X47.046 Y45.721 E164.47527
G1 X69.093 Y67.768 E167.31559
G1 X68.721 Y68.281 E167.37334
G1 X47.046 Y46.607 E170.16572
G1 X47.046 Y47.492 E170.24637
G1 X68.349 Y68.795 E172.99080
G1 X67.977 Y69.308 E173.04855
G1 X47.046 Y48.377 E175.74503
G1 X47.046 Y49.263 E175.82568
G1 X67.565 Y69.781 E178.46910
G1 X67.098 Y70.200 E178.52621
G1 X47.046 Y50.148 E181.10956
G1 X47.046 Y51.033 E181.19021
G1 X66.619 Y70.606 E183.71179
G1 X66.140 Y71.012 E183.76901
G1 X47.069 Y51.941 E186.22591
G1 X47.121 Y52.879 E186.31143
G1 X65.600 Y71.358 E188.69214
G1 X65.039 Y71.682 E188.75119
G1 X47.173 Y53.816 E191.05289
G1 X47.225 Y54.753 E191.13841
G1 X64.478 Y72.006 E193.36112
G1 X63.851 Y72.265 E193.42285
G1 X47.322 Y55.736 E195.55234
G1 X47.505 Y56.804 E195.65104
G1 X63.220 Y72.520 E197.67569
G1 X62.569 Y72.753 E197.73877
G1 X47.687 Y57.872 E199.65591
G1 X47.870 Y58.940 E199.75462
G1 X61.767 Y72.837 E201.54501
G1 X60.966 Y72.922 E201.61839
G1 X48.249 Y60.205 E203.25674
G1 X48.635 Y61.476 E203.37780
G1 X60.087 Y72.928 E204.85316
G1 X59.202 Y72.928 E204.93381
G1 X49.148 Y62.874 E206.22905
G1 X49.883 Y64.495 F7800.000
G1 X57.935 Y72.546 E207.26631 F1080.000
G1 X56.518 Y72.015 F7800.000
G1 X50.681 Y66.178 E208.01826 F1080.000
G1 X52.407 Y68.789 F7800.000
G1 X52.970 Y69.352 E208.09077 F1080.000
G1 X82.795 Y29.234 F7800.000
G1 X92.617 Y39.056 E209.35618 F1080.000
G1 X92.387 Y37.941 E209.45993
G1 X84.303 Y29.857 E210.50140
G1 X86.419 Y31.087 F7800.000
G1 X91.964 Y36.632 E211.21581 F1080.000
G1 X90.157 Y33.940 F7800.000
G1 X89.535 Y33.318 E211.29590 F1080.000
M104 S220 ; set temperature
G1 F1800.000 E210.29590
G92 E0
G1 Z0.600 F7800.000
G1 X67.165 Y38.480 F7800.000
G1 E1.00000 F1800.000
G1 X67.477 Y40.552 E1.07624 F1800
G1 X67.165 Y42.625 E1.15248
G1 X66.256 Y44.513 E1.22873
G1 X64.830 Y46.049 E1.30497
G1 X63.015 Y47.097 E1.38121
G1 X60.972 Y47.564 E1.45745
G1 X58.882 Y47.407 E1.53369
G1 X56.931 Y46.641 E1.60994
G1 X55.292 Y45.335 E1.68618
G1 X54.112 Y43.603 E1.76242
G1 X53.494 Y41.600 E1.83866
G1 X53.494 Y39.505 E1.91490
G1 X54.031 Y37.763 E1.98122
G1 X54.112 Y37.502 E1.99115
G1 X55.292 Y35.770 E2.06739
G1 X56.931 Y34.464 E2.14363
G1 X58.882 Y33.698 E2.21987
G1 X60.972 Y33.541 E2.29611
G1 X63.015 Y34.008 E2.37236
G1 X64.830 Y35.056 E2.44860
G1 X66.256 Y36.592 E2.52484
G1 X67.142 Y38.433 E2.59917
G1 X66.827 Y38.584 F7800.000
G1 X67.123 Y40.552 E2.67158 F1260
G1 X66.827 Y42.521 E2.74398
G1 X65.963 Y44.314 E2.81638
G1 X64.609 Y45.773 E2.88879
G1 X62.886 Y46.768 E2.96119
G1 X60.945 Y47.211 E3.03359
G1 X58.961 Y47.062 E3.10600
G1 X57.108 Y46.335 E3.17840
G1 X55.552 Y45.094 E3.25081
G1 X54.431 Y43.450 E3.32321
G1 X53.844 Y41.548 E3.39561
G1 X53.844 Y39.557 E3.46802
G1 X54.431 Y37.655 E3.54042
G1 X55.552 Y36.011 E3.61282
G1 X57.108 Y34.770 E3.68523
G1 X58.961 Y34.043 E3.75763
G1 X60.945 Y33.894 E3.83004
G1 X62.886 Y34.337 E3.90244
G1 X64.609 Y35.332 E3.97484
G1 X65.963 Y36.791 E4.04725
G1 X66.804 Y38.537 E4.11774
G1 X69.906 Y26.200 F7800.000
G1 X70.430 Y26.255 E4.13688 F1800
G1 X71.891 Y26.255 E4.19006
G1 X77.743 Y26.896 E4.40422
G1 X81.307 Y27.732 E4.53739
G1 X84.448 Y28.933 E4.65972
G1 X88.786 Y31.455 E4.84226
G1 X90.692 Y33.193 E4.93607
G1 X91.847 Y34.783 E5.00759
G1 X93.016 Y36.677 E5.08854
G1 X93.815 Y40.552 E5.23249
G1 X93.016 Y44.428 E5.37643
G1 X91.847 Y46.322 E5.45738
G1 X90.692 Y47.912 E5.52890
G1 X88.786 Y49.650 E5.62271
G1 X84.448 Y52.172 E5.80525
G1 X81.307 Y53.373 E5.92758
G1 X77.743 Y54.209 E6.06075
G1 X74.589 Y54.561 E6.17623
G1 X73.970 Y58.181 E6.30980
G1 X73.553 Y60.143 E6.38278
G1 X72.525 Y63.525 E6.51138
G1 X71.164 Y66.397 E6.62700
G1 X68.340 Y70.291 E6.80197
G1 X66.515 Y71.837 E6.88899
G1 X64.821 Y72.814 E6.96012
G1 X62.879 Y73.597 E7.03630
G1 X60.951 Y73.800 E7.10681
G1 X58.972 Y73.800 E7.17881
G1 X57.129 Y73.201 E7.24931
