; generated by Slic3r 1.0.0RC2 on 2014-02-07 at 19:01:51

; layer_height = 0.25
; perimeters = 1
; top_solid_layers = 4
; bottom_solid_layers = 3
; fill_density = 0.15
; perimeter_speed = 30
; infill_speed = 60
; travel_speed = 130
; nozzle_diameter = 0.35
; filament_diameter = 1.75
; extrusion_multiplier = 1
; perimeters extrusion width = 0.35mm
; infill extrusion width = 0.39mm
; solid infill extrusion width = 0.39mm
; top infill extrusion width = 0.39mm
; first layer extrusion width = 0.70mm

G21 ; set units to millimeters
M107
M104 S220 ; set temperature
G28 ; home all axes
G1 Z5 F5000 ; lift nozzle

M109 S220 ; wait for temperature to be reached
G90 ; use absolute coordinates
G92 E0
M82 ; use absolute distances for extrusion
G1 F1800.000 E-1.00000
G92 E0
G1 Z0.350 F7800.000
G1 X94.060 Y129.475 F7800.000
G1 E1.00000 F1800.000
G1 X95.560 Y128.815 E1.14901 F540.000
G1 X97.500 Y128.185 E1.33449
G1 X98.700 Y127.895 E1.44674
G1 X99.930 Y127.805 E1.55888
G1 X120.130 Y127.805 E3.39566
G1 X122.110 Y127.855 E3.57576
G1 X122.770 Y127.895 E3.63588
G1 X128.690 Y128.545 E4.17742
G1 X129.630 Y128.705 E4.26412
G1 X133.260 Y129.555 E4.60313
G1 X134.280 Y129.875 E4.70033
G1 X137.490 Y131.105 E5.01291
G1 X138.630 Y131.645 E5.12761
G1 X143.050 Y134.215 E5.59252
G1 X143.740 Y134.675 E5.66793
G1 X144.390 Y135.195 E5.74362
G1 X146.380 Y137.005 E5.98822
G1 X146.940 Y137.575 E6.06088
G1 X147.450 Y138.205 E6.13458
G1 X148.650 Y139.855 E6.32010
G1 X148.980 Y140.345 E6.37382
G1 X150.210 Y142.335 E6.58654
G1 X150.830 Y143.565 E6.71179
G1 X151.220 Y144.885 E6.83695
G1 X152.060 Y148.955 E7.21483
G1 X152.220 Y150.545 E7.36014
G1 X152.060 Y152.135 E7.50545
G1 X151.220 Y156.215 E7.88422
G1 X150.820 Y157.545 E8.01051
G1 X150.200 Y158.785 E8.13657
G1 X148.970 Y160.765 E8.34852
G1 X148.650 Y161.235 E8.40022
G1 X147.450 Y162.885 E8.58574
G1 X146.650 Y163.815 E8.69729
G1 X124.290 Y186.205 E11.57457
G1 X123.810 Y186.655 E11.63440
G1 X121.900 Y188.275 E11.86213
G1 X121.350 Y188.695 E11.92506
G1 X120.760 Y189.075 E11.98887
G1 X119.000 Y190.095 E12.17384
G1 X117.970 Y190.595 E12.27795
G1 X115.920 Y191.415 E12.47872
G1 X114.890 Y191.755 E12.57734
G1 X113.810 Y191.935 E12.67690
G1 X111.780 Y192.145 E12.86248
G1 X110.970 Y192.185 E12.93622
G1 X108.880 Y192.185 E13.12626
G1 X107.650 Y192.095 E13.23840
G1 X106.450 Y191.805 E13.35066
G1 X104.000 Y190.995 E13.58530
G1 X101.960 Y190.175 E13.78522
G1 X100.830 Y189.605 E13.90030
G1 X99.810 Y188.875 E14.01435
G1 X97.740 Y187.115 E14.26142
G1 X96.220 Y185.755 E14.44688
G1 X95.620 Y185.155 E14.52403
G1 X95.090 Y184.495 E14.60100
G1 X93.400 Y182.155 E14.86347
G1 X93.000 Y181.555 E14.92904
G1 X92.670 Y180.925 E14.99371
G1 X91.190 Y177.805 E15.30771
G1 X90.360 Y175.945 E15.49291
G1 X90.010 Y175.015 E15.58327
G1 X88.970 Y171.575 E15.91005
G1 X88.750 Y170.625 E15.99872
G1 X88.100 Y166.845 E16.34748
G1 X88.000 Y165.935 E16.43072
G1 X87.780 Y161.565 E16.82858
G1 X87.780 Y139.525 E18.83267
G1 X87.940 Y137.905 E18.98070
G1 X88.440 Y136.345 E19.12965
G1 X89.260 Y134.485 E19.31449
G1 X90.100 Y133.035 E19.46686
G1 X91.220 Y131.795 E19.61880
G1 X92.740 Y130.435 E19.80426
G1 X93.984 Y129.531 E19.94415
G1 X94.380 Y130.025 F7800.000
G1 X95.750 Y129.405 E20.08089 F540.000
G1 X97.690 Y128.775 E20.26636
G1 X98.800 Y128.515 E20.37002
G1 X99.930 Y128.425 E20.47310
G1 X120.110 Y128.425 E22.30806
G1 X122.090 Y128.475 E22.48816
G1 X122.700 Y128.515 E22.54374
G1 X128.620 Y129.165 E23.08528
G1 X129.480 Y129.315 E23.16466
G1 X133.110 Y130.165 E23.50366
G1 X134.050 Y130.455 E23.59311
G1 X137.260 Y131.685 E23.90569
G1 X138.310 Y132.185 E24.01144
G1 X142.730 Y134.755 E24.47635
G1 X143.380 Y135.175 E24.54672
G1 X143.970 Y135.665 E24.61645
G1 X145.960 Y137.475 E24.86106
G1 X146.480 Y137.995 E24.92793
G1 X146.940 Y138.575 E24.99524
G1 X148.450 Y140.675 E25.23043
G1 X149.680 Y142.665 E25.44315
G1 X150.250 Y143.795 E25.55824
G1 X150.610 Y145.005 E25.67303
G1 X151.450 Y149.075 E26.05091
G1 X151.600 Y150.545 E26.18527
G1 X151.450 Y152.005 E26.31873
G1 X150.610 Y156.085 E26.69750
G1 X150.240 Y157.315 E26.81430
G1 X149.670 Y158.455 E26.93019
G1 X148.440 Y160.435 E27.14214
G1 X146.940 Y162.515 E27.37533
G1 X146.210 Y163.375 E27.47790
G1 X123.850 Y185.765 E30.35519
G1 X123.410 Y186.175 E30.40987
G1 X121.500 Y187.795 E30.63761
G1 X120.990 Y188.185 E30.69599
G1 X120.450 Y188.535 E30.75450
G1 X118.690 Y189.555 E30.93947
G1 X117.740 Y190.015 E31.03545
G1 X115.690 Y190.835 E31.23621
G1 X114.740 Y191.145 E31.32708
G1 X113.750 Y191.315 E31.41842
G1 X111.720 Y191.525 E31.60399
G1 X110.970 Y191.565 E31.67228
G1 X108.880 Y191.565 E31.86232
G1 X107.750 Y191.475 E31.96540
G1 X106.640 Y191.215 E32.06906
G1 X104.700 Y190.585 E32.25454
G1 X102.200 Y189.595 E32.49904
G1 X101.160 Y189.075 E32.60476
G1 X100.210 Y188.395 E32.71100
G1 X98.300 Y186.775 E32.93873
G1 X96.640 Y185.285 E33.14156
G1 X96.080 Y184.735 E33.21293
G1 X95.590 Y184.125 E33.28408
G1 X93.900 Y181.785 E33.54654
G1 X93.540 Y181.235 E33.60632
G1 X93.230 Y180.655 E33.66611
G1 X91.830 Y177.705 E33.96303
G1 X90.930 Y175.685 E34.16412
G1 X90.610 Y174.835 E34.24670
G1 X89.570 Y171.395 E34.57348
G1 X89.370 Y170.525 E34.65465
G1 X88.720 Y166.745 E35.00341
G1 X88.620 Y165.895 E35.08124
G1 X88.400 Y161.565 E35.47547
G1 X88.400 Y139.525 E37.47956
G1 X88.560 Y138.035 E37.61582
G1 X89.020 Y136.605 E37.75241
G1 X89.840 Y134.745 E37.93725
G1 X90.600 Y133.405 E38.07733
G1 X91.640 Y132.265 E38.21764
G1 X93.160 Y130.905 E38.40310
G1 X94.304 Y130.080 E38.53136
G1 X94.690 Y130.565 F7800.000
G1 X95.940 Y130.005 E38.65591 F540.000
G1 X97.880 Y129.375 E38.84138
G1 X98.890 Y129.135 E38.93577
G1 X99.930 Y129.055 E39.03062
G1 X120.100 Y129.055 E40.86467
G1 X122.080 Y129.105 E41.04477
G1 X122.630 Y129.135 E41.09485
G1 X128.550 Y129.785 E41.63639
G1 X129.340 Y129.925 E41.70935
G1 X132.970 Y130.775 E42.04835
G1 X133.830 Y131.035 E42.13004
G1 X137.040 Y132.265 E42.44262
G1 X138.000 Y132.725 E42.53942
G1 X142.420 Y135.295 E43.00433
G1 X143.010 Y135.685 E43.06864
G1 X143.550 Y136.125 E43.13198
G1 X145.540 Y137.935 E43.37658
G1 X146.010 Y138.415 E43.43766
G1 X146.440 Y138.935 E43.49902
G1 X147.640 Y140.585 E43.68454
G1 X147.920 Y141.005 E43.73044
G1 X149.150 Y142.995 E43.94316
G1 X149.670 Y144.025 E44.04808
G1 X150.000 Y145.135 E44.15337
G1 X150.840 Y149.205 E44.53126
G1 X150.970 Y150.545 E44.65367
G1 X150.840 Y151.885 E44.77609
G1 X150.000 Y155.965 E45.15487
G1 X149.660 Y157.075 E45.26043
G1 X149.140 Y158.125 E45.36697
G1 X147.910 Y160.105 E45.57892
G1 X147.640 Y160.505 E45.62280
G1 X146.440 Y162.155 E45.80832
G1 X145.770 Y162.935 E45.90182
G1 X123.410 Y185.325 E48.77911
G1 X123.010 Y185.695 E48.82865
G1 X121.100 Y187.315 E49.05639
G1 X120.630 Y187.675 E49.11022
G1 X120.130 Y187.995 E49.16420
G1 X118.370 Y189.015 E49.34917
G1 X117.510 Y189.435 E49.43619
G1 X115.460 Y190.255 E49.63696
G1 X114.590 Y190.535 E49.72006
G1 X113.680 Y190.695 E49.80408
G1 X111.650 Y190.905 E49.98965
G1 X110.970 Y190.935 E50.05154
G1 X108.880 Y190.935 E50.24159
G1 X107.840 Y190.855 E50.33643
G1 X106.830 Y190.615 E50.43083
G1 X104.470 Y189.835 E50.65684
G1 X102.430 Y189.015 E50.85676
G1 X101.480 Y188.535 E50.95354
G1 X100.610 Y187.915 E51.05069
G1 X98.570 Y186.185 E51.29390
G1 X97.050 Y184.825 E51.47936
G1 X96.550 Y184.315 E51.54431
G1 X96.100 Y183.765 E51.60892
G1 X94.410 Y181.425 E51.87139
G1 X94.080 Y180.915 E51.92663
G1 X93.790 Y180.385 E51.98156
G1 X92.390 Y177.435 E52.27848
G1 X91.500 Y175.435 E52.47753
G1 X91.210 Y174.655 E52.55320
G1 X90.170 Y171.215 E52.87998
G1 X89.980 Y170.415 E52.95475
G1 X89.330 Y166.635 E53.30350
G1 X89.240 Y165.865 E53.37400
G1 X89.030 Y161.915 E53.73368
G1 X89.030 Y139.525 E55.76959
G1 X89.170 Y138.155 E55.89481
G1 X89.590 Y136.855 E56.01904
G1 X90.410 Y134.995 E56.20387
G1 X91.110 Y133.775 E56.33177
G1 X92.050 Y132.725 E56.45992
G1 X93.570 Y131.365 E56.64538
G1 X94.613 Y130.620 E56.76201
G1 F1800.000 E55.76201
G92 E0
G1 X109.067 Y149.550 F7800.000
G1 E1.00000 F1800.000
G1 X110.973 Y148.931 E1.18226 F540.000
G1 X112.151 Y150.553 E1.36452
G1 X110.973 Y152.174 E1.54677
G1 X109.067 Y151.555 E1.72903
G1 X109.067 Y149.644 E1.90276
G1 X109.692 Y150.004 F7800.000
G1 X110.735 Y149.666 E2.00246 F540.000
G1 X111.379 Y150.553 E2.10215
G1 X110.735 Y151.439 E2.20184
G1 X109.692 Y151.101 E2.30153
G1 X109.692 Y150.098 E2.39270
G1 F1800.000 E1.39270
G92 E0
G1 X100.088 Y136.650 F7800.000
G1 E1.00000 F1800.000
G1 X119.883 Y136.650 E2.79990 F540.000
G1 X120.406 Y136.705 E2.84775
G1 X121.868 Y136.705 E2.98066
G1 X127.667 Y137.340 E3.51112
G1 X131.175 Y138.163 E3.83878
G1 X134.254 Y139.341 E4.13856
G1 X138.518 Y141.820 E4.58704
G1 X140.355 Y143.495 E4.81304
G1 X141.473 Y145.034 E4.98608
G1 X142.592 Y146.847 E5.17979
G1 X143.356 Y150.552 E5.52382
G1 X142.980 Y152.435 E5.69834
G1 X142.592 Y154.258 E5.86785
G1 X141.473 Y156.071 E6.06156
G1 X140.355 Y157.610 E6.23460
G1 X138.518 Y159.285 E6.46059
G1 X134.254 Y161.764 E6.90908
G1 X131.175 Y162.942 E7.20886
G1 X127.667 Y163.765 E7.53652
G1 X124.202 Y164.152 E7.85351
G1 X123.528 Y168.096 E8.21734
G1 X123.117 Y170.031 E8.39719
G1 X122.105 Y173.363 E8.71384
G1 X120.775 Y176.167 E8.99605
G1 X118.008 Y179.983 E9.42462
G1 X116.255 Y181.467 E9.63353
G1 X114.624 Y182.409 E9.80476
G1 X112.769 Y183.156 E9.98659
G1 X110.928 Y183.350 E10.15495
G1 X109.043 Y183.350 E10.32630
G1 X107.283 Y182.778 E10.49463
G1 X105.415 Y182.025 E10.67777
G1 X103.636 Y180.519 E10.88970
G1 X102.208 Y179.234 E11.06437
G1 X100.630 Y177.055 E11.30896
G1 X99.275 Y174.196 E11.59668
G1 X98.475 Y172.399 E11.77554
G1 X97.465 Y169.074 E12.09147
G1 X96.839 Y165.413 E12.42927
G1 X96.625 Y161.545 E12.78148
G1 X96.625 Y139.740 E14.76420
G1 X97.285 Y138.256 E14.91193
G1 X98.493 Y137.169 E15.05967
G1 X99.999 Y136.679 E15.20369
G1 X99.726 Y136.111 F7800.000
G1 X99.989 Y136.025 E15.22882 F378.000
G1 X119.916 Y136.025 E17.04070
G1 X120.439 Y136.080 E17.08855
G1 X121.901 Y136.080 E17.22146
G1 X127.773 Y136.723 E17.75865
G1 X131.359 Y137.564 E18.09354
G1 X134.524 Y138.775 E18.40167
G1 X138.890 Y141.314 E18.86096
G1 X140.823 Y143.076 E19.09874
G1 X141.993 Y144.686 E19.27972
G1 X143.181 Y146.611 E19.48543
G1 X143.993 Y150.552 E19.85136
G1 X143.592 Y152.561 E20.03759
G1 X143.181 Y154.494 E20.21730
G1 X141.993 Y156.419 E20.42301
G1 X140.823 Y158.029 E20.60398
G1 X138.890 Y159.791 E20.84177
G1 X134.524 Y162.330 E21.30106
G1 X131.359 Y163.541 E21.60919
G1 X127.773 Y164.382 E21.94407
G1 X124.739 Y164.721 E22.22170
G1 X124.142 Y168.214 E22.54391
G1 X123.722 Y170.187 E22.72733
G1 X122.689 Y173.589 E23.05061
G1 X121.315 Y176.487 E23.34228
G1 X118.469 Y180.411 E23.78302
G1 X116.616 Y181.980 E24.00389
G1 X114.898 Y182.972 E24.18422
G1 X112.922 Y183.768 E24.37800
G1 X110.961 Y183.975 E24.55729
G1 X108.944 Y183.975 E24.74063
G1 X107.069 Y183.365 E24.91991
G1 X105.088 Y182.567 E25.11417
G1 X103.225 Y180.990 E25.33611
G1 X101.741 Y179.654 E25.51767
G1 X100.090 Y177.375 E25.77352
G1 X98.707 Y174.457 E26.06716
G1 X97.888 Y172.618 E26.25023
G1 X96.856 Y169.218 E26.57325
G1 X96.217 Y165.483 E26.91786
G1 X96.000 Y161.562 E27.27489
G1 X96.000 Y139.607 E29.27126
G1 X96.769 Y137.880 E29.44315
G1 X98.173 Y136.615 E29.61504
G1 X99.637 Y136.140 E29.75500
G1 F1800.000 E28.75500
G92 E0
G1 X111.468 Y148.895 F7800.000
G1 E1.00000 F1800.000
G1 X126.090 Y163.517 E2.88373 F1080.000
G1 X123.559 Y165.412 F7800.000
G1 X110.664 Y152.517 E4.54504 F1080.000
G1 X111.373 Y152.341 E4.61164
G1 X123.688 Y164.656 E6.19819
G1 X123.818 Y163.900 E6.26806
G1 X111.746 Y151.828 E7.82327
G1 X112.118 Y151.316 E7.88101
G1 X124.497 Y163.695 E9.47582
G1 X125.294 Y163.606 E9.54882
G1 X112.491 Y150.803 E11.19823
G1 F1800.000 E10.19823
G92 E0
G1 X131.361 Y138.685 F7800.000
G1 E1.00000 F1800.000
G1 X142.847 Y150.171 E2.47976 F1080.000
G1 X142.826 Y151.036 E2.55852
G1 X130.144 Y138.354 E4.19229
G1 X128.988 Y138.083 E4.30051
G1 X142.675 Y151.770 E6.06378
G1 X142.523 Y152.504 E6.13205
G1 X127.831 Y137.812 E8.02482
G1 X126.804 Y137.670 E8.11929
G1 X142.372 Y153.238 E10.12491
G1 X142.220 Y153.972 E10.19318
G1 X125.810 Y137.561 E12.30738
G1 X124.816 Y137.452 E12.39849
G1 X141.915 Y154.552 E14.60143
G1 X141.577 Y155.099 E14.66004
G1 X123.821 Y137.343 E16.94753
G1 X122.827 Y137.235 E17.03864
G1 X141.239 Y155.647 E19.41068
G1 X140.879 Y156.171 E19.46868
G1 X121.834 Y137.127 E21.92218
G1 X120.949 Y137.127 E22.00284
G1 X140.506 Y156.684 E24.52240
G1 X140.134 Y157.197 E24.58014
G1 X120.026 Y137.089 E27.17062
G1 X119.123 Y137.072 E27.25287
G1 X139.694 Y157.642 E29.90296
G1 X139.231 Y158.065 E29.96005
G1 X118.238 Y137.072 E32.66454
G1 X117.353 Y137.072 E32.74520
G1 X138.768 Y158.487 E35.50409
G1 X138.304 Y158.909 E35.56118
G1 X116.467 Y137.072 E38.37448
G1 X115.582 Y137.072 E38.45513
G1 X137.752 Y159.242 E41.31137
G1 X137.193 Y159.568 E41.37036
G1 X114.697 Y137.072 E44.26854
G1 X113.811 Y137.072 E44.34919
G1 X136.633 Y159.894 E47.28931
G1 X136.073 Y160.219 E47.34830
G1 X112.926 Y137.072 E50.33036
G1 X112.041 Y137.072 E50.41101
G1 X135.513 Y160.545 E53.43501
G1 X134.953 Y160.870 E53.49400
G1 X111.155 Y137.072 E56.55993
G1 X110.270 Y137.072 E56.64059
G1 X134.393 Y161.196 E59.74846
G1 X133.799 Y161.487 E59.80874
G1 X109.384 Y137.072 E62.95413
G1 X108.499 Y137.072 E63.03479
G1 X133.159 Y161.732 E66.21174
G1 X132.519 Y161.977 E66.27420
G1 X107.614 Y137.072 E69.48272
G1 X106.728 Y137.072 E69.56337
G1 X131.878 Y162.222 E72.80344
G1 X131.238 Y162.467 E72.86590
G1 X105.843 Y137.072 E76.13753
G1 X104.958 Y137.072 E76.21819
G1 X130.543 Y162.657 E79.51437
G1 X129.826 Y162.826 E79.58147
G1 X104.072 Y137.072 E82.89932
G1 X103.187 Y137.072 E82.97997
G1 X129.109 Y162.994 E86.31949
G1 X128.391 Y163.162 E86.38659
G1 X102.302 Y137.072 E89.74777
G1 X101.416 Y137.072 E89.82842
G1 X127.674 Y163.330 E93.21127
G1 X126.887 Y163.428 E93.28357
G1 X100.531 Y137.072 E96.67901
G1 X99.770 Y137.197 E96.74921
G1 X111.040 Y148.466 E98.20100
G1 X110.371 Y148.683 E98.26501
G1 X99.102 Y137.414 E99.71680
G1 X98.517 Y137.714 E99.77671
G1 X109.703 Y148.900 E101.21781
G1 X109.035 Y149.117 E101.28181
G1 X98.053 Y138.135 E102.69664
G1 X97.610 Y138.578 E102.75367
G1 X108.645 Y149.613 E104.17534
G1 X108.645 Y150.499 E104.25600
G1 X97.333 Y139.186 E105.71339
G1 X97.060 Y139.799 E105.77448
G1 X123.430 Y166.168 E109.17168
G1 X123.300 Y166.924 E109.24156
G1 X97.046 Y140.670 E112.62388
G1 X97.046 Y141.556 E112.70453
G1 X123.171 Y167.680 E116.07020
G1 X123.027 Y168.422 E116.13902
G1 X97.046 Y142.441 E119.48617
G1 X97.046 Y143.326 E119.56682
G1 X122.872 Y169.152 E122.89398
G1 X122.717 Y169.882 E122.96199
G1 X97.046 Y144.212 E126.26916
G1 X97.046 Y145.097 E126.34981
G1 X122.514 Y170.564 E129.63080
G1 X122.307 Y171.244 E129.69545
G1 X97.046 Y145.982 E132.94987
G1 X97.046 Y146.868 E133.03052
G1 X122.101 Y171.923 E136.25837
G1 X121.895 Y172.602 E136.32302
G1 X97.046 Y147.753 E139.52430
G1 X97.046 Y148.638 E139.60495
G1 X121.681 Y173.273 E142.77861
G1 X121.396 Y173.873 E142.83916
G1 X97.046 Y149.524 E145.97613
G1 X97.046 Y150.409 E146.05678
G1 X121.111 Y174.474 E149.15707
G1 X120.826 Y175.075 E149.21762
G1 X97.046 Y151.294 E152.28123
G1 X97.046 Y152.180 E152.36188
G1 X120.542 Y175.675 E155.38881
G1 X120.210 Y176.229 E155.44759
G1 X97.046 Y153.065 E158.43175
G1 X97.046 Y153.951 E158.51240
G1 X119.837 Y176.742 E161.44861
G1 X119.465 Y177.255 E161.50636
G1 X97.046 Y154.836 E164.39462
G1 X97.046 Y155.721 E164.47527
G1 X119.093 Y177.768 E167.31559
G1 X118.721 Y178.281 E167.37334
G1 X97.046 Y156.607 E170.16572
G1 X97.046 Y157.492 E170.24637
G1 X118.349 Y178.795 E172.99080
G1 X117.977 Y179.308 E173.04855
G1 X97.046 Y158.377 E175.74503
G1 X97.046 Y159.263 E175.82568
G1 X117.565 Y179.781 E178.46910
G1 X117.098 Y180.200 E178.52621
G1 X97.046 Y160.148 E181.10956
G1 X97.046 Y161.033 E181.19021
G1 X116.619 Y180.606 E183.71179
G1 X116.140 Y181.012 E183.76901
G1 X97.069 Y161.941 E186.22591
G1 X97.121 Y162.879 E186.31143
G1 X115.600 Y181.358 E188.69214
G1 X115.039 Y181.682 E188.75119
G1 X97.173 Y163.816 E191.05289
G1 X97.225 Y164.753 E191.13841
G1 X114.478 Y182.006 E193.36112
G1 X113.851 Y182.265 E193.42285
G1 X97.322 Y165.736 E195.55234
G1 X97.505 Y166.804 E195.65104
