; generated by Slic3r 1.0.0RC2 on 2014-01-09 at 23:52:17

; layer_height = 0.25
; perimeters = 1
; top_solid_layers = 3
; bottom_solid_layers = 3
; fill_density = 0.4
; perimeter_speed = 30
; infill_speed = 60
; travel_speed = 130
; nozzle_diameter = 0.35
; filament_diameter = 1.75
; extrusion_multiplier = 1
; perimeters extrusion width = 0.35mm
; infill extrusion width = 0.39mm
; solid infill extrusion width = 0.39mm
; top infill extrusion width = 0.39mm
; first layer extrusion width = 0.70mm

G21 ; set units to millimeters
M107
M104 S220 ; set temperature
G28 ; home all axes
G1 Z5 F5000 ; lift nozzle

M109 S220 ; wait for temperature to be reached
G90 ; use absolute coordinates
G92 E0
M82 ; use absolute distances for extrusion
G1 F1800.000 E-1.00000
G92 E0
G1 Z0.350 F7800.000
G1 X151.880 Y28.106 F7800.000
G1 E1.00000 F1800.000
G1 X152.320 Y26.636 E1.13953 F540.000
G1 X153.050 Y25.276 E1.27988
G1 X154.030 Y24.076 E1.42076
G1 X155.230 Y23.096 E1.56164
G1 X156.590 Y22.366 E1.70199
G1 X158.060 Y21.926 E1.84152
G1 X159.600 Y21.776 E1.98221
G1 X183.870 Y21.776 E4.18907
G1 X185.620 Y21.836 E4.34829
G1 X186.530 Y21.916 E4.43136
G1 X189.970 Y22.436 E4.74771
G1 X191.170 Y22.726 E4.85996
G1 X194.380 Y23.746 E5.16623
G1 X195.640 Y24.266 E5.29017
G1 X198.480 Y25.746 E5.58138
G1 X199.120 Y26.116 E5.64860
G1 X199.730 Y26.556 E5.71699
G1 X202.080 Y28.416 E5.98950
G1 X202.730 Y28.996 E6.06872
G1 X203.320 Y29.646 E6.14854
G1 X205.070 Y31.816 E6.40203
G1 X205.640 Y32.616 E6.49135
G1 X206.100 Y33.486 E6.58083
G1 X207.190 Y35.876 E6.81969
G1 X207.580 Y36.916 E6.92068
G1 X207.820 Y37.986 E7.02040
G1 X208.190 Y40.476 E7.24930
G1 X208.270 Y41.636 E7.35503
G1 X208.190 Y42.786 E7.45985
G1 X207.820 Y45.286 E7.68965
G1 X207.580 Y46.366 E7.79025
G1 X207.190 Y47.406 E7.89125
G1 X206.100 Y49.796 E8.13010
G1 X205.640 Y50.666 E8.21959
G1 X205.070 Y51.466 E8.30891
G1 X203.320 Y53.636 E8.56239
G1 X202.740 Y54.276 E8.64093
G1 X183.150 Y73.766 E11.15366
G1 X182.490 Y74.356 E11.23416
G1 X181.760 Y74.876 E11.31566
G1 X179.460 Y76.306 E11.56192
G1 X178.530 Y76.796 E11.65751
G1 X177.550 Y77.166 E11.75276
G1 X175.100 Y77.896 E11.98521
G1 X173.990 Y78.136 E12.08848
G1 X172.850 Y78.216 E12.19239
G1 X170.340 Y78.216 E12.42062
G1 X169.200 Y78.136 E12.52454
G1 X168.090 Y77.896 E12.62780
G1 X165.640 Y77.166 E12.86026
G1 X164.650 Y76.796 E12.95636
G1 X163.720 Y76.296 E13.05237
G1 X161.430 Y74.866 E13.29787
G1 X160.680 Y74.336 E13.38137
G1 X159.990 Y73.716 E13.46572
G1 X157.960 Y71.656 E13.72870
G1 X157.420 Y71.046 E13.80278
G1 X156.950 Y70.386 E13.87646
G1 X155.270 Y67.776 E14.15870
G1 X154.910 Y67.166 E14.22310
G1 X154.620 Y66.536 E14.28617
G1 X153.360 Y63.496 E14.58540
G1 X152.960 Y62.246 E14.70474
G1 X152.190 Y58.906 E15.01641
G1 X152.010 Y57.716 E15.12584
G1 X151.750 Y54.216 E15.44497
G1 X151.730 Y53.636 E15.49775
G1 X151.730 Y29.646 E17.67915
G1 X151.871 Y28.199 E17.81132
G1 X152.490 Y28.236 F7800.000
G1 X152.900 Y26.876 E17.94048 F540.000
G1 X153.570 Y25.616 E18.07024
G1 X154.470 Y24.516 E18.19948
G1 X155.570 Y23.616 E18.32871
G1 X156.830 Y22.946 E18.45847
G1 X158.190 Y22.536 E18.58763
G1 X159.600 Y22.396 E18.71648
G1 X183.850 Y22.396 E20.92152
G1 X185.600 Y22.456 E21.08074
G1 X186.430 Y22.536 E21.15656
G1 X189.870 Y23.056 E21.47291
G1 X190.990 Y23.316 E21.57746
G1 X194.200 Y24.336 E21.88373
G1 X195.350 Y24.816 E21.99704
G1 X198.190 Y26.296 E22.28824
G1 X198.780 Y26.646 E22.35062
G1 X199.340 Y27.046 E22.41319
G1 X201.690 Y28.906 E22.68571
G1 X202.290 Y29.436 E22.75851
G1 X202.830 Y30.036 E22.83191
G1 X204.580 Y32.206 E23.08539
G1 X205.110 Y32.946 E23.16816
G1 X205.540 Y33.746 E23.25074
G1 X206.630 Y36.136 E23.48960
G1 X206.980 Y37.086 E23.58166
G1 X207.200 Y38.076 E23.67388
G1 X207.570 Y40.566 E23.90278
G1 X207.650 Y41.636 E24.00034
G1 X207.570 Y42.696 E24.09700
G1 X207.200 Y45.196 E24.32680
G1 X206.980 Y46.196 E24.41991
G1 X206.630 Y47.146 E24.51197
G1 X205.540 Y49.536 E24.75082
G1 X205.110 Y50.336 E24.83341
G1 X204.580 Y51.076 E24.91617
G1 X202.830 Y53.246 E25.16966
G1 X202.300 Y53.836 E25.24178
G1 X182.710 Y73.326 E27.75451
G1 X182.100 Y73.866 E27.82859
G1 X181.430 Y74.346 E27.90353
G1 X179.130 Y75.776 E28.14979
G1 X178.280 Y76.226 E28.23725
G1 X177.370 Y76.566 E28.32558
G1 X174.920 Y77.296 E28.55804
G1 X173.900 Y77.516 E28.65292
G1 X172.850 Y77.596 E28.74867
G1 X170.340 Y77.596 E28.97690
G1 X169.290 Y77.516 E29.07266
G1 X168.270 Y77.296 E29.16754
G1 X165.820 Y76.566 E29.39999
G1 X164.910 Y76.226 E29.48833
G1 X164.050 Y75.766 E29.57701
G1 X161.760 Y74.336 E29.82250
G1 X161.070 Y73.846 E29.89946
G1 X160.440 Y73.276 E29.97671
G1 X158.410 Y71.216 E30.23969
G1 X157.910 Y70.656 E30.30795
G1 X157.470 Y70.046 E30.37634
G1 X155.790 Y67.436 E30.65859
G1 X155.470 Y66.876 E30.71723
G1 X155.190 Y66.296 E30.77580
G1 X153.930 Y63.256 E31.07503
G1 X153.570 Y62.106 E31.18460
G1 X152.800 Y58.766 E31.49627
G1 X152.630 Y57.676 E31.59658
G1 X152.370 Y54.176 E31.91571
G1 X152.350 Y53.636 E31.96485
G1 X152.350 Y29.646 E34.14625
G1 X152.481 Y28.329 E34.26657
G1 X153.100 Y28.356 F7800.000
G1 X153.480 Y27.106 E34.38536 F540.000
G1 X154.090 Y25.966 E34.50293
G1 X154.920 Y24.966 E34.62110
G1 X155.920 Y24.136 E34.73927
G1 X157.060 Y23.526 E34.85684
G1 X158.310 Y23.146 E34.97563
G1 X159.600 Y23.026 E35.09344
G1 X183.830 Y23.026 E37.29666
G1 X185.580 Y23.086 E37.45588
G1 X186.340 Y23.156 E37.52528
G1 X189.780 Y23.676 E37.84163
G1 X190.800 Y23.916 E37.93692
G1 X194.010 Y24.936 E38.24318
G1 X195.060 Y25.366 E38.34635
G1 X197.900 Y26.846 E38.63755
G1 X198.440 Y27.166 E38.69463
G1 X198.950 Y27.536 E38.75192
G1 X201.300 Y29.396 E39.02444
G1 X201.850 Y29.876 E39.09082
G1 X202.350 Y30.426 E39.15841
G1 X204.100 Y32.596 E39.41189
G1 X204.580 Y33.276 E39.48758
G1 X204.970 Y34.006 E39.56284
G1 X206.060 Y36.396 E39.80169
G1 X206.380 Y37.266 E39.88598
G1 X206.580 Y38.176 E39.97070
G1 X206.950 Y40.666 E40.19960
G1 X207.020 Y41.636 E40.28804
G1 X206.950 Y42.606 E40.37647
G1 X206.580 Y45.106 E40.60627
G1 X206.380 Y46.016 E40.69099
G1 X206.060 Y46.886 E40.77528
G1 X204.970 Y49.276 E41.01413
G1 X204.580 Y50.006 E41.08939
G1 X204.100 Y50.686 E41.16508
G1 X202.350 Y52.856 E41.41856
G1 X201.860 Y53.396 E41.48487
G1 X182.270 Y72.886 E43.99760
G1 X181.710 Y73.376 E44.06526
G1 X181.100 Y73.816 E44.13365
G1 X178.800 Y75.246 E44.37992
G1 X178.020 Y75.656 E44.46004
G1 X177.190 Y75.966 E44.54061
G1 X174.740 Y76.696 E44.77306
G1 X173.810 Y76.906 E44.85976
G1 X172.850 Y76.966 E44.94722
G1 X170.340 Y76.966 E45.17545
G1 X169.380 Y76.906 E45.26291
G1 X168.450 Y76.696 E45.34961
G1 X166.000 Y75.966 E45.58206
G1 X165.170 Y75.656 E45.66263
G1 X164.380 Y75.236 E45.74398
G1 X162.090 Y73.806 E45.98948
G1 X161.460 Y73.356 E46.05988
G1 X160.880 Y72.836 E46.13071
G1 X158.850 Y70.776 E46.39369
G1 X158.400 Y70.266 E46.45553
G1 X158.000 Y69.716 E46.51737
G1 X156.320 Y67.106 E46.79961
G1 X156.020 Y66.586 E46.85420
G1 X155.770 Y66.056 E46.90749
G1 X154.510 Y63.016 E47.20672
G1 X154.170 Y61.966 E47.30707
G1 X153.400 Y58.626 E47.61874
G1 X153.250 Y57.626 E47.71069
G1 X152.990 Y54.126 E48.02982
G1 X152.980 Y29.646 E50.25578
G1 X153.091 Y28.449 E50.36506
G1 F1800.000 E49.36506
G92 E0
G1 X170.221 Y40.644 F7800.000
G1 E1.00000 F1800.000
G1 X172.127 Y40.024 E1.18226 F540.000
G1 X173.305 Y41.646 E1.36452
G1 X172.127 Y43.268 E1.54677
G1 X170.221 Y42.648 E1.72903
G1 X170.221 Y40.738 E1.90277
G1 X170.845 Y41.098 F7800.000
G1 X171.888 Y40.759 E2.00246 F540.000
G1 X172.533 Y41.646 E2.10215
G1 X171.888 Y42.533 E2.20184
G1 X170.845 Y42.194 E2.30153
G1 X170.845 Y41.192 E2.39270
G1 X160.575 Y30.621 F7800.000
G1 X182.625 Y30.621 E4.39772 F540.000
G1 X182.625 Y30.687 E4.40372
G1 X185.282 Y30.687 E4.64536
G1 X188.569 Y31.185 E4.94759
G1 X191.625 Y32.158 E5.23923
G1 X194.310 Y33.550 E5.51421
G1 X196.501 Y35.290 E5.76860
G1 X198.112 Y37.282 E6.00157
G1 X199.089 Y39.429 E6.21609
G1 X199.415 Y41.646 E6.41983
G1 X199.089 Y43.863 E6.62358
G1 X198.112 Y46.010 E6.83810
G1 X196.501 Y48.002 E7.07106
G1 X194.310 Y49.742 E7.32545
G1 X191.625 Y51.134 E7.60043
G1 X188.569 Y52.107 E7.89207
G1 X185.282 Y52.605 E8.19431
G1 X182.625 Y52.605 E8.43594
G1 X182.625 Y53.609 E8.52727
G1 X182.371 Y56.991 E8.83566
G1 X181.631 Y60.181 E9.13337
G1 X180.440 Y63.067 E9.41726
G1 X178.864 Y65.519 E9.68233
G1 X176.986 Y67.429 E9.92589
G1 X174.904 Y68.727 E10.14901
G1 X172.712 Y69.379 E10.35694
G1 X170.488 Y69.379 E10.55918
G1 X168.296 Y68.727 E10.76711
G1 X166.214 Y67.429 E10.99023
G1 X164.336 Y65.519 E11.23379
G1 X162.760 Y63.067 E11.49886
G1 X161.569 Y60.181 E11.78275
G1 X160.829 Y56.991 E12.08047
G1 X160.575 Y53.609 E12.38886
G1 X160.575 Y30.715 E14.47068
G1 X159.950 Y29.996 F7800.000
G1 X183.250 Y29.996 E16.58934 F378.000
G1 X183.250 Y30.062 E16.59534
G1 X185.330 Y30.062 E16.78443
G1 X188.711 Y30.575 E17.09544
G1 X191.865 Y31.578 E17.39641
G1 X194.651 Y33.023 E17.68173
G1 X196.943 Y34.843 E17.94788
G1 X198.648 Y36.950 E18.19435
G1 X199.694 Y39.251 E18.42413
G1 X200.046 Y41.646 E18.64426
G1 X199.694 Y44.041 E18.86440
G1 X198.648 Y46.342 E19.09418
G1 X196.943 Y48.449 E19.34065
G1 X194.651 Y50.269 E19.60679
G1 X191.865 Y51.714 E19.89211
G1 X188.711 Y52.717 E20.19309
G1 X185.330 Y53.230 E20.50409
G1 X183.250 Y53.230 E20.69319
G1 X183.250 Y53.633 E20.72983
G1 X182.991 Y57.086 E21.04470
G1 X182.229 Y60.372 E21.35143
G1 X180.997 Y63.357 E21.64509
G1 X179.355 Y65.911 E21.92115
G1 X177.380 Y67.920 E22.17733
G1 X175.163 Y69.302 E22.41486
G1 X172.803 Y70.004 E22.63873
G1 X170.397 Y70.004 E22.85752
G1 X168.037 Y69.302 E23.08139
G1 X165.820 Y67.920 E23.31892
G1 X163.845 Y65.911 E23.57510
G1 X162.203 Y63.357 E23.85116
G1 X160.971 Y60.372 E24.14482
G1 X160.209 Y57.086 E24.45155
G1 X159.950 Y53.633 E24.76643
G1 X159.950 Y30.090 E26.90719
G1 X171.875 Y39.663 F7800.000
G1 X163.254 Y31.043 E28.01869 F1080.000
G1 X162.368 Y31.043 E28.09948
G1 X171.206 Y39.880 E29.23899
G1 X170.537 Y40.098 E29.30310
G1 X161.482 Y31.043 E30.47063
G1 X160.997 Y31.443 E30.52802
G1 X169.868 Y40.315 E31.67191
G1 X169.799 Y41.132 E31.74664
G1 X160.997 Y32.329 E32.88159
G1 X160.997 Y33.215 E32.96238
G1 X169.799 Y42.018 E34.09733
G1 X161.922 Y59.837 F7800.000
G1 X171.042 Y68.957 E35.27327 F1080.000
G1 X171.928 Y68.957 E35.35405
G1 X161.654 Y58.683 E36.67876
G1 X161.386 Y57.530 E36.78675
G1 X172.777 Y68.920 E38.25540
G1 X173.460 Y68.717 E38.32036
G1 X161.212 Y56.469 E39.89950
G1 X161.140 Y55.512 E39.98708
G1 X174.143 Y68.514 E41.66354
G1 X174.806 Y68.291 E41.72735
G1 X161.069 Y54.554 E43.49864
G1 X160.997 Y53.596 E43.58622
G1 X175.352 Y67.951 E45.43714
G1 X175.898 Y67.611 E45.49579
G1 X160.997 Y52.709 E47.41710
G1 X160.997 Y51.823 E47.49789
G1 X176.444 Y67.270 E49.48958
G1 X176.937 Y66.878 E49.54707
G1 X160.997 Y50.937 E51.60238
G1 X160.997 Y50.051 E51.68316
G1 X177.376 Y66.431 E53.79512
G1 X177.816 Y65.984 E53.85225
G1 X160.997 Y49.165 E56.02085
G1 X160.997 Y48.279 E56.10164
G1 X178.255 Y65.537 E58.32689
G1 X178.660 Y65.057 E58.38423
G1 X160.997 Y47.393 E60.66175
G1 X160.997 Y46.507 E60.74253
G1 X179.007 Y64.517 E63.06475
G1 X179.354 Y63.978 E63.12322
G1 X160.997 Y45.621 E65.49013
G1 X160.997 Y44.735 E65.57092
G1 X179.700 Y63.438 E67.98254
G1 X180.047 Y62.899 E68.04100
G1 X160.997 Y43.849 E70.49731
G1 X160.997 Y42.962 E70.57810
G1 X180.310 Y62.276 E73.06838
G1 X180.569 Y61.649 E73.13025
G1 X160.997 Y42.076 E75.65390
G1 X160.997 Y41.190 E75.73469
G1 X180.828 Y61.022 E78.29172
G1 X181.087 Y60.395 E78.35359
G1 X160.997 Y40.304 E80.94400
G1 X160.997 Y39.418 E81.02478
G1 X181.304 Y59.726 E83.64319
G1 X181.471 Y59.006 E83.71050
G1 X160.997 Y38.532 E86.35043
G1 X160.997 Y37.646 E86.43121
G1 X181.638 Y58.287 E89.09265
G1 X181.805 Y57.568 E89.15997
G1 X160.997 Y36.760 E91.84292
G1 X160.997 Y35.874 E91.92371
G1 X181.960 Y56.837 E94.62670
G1 X182.022 Y56.013 E94.70206
G1 X160.997 Y34.988 E97.41302
G1 X160.997 Y34.102 E97.49380
G1 X182.084 Y55.189 E100.21273
G1 X182.146 Y54.364 E100.28810
G1 X171.187 Y43.405 E101.70112
G1 X172.348 Y43.681 E101.80994
G1 X182.203 Y53.536 E103.08067
G1 X182.203 Y52.650 E103.16146
G1 X172.721 Y43.168 E104.38412
G1 X173.094 Y42.654 E104.44196
G1 X182.623 Y52.183 E105.67062
G1 X183.509 Y52.183 E105.75141
G1 X173.467 Y42.141 E107.04624
G1 X173.743 Y41.531 E107.10727
G1 X184.395 Y52.183 E108.48070
G1 X185.277 Y52.179 E108.56113
G1 X164.140 Y31.043 E111.28646
G1 X165.026 Y31.043 E111.36725
G1 X186.046 Y52.063 E114.07753
G1 X186.816 Y51.946 E114.14848
G1 X165.912 Y31.043 E116.84372
G1 X166.799 Y31.043 E116.92450
G1 X187.585 Y51.829 E119.60469
G1 X188.355 Y51.713 E119.67564
G1 X167.685 Y31.043 E122.34079
G1 X168.571 Y31.043 E122.42157
G1 X189.042 Y51.514 E125.06106
G1 X189.714 Y51.300 E125.12538
G1 X169.457 Y31.043 E127.73729
G1 X170.343 Y31.043 E127.81808
G1 X190.386 Y51.086 E130.40241
G1 X191.058 Y50.872 E130.46672
G1 X171.229 Y31.043 E133.02348
G1 X172.115 Y31.043 E133.10427
G1 X191.695 Y50.623 E135.62889
G1 X192.279 Y50.320 E135.68882
G1 X173.001 Y31.043 E138.17442
G1 X173.887 Y31.043 E138.25521
G1 X192.862 Y50.018 E140.70180
G1 X193.446 Y49.715 E140.76172
G1 X174.773 Y31.043 E143.16929
G1 X175.659 Y31.043 E143.25008
G1 X194.029 Y49.412 E145.61863
G1 X194.531 Y49.028 E145.67625
G1 X176.546 Y31.043 E147.99523
G1 X177.432 Y31.043 E148.07601
G1 X195.025 Y48.636 E150.34443
G1 X195.519 Y48.244 E150.40193
G1 X178.318 Y31.043 E152.61977
G1 X179.204 Y31.043 E152.70056
G1 X196.010 Y47.849 E154.86749
G1 X196.446 Y47.399 E154.92462
G1 X180.090 Y31.043 E157.03358
G1 X180.976 Y31.043 E157.11436
G1 X196.843 Y46.909 E159.16016
G1 X197.239 Y46.419 E159.21760
G1 X181.862 Y31.043 E161.20024
G1 X182.814 Y31.109 E161.28725
G1 X197.635 Y45.929 E163.19822
G1 X197.947 Y45.355 E163.25781
G1 X183.700 Y31.109 E165.09471
G1 X184.586 Y31.109 E165.17550
G1 X198.224 Y44.746 E166.93387
G1 X198.501 Y44.137 E166.99488
G1 X185.512 Y31.148 E168.66960
G1 X186.557 Y31.307 E168.76592
G1 X198.720 Y43.470 E170.33425
G1 X198.834 Y42.698 E170.40543
G1 X187.601 Y31.465 E171.85374
G1 X188.688 Y31.666 E171.95450
G1 X198.947 Y41.925 E173.27733
G1 X198.891 Y40.983 E173.36342
G1 X189.987 Y32.079 E174.51140
G1 X191.287 Y32.493 E174.63574
G1 X198.738 Y39.944 E175.59646
G1 X198.221 Y38.541 F7800.000
G1 X193.055 Y33.374 E176.26266 F1080.000
G1 X195.986 Y35.419 F7800.000
G1 X196.391 Y35.824 E176.31485 F1080.000
G1 X162.478 Y61.280 F7800.000
G1 X169.989 Y68.791 E177.28329 F1080.000
G1 X168.728 Y68.416 E177.40326
G1 X163.101 Y62.789 E178.12879
G1 X164.642 Y65.215 F7800.000
G1 X166.597 Y67.171 E178.38094 F1080.000
M106 S90
M104 S220 ; set temperature
G1 F1800.000 E177.38094
G92 E0
G1 Z0.600 F7800.000
G1 X171.955 Y42.739 F7800.000
G1 E1.00000 F1800.000
G1 X170.670 Y42.321 E1.04913 F1800
G1 X170.670 Y40.971 E1.09827
G1 X171.955 Y40.553 E1.14740
G1 X172.749 Y41.646 E1.19654
G1 X171.986 Y42.696 E1.24376
G1 X171.821 Y42.327 F7800.000
G1 X171.020 Y42.067 E1.27440 F1800
G1 X171.020 Y41.225 E1.30503
G1 X171.821 Y40.965 E1.33566
G1 X172.316 Y41.646 E1.36630
G1 X171.852 Y42.285 E1.39502
G1 F1800.000 E0.39502
G92 E0
G1 X183.075 Y53.055 F7800.000
G1 E1.00000 F1800.000
G1 X183.075 Y53.626 E1.02078 F1800
G1 X182.817 Y57.060 E1.14603
G1 X182.061 Y60.318 E1.26773
G1 X180.841 Y63.276 E1.38412
G1 X179.218 Y65.802 E1.49334
G1 X177.269 Y67.782 E1.59441
G1 X175.090 Y69.141 E1.68783
G1 X172.778 Y69.829 E1.77561
G1 X170.422 Y69.829 E1.86128
G1 X168.110 Y69.141 E1.94906
G1 X165.931 Y67.782 E2.04247
G1 X163.982 Y65.802 E2.14355
G1 X162.359 Y63.276 E2.25276
G1 X161.139 Y60.318 E2.36915
G1 X160.383 Y57.060 E2.49086
G1 X160.125 Y53.626 E2.61610
G1 X160.125 Y30.171 E3.46937
G1 X183.075 Y30.171 E4.30425
G1 X183.075 Y30.237 E4.30665
G1 X185.316 Y30.237 E4.38819
G1 X188.671 Y30.746 E4.51163
G1 X191.798 Y31.741 E4.63099
G1 X194.555 Y33.171 E4.74398
G1 X196.819 Y34.968 E4.84914
G1 X198.498 Y37.043 E4.94623
G1 X199.524 Y39.301 E5.03646
G1 X199.869 Y41.646 E5.12269
G1 X199.524 Y43.991 E5.20892
G1 X198.498 Y46.249 E5.29914
G1 X196.819 Y48.324 E5.39623
G1 X194.555 Y50.121 E5.50139
G1 X191.798 Y51.551 E5.61438
G1 X188.671 Y52.546 E5.73375
G1 X185.316 Y53.055 E5.85719
G1 X183.127 Y53.055 E5.93682
G1 X183.425 Y53.405 F7800.000
G1 X183.425 Y53.639 E5.94535 F1260
