; generated by Slic3r 1.1.7 on 2014-09-23 at 18:05:45

; perimeters extrusion width = 0.35mm
; infill extrusion width = 0.39mm
; solid infill extrusion width = 0.39mm
; top infill extrusion width = 0.39mm

G21 ; set units to millimeters
M107
M104 S220 ; set temperature
G28 ; home all axes
G1 Z5 F5000 ; lift nozzle

M109 S220 ; wait for temperature to be reached
G90 ; use absolute coordinates
G92 E0
M82 ; use absolute distances for extrusion
G1 F1800.000 E-1.00000
G92 E0
G1 Z0.350 F7800.000
G1 X25.561 Y58.816 F7800.000
G1 E1.00000 F1800.000
G1 X27.500 Y58.186 E1.18543 F1080.000
G1 X29.934 Y57.801 E1.40947
G1 X50.152 Y57.804 E3.24789
G1 X52.742 Y57.899 E3.48357 F1080.000
G1 X54.821 Y58.118 E3.67364
G1 X59.631 Y58.711 E4.11430
G1 X62.730 Y59.438 E4.40381
G1 X64.275 Y59.874 E4.54975
G1 X68.612 Y61.638 E4.97550
G1 X73.071 Y64.231 E5.44454
G1 X74.405 Y65.211 E5.59504
G1 X76.391 Y67.022 E5.83944
G1 X77.456 Y68.213 E5.98464
G1 X78.985 Y70.355 E6.22397
G1 X80.212 Y72.343 E6.43640
G1 X81.213 Y74.842 E6.68120
G1 X82.072 Y79.007 E7.06793
G1 X82.072 Y82.098 E7.34892
G1 X81.213 Y86.263 E7.73566
G1 X80.212 Y88.762 E7.98045
G1 X78.654 Y91.243 E8.24679
G1 X76.657 Y93.828 E8.54388
G1 X53.816 Y116.661 E11.48054
G1 X51.906 Y118.278 E11.70809
G1 X50.755 Y119.087 E11.83603
G1 X47.995 Y120.591 E12.12186
G1 X45.950 Y121.415 E12.32234
G1 X43.830 Y121.943 E12.52096
G1 X40.979 Y122.199 E12.78128
G1 X38.889 Y122.199 E12.97132
G1 X36.455 Y121.814 E13.19537
G1 X34.006 Y120.998 E13.43005
G1 X31.961 Y120.174 E13.63053
G1 X29.816 Y118.880 E13.85832
G1 X27.725 Y117.106 E14.10771
G1 X26.210 Y115.741 E14.29313
G1 X25.101 Y114.508 E14.44393
G1 X23.410 Y112.173 E14.70608
G1 X22.672 Y110.927 E14.83772
G1 X21.195 Y107.806 E15.15174
G1 X20.025 Y105.028 E15.42580
G1 X18.753 Y100.627 E15.84242
G1 X18.006 Y95.958 E16.27233
G1 X17.775 Y91.572 E16.67170
G1 X17.775 Y69.533 E18.67571
G1 X18.456 Y66.330 E18.97345
G1 X19.285 Y64.467 E19.15887
G1 X21.210 Y61.818 E19.45664
G1 X22.725 Y60.453 E19.64206
G1 X25.515 Y58.843 E19.93500
G1 X25.754 Y59.411 F7800.000
G1 X27.693 Y58.780 E20.12043 F1080.000
G1 X29.934 Y58.426 E20.32669
G1 X50.135 Y58.428 E22.16354
G1 X52.677 Y58.520 E22.39485 F1080.000
G1 X54.752 Y58.739 E22.58454
G1 X59.488 Y59.319 E23.01845
G1 X62.588 Y60.046 E23.30796
G1 X64.052 Y60.457 E23.44624
G1 X68.300 Y62.179 E23.86302
G1 X72.756 Y64.771 E24.33177
G1 X73.984 Y65.673 E24.47033
G1 X75.970 Y67.484 E24.71472
G1 X76.950 Y68.580 E24.84840
G1 X78.453 Y70.683 E25.08345
G1 X79.680 Y72.671 E25.29588
G1 X80.602 Y74.972 E25.52125
G1 X81.459 Y79.130 E25.90731
G1 X81.459 Y81.975 E26.16600
G1 X80.602 Y86.133 E26.55206
G1 X79.680 Y88.434 E26.77743
G1 X78.149 Y90.875 E27.03949
G1 X76.215 Y93.387 E27.32771
G1 X53.412 Y116.184 E30.25963
G1 X51.502 Y117.801 E30.48719
G1 X50.443 Y118.546 E30.60497
G1 X47.761 Y120.012 E30.88283
G1 X45.716 Y120.836 E31.08331
G1 X43.765 Y121.321 E31.26617
G1 X40.979 Y121.574 E31.52054
G1 X38.889 Y121.574 E31.71058
G1 X36.648 Y121.219 E31.91685
G1 X34.240 Y120.419 E32.14763
G1 X32.195 Y119.595 E32.34810
G1 X30.220 Y118.404 E32.55782
G1 X28.144 Y116.641 E32.80548
G1 X26.628 Y115.277 E32.99089
G1 X25.607 Y114.141 E33.12972
G1 X23.916 Y111.806 E33.39188
G1 X23.237 Y110.660 E33.51307
G1 X21.766 Y107.552 E33.82573
G1 X20.623 Y104.847 E34.09276
G1 X19.369 Y100.521 E34.50227
G1 X18.630 Y95.923 E34.92571
G1 X18.400 Y91.572 E35.32193
G1 X18.400 Y69.533 E37.32594
G1 X19.027 Y66.584 E37.60006
G1 X19.856 Y64.721 E37.78548
G1 X21.628 Y62.282 E38.05962
G1 X23.144 Y60.918 E38.24504
G1 X25.709 Y59.437 E38.51435
G1 X25.947 Y60.005 F7800.000
G1 X27.887 Y59.375 E38.69978 F1080.000
G1 X29.934 Y59.051 E38.88826
G1 X50.117 Y59.053 E40.72354
G1 X52.611 Y59.142 E40.95047 F1080.000
G1 X54.682 Y59.360 E41.13980
G1 X59.345 Y59.928 E41.56695
G1 X62.445 Y60.655 E41.85646
G1 X63.829 Y61.041 E41.98708
G1 X67.987 Y62.720 E42.39489
G1 X72.441 Y65.310 E42.86335
G1 X73.563 Y66.135 E42.98996
G1 X75.549 Y67.946 E43.23436
G1 X76.444 Y68.947 E43.35651
G1 X77.921 Y71.011 E43.58729
G1 X79.148 Y72.999 E43.79971
G1 X79.991 Y75.102 E44.00566
G1 X80.846 Y79.253 E44.39104
G1 X80.846 Y81.852 E44.62743
G1 X79.991 Y86.003 E45.01282
G1 X79.148 Y88.106 E45.21876
G1 X77.643 Y90.508 E45.47654
G1 X75.772 Y92.945 E45.75590
G1 X53.008 Y115.707 E48.68307
G1 X51.098 Y117.324 E48.91063
G1 X50.130 Y118.005 E49.01826
G1 X47.528 Y119.432 E49.28815
G1 X45.483 Y120.256 E49.48863
G1 X43.700 Y120.700 E49.65573
G1 X40.979 Y120.949 E49.90415
G1 X38.889 Y120.949 E50.09419
G1 X36.841 Y120.625 E50.28268
G1 X34.474 Y119.839 E50.50955
G1 X32.429 Y119.015 E50.71003
G1 X30.624 Y117.927 E50.90167
G1 X28.562 Y116.177 E51.14759
G1 X27.046 Y114.812 E51.33301
G1 X26.114 Y113.775 E51.45987
G1 X24.422 Y111.440 E51.72203
G1 X23.802 Y110.392 E51.83277
G1 X22.337 Y107.298 E52.14408
G1 X21.221 Y104.665 E52.40407
G1 X19.985 Y100.416 E52.80646
G1 X19.254 Y95.889 E53.22344
G1 X19.025 Y91.572 E53.61651
G1 X19.025 Y69.533 E55.62053
G1 X19.597 Y66.838 E55.87102
G1 X20.427 Y64.975 E56.05644
G1 X22.046 Y62.747 E56.30695
G1 X23.562 Y61.382 E56.49236
G1 X25.902 Y60.031 E56.73806
G1 F1800.000 E55.73806
G92 E0
G1 X40.973 Y82.174 F7800.000
G1 E1.00000 F1800.000
G1 X39.067 Y81.555 E1.18226 F540.000
G1 X39.067 Y79.550 E1.36452
G1 X40.973 Y78.931 E1.54677
G1 X42.151 Y80.552 E1.72903
G1 X41.004 Y82.132 E1.90651
G1 X40.735 Y81.439 F7800.000
G1 X39.692 Y81.101 E2.00620 F378.000
G1 X39.692 Y80.004 E2.10590
G1 X40.735 Y79.666 E2.20559
G1 X41.379 Y80.552 E2.30528
G1 X40.766 Y81.397 E2.40020
G1 F1800.000 E1.40020
G92 E0
G1 X54.202 Y94.152 F7800.000
G1 E1.00000 F1800.000
G1 X53.528 Y98.096 E1.36383 F540.000
G1 X53.117 Y100.031 E1.54369
G1 X52.105 Y103.363 E1.86033
G1 X50.775 Y106.167 E2.14254
G1 X48.008 Y109.983 E2.57111
G1 X46.255 Y111.467 E2.78003
G1 X44.624 Y112.409 E2.95126
G1 X42.769 Y113.156 E3.13308
G1 X40.928 Y113.350 E3.30144
G1 X39.043 Y113.350 E3.47279
G1 X37.283 Y112.778 E3.64112
G1 X35.415 Y112.025 E3.82426
G1 X33.636 Y110.519 E4.03619
G1 X32.208 Y109.234 E4.21087
G1 X30.630 Y107.055 E4.45545
G1 X29.275 Y104.196 E4.74317
G1 X28.475 Y102.399 E4.92203
G1 X27.465 Y99.074 E5.23796
G1 X26.839 Y95.413 E5.57576
G1 X26.625 Y91.545 E5.92797
G1 X26.625 Y69.740 E7.91069
G1 X27.285 Y68.256 E8.05842
G1 X28.493 Y67.169 E8.20616
G1 X30.088 Y66.650 E8.35870
G1 X49.883 Y66.650 E10.15861
G1 X50.406 Y66.705 E10.20645
G1 X51.868 Y66.705 E10.33936
G1 X57.667 Y67.340 E10.86982
G1 X61.175 Y68.163 E11.19748
G1 X64.254 Y69.341 E11.49726
G1 X68.518 Y71.820 E11.94574
G1 X70.355 Y73.495 E12.17174
G1 X71.473 Y75.034 E12.34478
G1 X72.592 Y76.847 E12.53849
G1 X73.356 Y80.553 E12.88252
G1 X72.592 Y84.258 E13.22655
G1 X71.473 Y86.071 E13.42025
G1 X70.355 Y87.610 E13.59330
G1 X68.518 Y89.285 E13.81929
G1 X64.254 Y91.764 E14.26778
G1 X61.175 Y92.942 E14.56755
G1 X57.667 Y93.765 E14.89521
G1 X54.254 Y94.146 E15.20743
G1 X54.739 Y94.721 F7800.000
G1 X54.142 Y98.214 E15.52964 F378.000
G1 X53.722 Y100.187 E15.71306
G1 X52.689 Y103.589 E16.03634
G1 X51.315 Y106.487 E16.32801
G1 X48.469 Y110.411 E16.76876
G1 X46.616 Y111.980 E16.98962
G1 X44.898 Y112.972 E17.16995
G1 X42.922 Y113.768 E17.36373
G1 X40.961 Y113.975 E17.54302
G1 X38.944 Y113.975 E17.72636
G1 X37.069 Y113.365 E17.90564
G1 X35.088 Y112.567 E18.09990
G1 X33.225 Y110.990 E18.32184
G1 X31.741 Y109.654 E18.50340
G1 X30.090 Y107.375 E18.75925
G1 X28.707 Y104.457 E19.05289
G1 X27.888 Y102.618 E19.23596
G1 X26.856 Y99.218 E19.55898
G1 X26.217 Y95.483 E19.90360
G1 X26.000 Y91.562 E20.26062
G1 X26.000 Y69.607 E22.25699
G1 X26.769 Y67.880 E22.42888
G1 X28.173 Y66.615 E22.60077
G1 X29.989 Y66.025 E22.77439
G1 X49.916 Y66.025 E24.58627
G1 X50.439 Y66.080 E24.63412
G1 X51.901 Y66.080 E24.76703
G1 X57.773 Y66.723 E25.30423
G1 X61.359 Y67.564 E25.63911
G1 X64.524 Y68.775 E25.94724
G1 X68.890 Y71.314 E26.40653
G1 X70.823 Y73.076 E26.64432
G1 X71.993 Y74.686 E26.82529
G1 X73.181 Y76.611 E27.03100
G1 X73.993 Y80.553 E27.39693
G1 X73.181 Y84.494 E27.76287
G1 X71.993 Y86.419 E27.96857
G1 X70.823 Y88.029 E28.14955
G1 X68.890 Y89.791 E28.38734
G1 X64.524 Y92.330 E28.84663
G1 X61.359 Y93.541 E29.15475
G1 X57.773 Y94.382 E29.48964
G1 X54.791 Y94.715 E29.76249
G1 X37.917 Y112.528 F7800.000
G1 X29.907 Y104.519 E30.79251 F1080.000
G1 X29.170 Y102.896 F7800.000
G1 X39.191 Y112.917 E32.08105 F1080.000
G1 X40.076 Y112.917 E32.16156
G1 X28.652 Y101.493 E33.63057
G1 X28.266 Y100.222 E33.75140
G1 X40.956 Y112.911 E35.38323
G1 X41.757 Y112.827 E35.45648
G1 X27.884 Y98.954 E37.24048
G1 X27.701 Y97.886 E37.33900
G1 X42.558 Y112.743 E39.24951
G1 X43.212 Y112.511 E39.31256
G1 X27.519 Y96.818 E41.33059
G1 X27.336 Y95.750 E41.42912
G1 X43.843 Y112.257 E43.55179
G1 X44.469 Y111.998 E43.61343
G1 X27.237 Y94.765 E45.82944
G1 X27.185 Y93.828 E45.91480
G1 X45.031 Y111.674 E48.20967
G1 X45.592 Y111.350 E48.26861
G1 X27.133 Y92.891 E50.64234
G1 X27.081 Y91.953 E50.72770
G1 X46.132 Y111.004 E53.17750
G1 X46.611 Y110.598 E53.23463
G1 X27.058 Y91.045 E55.74908
G1 X27.058 Y90.159 E55.82958
G1 X47.090 Y110.192 E58.40569
G1 X47.565 Y109.781 E58.46276
G1 X27.058 Y89.274 E61.09987
G1 X27.058 Y88.389 E61.18037
G1 X47.969 Y109.300 E63.86940
G1 X48.341 Y108.786 E63.92704
G1 X27.058 Y87.503 E66.66393
G1 X27.058 Y86.618 E66.74444
G1 X48.713 Y108.273 E69.52918
G1 X49.085 Y107.760 E69.58682
G1 X27.058 Y85.733 E72.41942
G1 X27.058 Y84.847 E72.49993
G1 X49.457 Y107.247 E75.38038
G1 X49.829 Y106.734 E75.43803
G1 X27.058 Y83.962 E78.36634
G1 X27.058 Y83.077 E78.44685
G1 X50.202 Y106.220 E81.42302
G1 X50.533 Y105.667 E81.48171
G1 X27.058 Y82.191 E84.50052
G1 X27.058 Y81.306 E84.58103
G1 X50.818 Y105.066 E87.63645
G1 X51.103 Y104.465 E87.69689
G1 X27.058 Y80.420 E90.78894
G1 X27.058 Y79.535 E90.86944
G1 X51.387 Y103.865 E93.99810
G1 X51.672 Y103.264 E94.05854
G1 X27.058 Y78.650 E97.22381
G1 X27.058 Y77.764 E97.30432
G1 X51.886 Y102.593 E100.49709
G1 X52.092 Y101.914 E100.56162
G1 X27.058 Y76.879 E103.78092
G1 X27.058 Y75.994 E103.86142
G1 X52.298 Y101.235 E107.10723
G1 X52.505 Y100.555 E107.17177
G1 X27.058 Y75.108 E110.44411
G1 X27.058 Y74.223 E110.52461
G1 X52.707 Y99.873 E113.82302
G1 X52.863 Y99.143 E113.89090
G1 X27.058 Y73.338 E117.20926
G1 X27.058 Y72.452 E117.28976
G1 X53.018 Y98.412 E120.62808
G1 X53.161 Y97.671 E120.69680
G1 X27.058 Y71.567 E124.05356
G1 X29.111 Y67.423 F7800.000
G1 X40.362 Y78.674 E125.50038 F1080.000
G1 X39.694 Y78.891 E125.56426
G1 X28.525 Y67.722 E127.00052
G1 X28.059 Y68.142 E127.05753
G1 X39.026 Y79.108 E128.46777
G1 X38.634 Y79.602 E128.52507
G1 X27.614 Y68.582 E129.94216
G1 X27.341 Y69.195 E130.00313
G1 X38.634 Y80.487 E131.45530
G1 X38.634 Y81.373 E131.53580
G1 X27.069 Y69.807 E133.02304
G1 X27.058 Y70.682 E133.10254
G1 X53.290 Y96.914 E136.47593
G1 X53.420 Y96.158 E136.54568
G1 X39.370 Y82.108 E138.35243
G1 X40.681 Y82.534 E138.47782
G1 X53.549 Y95.402 E140.13256
G1 X53.678 Y94.646 E140.20231
G1 X41.381 Y82.349 E141.78364
G1 X41.754 Y81.836 E141.84127
G1 X53.808 Y93.890 E143.39132
G1 X54.487 Y93.684 E143.45588
G1 X42.126 Y81.324 E145.04540
G1 X42.499 Y80.811 E145.10304
G1 X55.284 Y93.595 E146.74706
G1 X56.080 Y93.507 E146.81992
G1 X29.779 Y67.206 E150.20201
G1 X30.542 Y67.083 E150.27226
G1 X56.876 Y93.418 E153.65868
G1 X57.665 Y93.321 E153.73091
G1 X31.428 Y67.083 E157.10488
G1 X32.313 Y67.083 E157.18538
G1 X58.382 Y93.153 E160.53772
G1 X59.099 Y92.984 E160.60470
G1 X33.198 Y67.083 E163.93541
G1 X34.084 Y67.083 E164.01592
G1 X59.816 Y92.816 E167.32500
G1 X60.534 Y92.648 E167.39198
G1 X34.969 Y67.083 E170.67944
G1 X35.854 Y67.083 E170.75994
G1 X61.229 Y92.458 E174.02298
G1 X61.869 Y92.213 E174.08533
G1 X36.740 Y67.083 E177.31686
G1 X37.625 Y67.083 E177.39737
G1 X62.510 Y91.968 E180.59740
G1 X63.150 Y91.723 E180.65975
G1 X38.510 Y67.083 E183.82828
G1 X39.396 Y67.083 E183.90879
G1 X63.791 Y91.478 E187.04583
G1 X64.385 Y91.187 E187.10601
G1 X40.281 Y67.083 E190.20565
G1 X41.166 Y67.083 E190.28616
G1 X64.945 Y90.862 E193.34394
G1 X65.505 Y90.536 E193.40283
G1 X42.052 Y67.083 E196.41875
G1 X42.937 Y67.083 E196.49925
G1 X66.065 Y90.211 E199.47331
G1 X66.624 Y89.885 E199.53219
G1 X43.822 Y67.083 E202.46439
G1 X44.708 Y67.083 E202.54489
G1 X67.184 Y89.560 E205.43523
G1 X67.744 Y89.234 E205.49411
G1 X45.593 Y67.083 E208.34258
G1 X46.479 Y67.083 E208.42309
G1 X68.296 Y88.901 E211.22873
G1 X68.759 Y88.479 E211.28572
G1 X47.364 Y67.083 E214.03706
G1 X48.249 Y67.083 E214.11756
G1 X69.223 Y88.057 E216.81460
G1 X69.686 Y87.634 E216.87159
G1 X49.135 Y67.083 E219.51432
G1 X50.039 Y67.102 E219.59655
G1 X70.126 Y87.189 E222.17959
G1 X70.498 Y86.676 E222.23723
G1 X50.955 Y67.133 E224.75032
G1 X51.846 Y67.139 E224.83130
G1 X70.871 Y86.163 E227.27777
G1 X71.231 Y85.638 E227.33567
G1 X52.840 Y67.247 E229.70065
G1 X53.834 Y67.356 E229.79159
G1 X71.569 Y85.091 E232.07218
G1 X71.907 Y84.544 E232.13068
G1 X54.828 Y67.465 E234.32688
G1 X55.823 Y67.574 E234.41782
G1 X72.211 Y83.962 E236.52526
G1 X72.362 Y83.228 E236.59341
G1 X56.817 Y67.683 E238.59247
G1 X57.846 Y67.827 E238.68701
G1 X72.514 Y82.494 E240.57313
G1 X72.665 Y81.760 E240.64128
G1 X59.003 Y68.098 E242.39813
G1 X60.160 Y68.369 E242.50615
G1 X72.816 Y81.026 E244.13374
G1 X72.832 Y80.157 E244.21279
G1 X61.380 Y68.705 E245.68545
G1 X62.814 Y69.253 F7800.000
G1 X72.602 Y79.042 E246.94416 F1080.000
G1 X72.372 Y77.926 E247.04772
G1 X64.334 Y69.888 E248.08140
G1 X66.450 Y71.118 F7800.000
G1 X71.929 Y76.598 E248.78605 F1080.000
G1 X70.106 Y73.889 F7800.000
G1 X69.708 Y73.491 E248.83717 F1080.000
G1 X36.498 Y111.994 F7800.000
G1 X30.705 Y106.202 E249.58205 F1080.000
G1 X32.457 Y108.839 F7800.000
G1 X32.817 Y109.199 E249.62829 F1080.000
M104 S220 ; set temperature
G1 F1800.000 E248.62829
G92 E0
G1 Z0.600 F7800.000
G1 X45.091 Y85.769 F7800.000
G1 E1.00000 F1800.000
G1 X44.830 Y86.049 E1.01394 F1800.000
G1 X43.015 Y87.097 E1.09018
G1 X40.972 Y87.564 E1.16642
G1 X38.882 Y87.407 E1.24267
G1 X36.931 Y86.641 E1.31891
G1 X35.292 Y85.335 E1.39515
G1 X34.112 Y83.603 E1.47139
G1 X33.494 Y81.600 E1.54763
G1 X33.494 Y79.505 E1.62388
G1 X34.112 Y77.502 E1.70012
G1 X35.292 Y75.770 E1.77636
G1 X36.931 Y74.464 E1.85260
G1 X38.882 Y73.698 E1.92884
G1 X40.972 Y73.541 E2.00509
G1 X42.749 Y73.947 E2.07140
G1 X43.015 Y74.008 E2.08133 F1800.000
G1 X44.830 Y75.055 E2.15757
G1 X46.256 Y76.592 E2.23381
G1 X47.165 Y78.480 E2.31005
G1 X47.477 Y80.552 E2.38630
G1 X47.165 Y82.625 E2.46254
G1 X46.256 Y84.513 E2.53878
G1 X45.127 Y85.730 E2.59917
G1 X44.834 Y85.531 F7800.000
G1 X44.609 Y85.773 E2.61119 F1260.000
G1 X42.886 Y86.768 E2.68360
G1 X40.945 Y87.211 E2.75600
G1 X38.961 Y87.062 E2.82840
G1 X37.108 Y86.335 E2.90081
G1 X35.552 Y85.094 E2.97321
G1 X34.431 Y83.450 E3.04562
G1 X33.844 Y81.548 E3.11802
G1 X33.844 Y79.557 E3.19042
G1 X34.431 Y77.655 E3.26283
G1 X35.552 Y76.011 E3.33523
G1 X37.108 Y74.770 E3.40763
G1 X38.961 Y74.043 E3.48004
G1 X40.726 Y73.911 E3.54443
G1 X40.945 Y73.894 E3.55244 F1260.000
G1 X42.886 Y74.337 E3.62485
G1 X44.609 Y75.332 E3.69725
G1 X45.963 Y76.791 E3.76965
G1 X46.827 Y78.584 E3.84206
G1 X47.123 Y80.552 E3.91446
G1 X46.827 Y82.521 E3.98686
G1 X45.963 Y84.314 E4.05927
G1 X44.870 Y85.492 E4.11774
G1 X54.589 Y94.561 F7800.000
G1 X53.970 Y98.181 E4.25131 F1800.000
G1 X53.553 Y100.143 E4.32429
G1 X52.525 Y103.525 E4.45289
G1 X51.164 Y106.397 E4.56851
G1 X48.340 Y110.291 E4.74348
G1 X46.515 Y111.837 E4.83050
G1 X44.821 Y112.814 E4.90163
G1 X42.879 Y113.597 E4.97781
G1 X40.951 Y113.800 E5.04832
G1 X38.972 Y113.800 E5.12032
G1 X37.129 Y113.201 E5.19082
G1 X35.179 Y112.415 E5.26729
G1 X33.340 Y110.858 E5.35496
G1 X31.872 Y109.536 E5.42683
G1 X30.242 Y107.285 E5.52792
G1 X28.866 Y104.384 E5.64474
G1 X28.053 Y102.556 E5.71751
G1 X27.027 Y99.178 E5.84594
G1 X26.391 Y95.463 E5.98305
G1 X26.175 Y91.558 E6.12535
G1 X26.175 Y69.644 E6.92251
G1 X26.913 Y67.985 E6.98857
G1 X28.263 Y66.770 E7.05463
G1 X30.017 Y66.200 E7.12173
G1 X49.906 Y66.200 E7.84527
G1 X50.430 Y66.255 E7.86441
G1 X51.891 Y66.255 E7.91758
G1 X57.743 Y66.896 E8.13175
G1 X61.307 Y67.732 E8.26491
G1 X64.448 Y68.933 E8.38725
G1 X68.786 Y71.455 E8.56979
G1 X70.692 Y73.193 E8.66360
G1 X71.847 Y74.783 E8.73511
G1 X73.016 Y76.677 E8.81607
