; generated by Slic3r 1.0.0RC2 on 2014-01-10 at 14:37:01

; layer_height = 0.25
; perimeters = 1
; top_solid_layers = 3
; bottom_solid_layers = 3
; fill_density = 0.4
; perimeter_speed = 30
; infill_speed = 60
; travel_speed = 130
; nozzle_diameter = 0.35
; filament_diameter = 1.75
; extrusion_multiplier = 1
; perimeters extrusion width = 0.35mm
; infill extrusion width = 0.39mm
; solid infill extrusion width = 0.39mm
; top infill extrusion width = 0.39mm
; first layer extrusion width = 0.70mm

G21 ; set units to millimeters
M107
M104 S220 ; set temperature
G28 ; home all axes
G1 Z5 F5000 ; lift nozzle

M109 S220 ; wait for temperature to be reached
G90 ; use absolute coordinates
G92 E0
M82 ; use absolute distances for extrusion
G1 F1800.000 E-1.00000
G92 E0
G1 Z0.350 F7800.000
G1 X143.174 Y23.636 F7800.000
G1 E1.00000 F1800.000
G1 X143.464 Y22.396 E1.11580 F540.000
G1 X143.954 Y21.216 E1.23198
G1 X144.804 Y19.566 E1.40075
G1 X145.444 Y18.536 E1.51101
G1 X146.234 Y17.606 E1.62197
G1 X147.544 Y16.296 E1.79043
G1 X148.474 Y15.506 E1.90138
G1 X149.504 Y14.866 E2.01165
G1 X151.154 Y14.016 E2.18042
G1 X152.334 Y13.526 E2.29660
G1 X153.574 Y13.236 E2.41239
G1 X155.404 Y12.956 E2.58073
G1 X156.594 Y12.866 E2.68925
G1 X180.794 Y12.866 E4.88974
G1 X183.174 Y12.926 E5.10622
G1 X183.844 Y12.966 E5.16726
G1 X188.514 Y13.486 E5.59452
G1 X190.704 Y13.826 E5.79604
G1 X191.274 Y13.936 E5.84883
G1 X195.624 Y14.956 E6.25510
G1 X196.644 Y15.276 E6.35231
G1 X200.504 Y16.756 E6.72821
G1 X201.254 Y17.086 E6.80272
G1 X203.304 Y18.146 E7.01257
G1 X206.494 Y20.006 E7.34834
G1 X207.194 Y20.466 E7.42450
G1 X207.844 Y20.996 E7.50076
G1 X210.224 Y23.176 E7.79424
G1 X211.774 Y24.706 E7.99228
G1 X212.394 Y25.396 E8.07663
G1 X212.924 Y26.156 E8.16088
G1 X214.394 Y28.536 E8.41524
G1 X214.714 Y29.106 E8.47468
G1 X215.554 Y30.756 E8.64304
G1 X215.974 Y31.746 E8.74083
G1 X216.254 Y32.786 E8.83876
G1 X216.754 Y35.286 E9.07059
G1 X217.104 Y37.426 E9.26776
G1 X217.194 Y38.656 E9.37990
G1 X217.104 Y39.886 E9.49205
G1 X216.754 Y42.026 E9.68922
G1 X216.254 Y44.526 E9.92105
G1 X215.974 Y45.566 E10.01898
G1 X215.554 Y46.556 E10.11677
G1 X214.714 Y48.206 E10.28512
G1 X214.404 Y48.766 E10.34333
G1 X212.934 Y51.156 E10.59846
G1 X212.404 Y51.906 E10.68197
G1 X211.794 Y52.596 E10.76571
G1 X183.624 Y80.786 E14.38949
G1 X183.164 Y81.206 E14.44613
G1 X180.874 Y83.146 E14.71903
G1 X180.144 Y83.696 E14.80214
G1 X179.354 Y84.156 E14.88527
G1 X177.704 Y84.996 E15.05363
G1 X177.084 Y85.276 E15.11549
G1 X174.634 Y86.266 E15.35576
G1 X173.784 Y86.556 E15.43743
G1 X172.914 Y86.746 E15.51840
G1 X171.084 Y87.036 E15.68688
G1 X169.854 Y87.126 E15.79902
G1 X167.344 Y87.126 E16.02725
G1 X166.114 Y87.036 E16.13940
G1 X164.284 Y86.746 E16.30787
G1 X163.414 Y86.556 E16.38885
G1 X162.574 Y86.276 E16.46936
G1 X160.114 Y85.286 E16.71048
G1 X159.484 Y84.996 E16.77354
G1 X157.834 Y84.156 E16.94190
G1 X157.044 Y83.696 E17.02503
G1 X156.314 Y83.146 E17.10814
G1 X154.024 Y81.206 E17.38104
G1 X153.544 Y80.766 E17.44025
G1 X152.234 Y79.456 E17.60871
G1 X151.424 Y78.506 E17.72223
G1 X149.394 Y75.706 E18.03671
G1 X148.774 Y74.696 E18.14447
G1 X147.794 Y72.786 E18.33967
G1 X146.124 Y69.236 E18.69640
G1 X145.724 Y68.186 E18.79857
G1 X144.464 Y64.066 E19.19033
G1 X144.234 Y63.086 E19.28186
G1 X143.444 Y58.456 E19.70895
G1 X143.154 Y56.626 E19.87743
G1 X143.074 Y55.826 E19.95054
G1 X142.804 Y50.656 E20.42128
G1 X142.804 Y26.656 E22.60359
G1 X142.894 Y25.466 E22.71211
G1 X143.160 Y23.729 E22.87192
G1 X143.784 Y23.726 F7800.000
G1 X144.054 Y22.586 E22.97845 F540.000
G1 X144.514 Y21.506 E23.08519
G1 X145.364 Y19.856 E23.25396
G1 X145.944 Y18.906 E23.35517
G1 X146.674 Y18.046 E23.45774
G1 X147.984 Y16.736 E23.62620
G1 X148.844 Y16.006 E23.72878
G1 X149.794 Y15.426 E23.82999
G1 X151.444 Y14.576 E23.99876
G1 X152.524 Y14.116 E24.10550
G1 X153.664 Y13.846 E24.21203
G1 X155.494 Y13.566 E24.38036
G1 X156.594 Y13.486 E24.48065
G1 X180.774 Y13.486 E26.67933
G1 X183.154 Y13.546 E26.89581
G1 X183.774 Y13.586 E26.95230
G1 X188.444 Y14.106 E27.37957
G1 X190.604 Y14.446 E27.57839
G1 X191.134 Y14.546 E27.62744
G1 X195.484 Y15.566 E28.03371
G1 X196.424 Y15.856 E28.12316
G1 X200.284 Y17.336 E28.49906
G1 X200.974 Y17.646 E28.56784
G1 X202.984 Y18.686 E28.77363
G1 X206.174 Y20.546 E29.10940
G1 X206.824 Y20.966 E29.17977
G1 X207.424 Y21.456 E29.25021
G1 X210.014 Y23.836 E29.57005
G1 X211.334 Y25.146 E29.73915
G1 X211.904 Y25.786 E29.81708
G1 X212.394 Y26.486 E29.89478
G1 X213.864 Y28.866 E30.14914
G1 X214.154 Y29.386 E30.20328
G1 X214.994 Y31.036 E30.37164
G1 X215.384 Y31.946 E30.46166
G1 X215.644 Y32.906 E30.55210
G1 X216.144 Y35.406 E30.78392
G1 X216.484 Y37.526 E30.97916
G1 X216.574 Y38.656 E31.08223
G1 X216.484 Y39.786 E31.18531
G1 X216.144 Y41.906 E31.38054
G1 X215.644 Y44.406 E31.61237
G1 X215.384 Y45.366 E31.70281
G1 X214.994 Y46.276 E31.79283
G1 X214.154 Y47.926 E31.96119
G1 X213.874 Y48.436 E32.01409
G1 X212.404 Y50.826 E32.26923
G1 X211.914 Y51.516 E32.34618
G1 X211.354 Y52.146 E32.42283
G1 X183.184 Y80.346 E36.04725
G1 X182.764 Y80.726 E36.09875
G1 X180.474 Y82.666 E36.37165
G1 X179.794 Y83.176 E36.44895
G1 X179.074 Y83.596 E36.52474
G1 X177.424 Y84.436 E36.69310
G1 X176.854 Y84.696 E36.75006
G1 X174.404 Y85.686 E36.99034
G1 X173.624 Y85.956 E37.06540
G1 X172.814 Y86.126 E37.14065
G1 X170.984 Y86.416 E37.30913
G1 X169.854 Y86.506 E37.41221
G1 X167.344 Y86.506 E37.64044
G1 X166.214 Y86.416 E37.74352
G1 X164.384 Y86.126 E37.91199
G1 X163.584 Y85.956 E37.98636
G1 X162.804 Y85.696 E38.06112
G1 X160.344 Y84.706 E38.30224
G1 X159.764 Y84.436 E38.36042
G1 X158.114 Y83.596 E38.52877
G1 X157.394 Y83.176 E38.60457
G1 X156.714 Y82.666 E38.68186
G1 X154.424 Y80.726 E38.95476
G1 X153.984 Y80.326 E39.00884
G1 X152.674 Y79.016 E39.17729
G1 X151.934 Y78.146 E39.28115
G1 X149.904 Y75.346 E39.59562
G1 X149.334 Y74.406 E39.69558
G1 X148.364 Y72.526 E39.88794
G1 X146.694 Y68.976 E40.24468
G1 X146.324 Y68.006 E40.33908
G1 X145.064 Y63.886 E40.73084
G1 X144.844 Y62.976 E40.81597
G1 X144.074 Y58.436 E41.23468
G1 X143.774 Y56.526 E41.41049
G1 X143.694 Y55.796 E41.47726
G1 X143.424 Y50.656 E41.94529
G1 X143.424 Y26.656 E44.12760
G1 X143.504 Y25.556 E44.22788
G1 X143.770 Y23.819 E44.38770
G1 X144.404 Y23.826 F7800.000
G1 X144.654 Y22.786 E44.48496 F540.000
G1 X145.064 Y21.796 E44.58239
G1 X145.914 Y20.146 E44.75116
G1 X146.454 Y19.266 E44.84505
G1 X147.124 Y18.496 E44.93786
G1 X148.434 Y17.186 E45.10631
G1 X149.204 Y16.516 E45.19913
G1 X150.084 Y15.976 E45.29301
G1 X151.734 Y15.126 E45.46178
G1 X152.724 Y14.716 E45.55921
G1 X153.764 Y14.466 E45.65647
G1 X155.594 Y14.186 E45.82481
G1 X156.594 Y14.116 E45.91596
G1 X180.764 Y14.116 E48.11373
G1 X183.144 Y14.176 E48.33021
G1 X183.704 Y14.216 E48.38126
G1 X188.374 Y14.736 E48.80853
G1 X190.514 Y15.066 E49.00542
G1 X190.984 Y15.156 E49.04893
G1 X195.334 Y16.176 E49.45520
G1 X196.194 Y16.436 E49.53690
G1 X200.054 Y17.916 E49.91280
G1 X200.694 Y18.206 E49.97669
G1 X202.674 Y19.226 E50.17922
G1 X205.864 Y21.086 E50.51499
G1 X206.454 Y21.476 E50.57930
G1 X206.994 Y21.916 E50.64264
G1 X209.574 Y24.286 E50.96120
G1 X210.894 Y25.596 E51.13030
G1 X211.414 Y26.176 E51.20113
G1 X211.864 Y26.816 E51.27227
G1 X213.334 Y29.196 E51.52663
G1 X213.594 Y29.666 E51.57547
G1 X214.434 Y31.316 E51.74383
G1 X214.794 Y32.156 E51.82693
G1 X215.034 Y33.026 E51.90899
G1 X215.534 Y35.526 E52.14082
G1 X215.864 Y37.616 E52.33322
G1 X215.944 Y38.656 E52.42806
G1 X215.864 Y39.696 E52.52291
G1 X215.534 Y41.786 E52.71531
G1 X215.034 Y44.286 E52.94713
G1 X214.794 Y45.156 E53.02920
G1 X214.434 Y45.996 E53.11230
G1 X213.594 Y47.646 E53.28065
G1 X213.334 Y48.106 E53.32870
G1 X211.864 Y50.496 E53.58384
G1 X211.424 Y51.126 E53.65371
G1 X210.914 Y51.706 E53.72394
G1 X182.744 Y79.896 E57.34772
G1 X182.354 Y80.246 E57.39536
G1 X180.064 Y82.186 E57.66827
G1 X179.454 Y82.656 E57.73829
G1 X178.794 Y83.036 E57.80754
G1 X177.144 Y83.876 E57.97590
G1 X176.614 Y84.116 E58.02880
G1 X174.164 Y85.106 E58.26908
G1 X173.454 Y85.346 E58.33723
G1 X172.724 Y85.506 E58.40518
G1 X170.894 Y85.796 E58.57366
G1 X169.854 Y85.876 E58.66851
G1 X167.344 Y85.876 E58.89674
G1 X166.304 Y85.796 E58.99159
G1 X164.474 Y85.506 E59.16006
G1 X163.744 Y85.356 E59.22783
G1 X163.044 Y85.116 E59.29512
G1 X160.584 Y84.126 E59.53624
G1 X160.044 Y83.876 E59.59035
G1 X158.394 Y83.036 E59.75870
G1 X157.734 Y82.656 E59.82795
G1 X157.124 Y82.186 E59.89798
G1 X154.834 Y80.246 E60.17088
G1 X154.434 Y79.876 E60.22043
G1 X153.124 Y78.566 E60.38889
G1 X152.444 Y77.776 E60.48367
G1 X150.414 Y74.976 E60.79814
G1 X149.884 Y74.116 E60.89000
G1 X148.934 Y72.256 E61.07991
G1 X147.264 Y68.706 E61.43664
G1 X146.914 Y67.826 E61.52276
G1 X145.654 Y63.706 E61.91452
G1 X145.464 Y62.876 E61.99194
G1 X144.694 Y58.336 E62.41066
G1 X144.394 Y56.436 E62.58556
G1 X144.324 Y55.756 E62.64772
G1 X144.054 Y50.656 E63.11211
G1 X144.054 Y26.656 E65.29442
G1 X144.124 Y25.656 E65.38557
G1 X144.390 Y23.919 E65.54539
G1 F1800.000 E64.54539
G92 E0
G1 X151.903 Y25.136 F7800.000
G1 E1.00000 F1800.000
G1 X152.604 Y23.759 E1.14051 F540.000
G1 X153.697 Y22.667 E1.28102
G1 X155.074 Y21.965 E1.42153
G1 X156.677 Y21.711 E1.56911
G1 X180.523 Y21.711 E3.73747
G1 X180.940 Y21.777 E3.77583
G1 X182.929 Y21.777 E3.95666
G1 X187.515 Y22.290 E4.37625
G1 X189.289 Y22.571 E4.53957
G1 X193.545 Y23.569 E4.93707
G1 X197.292 Y25.001 E5.30183
G1 X198.872 Y25.806 E5.46314
G1 X201.948 Y27.605 E5.78710
G1 X204.240 Y29.693 E6.06903
G1 X205.454 Y30.907 E6.22519
G1 X206.846 Y33.162 E6.46614
G1 X207.608 Y34.659 E6.61889
G1 X208.076 Y37.003 E6.83623
G1 X208.339 Y38.662 E6.98901
G1 X208.076 Y40.322 E7.14180
G1 X207.608 Y42.666 E7.35914
G1 X206.846 Y44.163 E7.51189
G1 X205.454 Y46.418 E7.75284
G1 X204.240 Y47.632 E7.90900
G1 X201.948 Y49.720 E8.19093
G1 X198.872 Y51.519 E8.51489
G1 X197.292 Y52.324 E8.67620
G1 X193.545 Y53.756 E9.04095
G1 X189.289 Y54.754 E9.43846
G1 X187.515 Y55.035 E9.60178
G1 X185.296 Y55.283 E9.80475
G1 X185.012 Y57.076 E9.96984
G1 X184.249 Y61.543 E10.38188
G1 X183.032 Y65.542 E10.76199
G1 X181.391 Y69.008 E11.11065
G1 X180.590 Y70.579 E11.27103
G1 X178.650 Y73.256 E11.57163
G1 X177.423 Y74.484 E11.72951
G1 X175.248 Y76.325 E11.98858
G1 X173.735 Y77.096 E12.14299
G1 X171.423 Y78.028 E12.36963
G1 X169.777 Y78.289 E12.52117
G1 X167.423 Y78.289 E12.73527
G1 X165.777 Y78.028 E12.88681
G1 X163.465 Y77.096 E13.11346
G1 X161.952 Y76.325 E13.26786
G1 X159.777 Y74.484 E13.52694
G1 X158.550 Y73.256 E13.68482
G1 X156.610 Y70.579 E13.98541
G1 X155.809 Y69.008 E14.14580
G1 X154.168 Y65.542 E14.49445
G1 X152.951 Y61.543 E14.87457
G1 X152.188 Y57.076 E15.28660
G1 X151.907 Y55.300 E15.45013
G1 X151.649 Y50.636 E15.87492
G1 X151.649 Y26.739 E18.04781
G1 X151.888 Y25.229 E18.18686
G1 X151.301 Y24.941 F7800.000
G1 X152.092 Y23.387 E18.34538 F378.000
G1 X153.325 Y22.155 E18.50388
G1 X154.878 Y21.363 E18.66239
G1 X156.628 Y21.086 E18.82344
G1 X180.572 Y21.086 E21.00074
G1 X180.989 Y21.152 E21.03911
G1 X182.964 Y21.152 E21.21863
G1 X187.598 Y21.670 E21.64268
G1 X189.409 Y21.957 E21.80938
G1 X193.728 Y22.970 E22.21281
G1 X197.546 Y24.429 E22.58442
G1 X199.172 Y25.257 E22.75040
G1 X202.320 Y27.099 E23.08197
G1 X204.672 Y29.240 E23.37121
G1 X205.948 Y30.517 E23.53533
G1 X207.391 Y32.856 E23.78524
G1 X208.204 Y34.452 E23.94815
G1 X208.691 Y36.893 E24.17446
G1 X208.972 Y38.662 E24.33738
G1 X208.691 Y40.432 E24.50030
G1 X208.204 Y42.873 E24.72661
G1 X207.391 Y44.469 E24.88952
G1 X205.948 Y46.808 E25.13943
G1 X204.672 Y48.085 E25.30355
G1 X202.320 Y50.226 E25.59278
G1 X199.172 Y52.068 E25.92436
G1 X197.546 Y52.896 E26.09034
G1 X193.728 Y54.355 E26.46195
G1 X189.409 Y55.368 E26.86537
G1 X187.598 Y55.655 E27.03207
G1 X185.839 Y55.851 E27.19305
G1 X185.629 Y57.178 E27.31518
G1 X184.858 Y61.687 E27.73114
G1 X183.617 Y65.768 E28.11903
G1 X181.952 Y69.283 E28.47269
G1 X181.125 Y70.907 E28.63834
G1 X179.127 Y73.663 E28.94788
G1 X177.846 Y74.944 E29.11262
G1 X175.596 Y76.848 E29.38065
G1 X173.994 Y77.665 E29.54415
G1 X171.591 Y78.634 E29.77975
G1 X169.826 Y78.914 E29.94222
G1 X167.374 Y78.914 E30.16526
G1 X165.609 Y78.634 E30.32773
G1 X163.206 Y77.665 E30.56333
G1 X161.604 Y76.848 E30.72683
G1 X159.354 Y74.944 E30.99486
G1 X158.073 Y73.663 E31.15960
G1 X156.075 Y70.907 E31.46914
G1 X155.248 Y69.283 E31.63479
G1 X153.583 Y65.768 E31.98845
G1 X152.342 Y61.687 E32.37634
G1 X151.571 Y57.178 E32.79230
G1 X151.284 Y55.366 E32.95908
G1 X151.024 Y50.653 E33.38833
G1 X151.024 Y26.690 E35.56726
G1 X151.286 Y25.033 E35.71978
G1 X155.077 Y66.476 F7800.000
G1 X166.281 Y77.681 E37.16859 F1080.000
G1 X167.337 Y77.848 E37.26633
G1 X154.424 Y64.935 E38.93608
G1 X154.035 Y63.658 E39.05811
G1 X168.244 Y77.867 E40.89542
G1 X169.133 Y77.867 E40.97666
G1 X153.647 Y62.381 E42.97908
G1 X153.314 Y61.159 E43.09490
G1 X169.984 Y77.829 E45.25043
G1 X170.751 Y77.708 E45.32144
G1 X153.130 Y60.087 E47.59986
G1 X152.947 Y59.015 E47.69928
G1 X171.482 Y77.550 E50.09589
G1 X172.115 Y77.294 E50.15832
G1 X152.764 Y57.943 E52.66049
G1 X152.583 Y56.874 E52.75970
G1 X172.748 Y77.039 E55.36718
G1 X173.381 Y76.784 E55.42961
G1 X152.415 Y55.818 E58.14058
G1 X152.302 Y54.816 E58.23278
G1 X173.982 Y76.496 E61.03615
G1 X174.571 Y76.196 E61.09656
G1 X152.250 Y53.875 E63.98276
G1 X152.198 Y52.935 E64.06889
G1 X175.133 Y75.869 E67.03447
G1 X175.614 Y75.462 E67.09212
G1 X152.146 Y51.994 E70.12665
G1 X152.094 Y51.053 E70.21278
G1 X176.095 Y75.055 E73.31626
G1 X176.577 Y74.647 E73.37391
G1 X152.070 Y50.141 E76.54269
G1 X152.070 Y49.252 E76.62394
G1 X177.042 Y74.224 E79.85286
G1 X177.486 Y73.780 E79.91031
G1 X152.070 Y48.364 E83.19668
G1 X152.070 Y47.475 E83.27792
G1 X177.930 Y73.335 E86.62174
G1 X178.375 Y72.891 E86.67919
G1 X152.070 Y46.587 E90.08047
G1 X152.070 Y45.698 E90.16171
G1 X178.759 Y72.387 E93.61273
G1 X179.133 Y71.872 E93.67090
G1 X152.070 Y44.809 E97.17020
G1 X152.070 Y43.921 E97.25145
G1 X179.506 Y71.357 E100.79902
G1 X179.880 Y70.841 E100.85720
G1 X152.070 Y43.032 E104.45306
G1 X152.070 Y42.144 E104.53431
G1 X180.248 Y70.322 E108.17785
G1 X180.548 Y69.733 E108.23826
G1 X152.070 Y41.255 E111.92059
G1 X152.070 Y40.366 E112.00184
G1 X180.848 Y69.144 E115.72295
G1 X181.142 Y68.549 E115.78363
G1 X152.070 Y39.478 E119.54269
G1 X152.070 Y38.589 E119.62394
G1 X181.427 Y67.946 E123.41993
G1 X181.713 Y67.343 E123.48093
G1 X152.070 Y37.701 E127.31385
G1 X152.070 Y36.812 E127.39510
G1 X181.999 Y66.740 E131.26495
G1 X182.284 Y66.137 E131.32596
G1 X152.070 Y35.923 E135.23273
G1 X152.070 Y35.035 E135.31398
G1 X182.570 Y65.534 E139.25769
G1 X182.796 Y64.871 E139.32170
G1 X152.070 Y34.146 E143.29462
G1 X152.070 Y33.257 E143.37587
G1 X183.003 Y64.190 E147.37558
G1 X183.210 Y63.509 E147.44070
G1 X152.070 Y32.369 E151.46721
G1 X152.070 Y31.480 E151.54845
G1 X183.417 Y62.827 E155.60175
G1 X183.625 Y62.146 E155.66687
G1 X152.070 Y30.592 E159.74697
G1 X152.070 Y29.703 E159.82821
G1 X183.832 Y61.464 E163.93510
G1 X183.964 Y60.708 E164.00533
G1 X152.070 Y28.814 E168.12927
G1 X152.070 Y27.926 E168.21052
G1 X184.093 Y59.949 E172.35123
G1 X184.223 Y59.190 E172.42162
G1 X152.070 Y27.037 E176.57911
G1 X152.156 Y26.234 E176.65298
G1 X184.353 Y58.431 E180.81622
G1 X184.483 Y57.672 E180.88661
G1 X152.277 Y25.467 E185.05092
G1 X152.531 Y24.832 E185.11343
G1 X184.611 Y56.912 E189.26157
G1 X184.733 Y56.145 E189.33258
G1 X152.831 Y24.243 E193.45765
G1 X153.240 Y23.764 E193.51527
G1 X184.854 Y55.378 E197.60311
G1 X185.231 Y54.866 E197.66122
G1 X153.685 Y23.320 E201.74033
G1 X154.158 Y22.905 E201.79791
G1 X186.030 Y54.777 E205.91911
G1 X186.830 Y54.688 E205.99265
G1 X154.747 Y22.605 E210.14109
G1 X155.375 Y22.344 E210.20326
G1 X187.622 Y54.591 E214.37295
G1 X188.389 Y54.470 E214.44396
G1 X156.142 Y22.223 E218.61365
G1 X156.941 Y22.133 E218.68714
G1 X189.156 Y54.348 E222.85275
G1 X189.879 Y54.183 E222.92057
G1 X157.829 Y22.133 E227.06476
G1 X158.718 Y22.133 E227.14601
G1 X190.599 Y54.014 E231.26838
G1 X191.319 Y53.845 E231.33599
G1 X159.607 Y22.133 E235.43654
G1 X160.495 Y22.133 E235.51778
G1 X192.039 Y53.676 E239.59651
G1 X192.759 Y53.508 E239.66411
G1 X161.384 Y22.133 E243.72102
