; generated by Slic3r 1.0.0RC2 on 2014-01-10 at 15:34:00

; layer_height = 0.25
; perimeters = 1
; top_solid_layers = 3
; bottom_solid_layers = 3
; fill_density = 0.4
; perimeter_speed = 30
; infill_speed = 60
; travel_speed = 130
; nozzle_diameter = 0.35
; filament_diameter = 1.75
; extrusion_multiplier = 1
; perimeters extrusion width = 0.35mm
; infill extrusion width = 0.39mm
; solid infill extrusion width = 0.39mm
; top infill extrusion width = 0.39mm
; first layer extrusion width = 0.70mm

G21 ; set units to millimeters
M107
M104 S220 ; set temperature
G28 ; home all axes
G1 Z5 F5000 ; lift nozzle

M109 S220 ; wait for temperature to be reached
G90 ; use absolute coordinates
G92 E0
M82 ; use absolute distances for extrusion
G1 F1800.000 E-1.00000
G92 E0
G1 Z0.350 F7800.000
G1 X147.940 Y27.905 F7800.000
G1 E1.00000 F1800.000
G1 X148.440 Y26.345 E1.14896 F540.000
G1 X149.260 Y24.485 E1.33379
G1 X150.100 Y23.035 E1.48617
G1 X151.220 Y21.795 E1.63810
G1 X152.740 Y20.435 E1.82357
G1 X154.060 Y19.475 E1.97198
G1 X155.560 Y18.815 E2.12099
G1 X157.500 Y18.185 E2.30646
G1 X158.700 Y17.895 E2.41872
G1 X159.930 Y17.805 E2.53086
G1 X180.130 Y17.805 E4.36764
G1 X182.110 Y17.855 E4.54774
G1 X182.770 Y17.895 E4.60786
G1 X188.690 Y18.545 E5.14940
G1 X189.630 Y18.705 E5.23610
G1 X193.260 Y19.555 E5.57511
G1 X194.280 Y19.875 E5.67231
G1 X197.490 Y21.105 E5.98489
G1 X198.630 Y21.645 E6.09959
G1 X203.050 Y24.215 E6.56450
G1 X203.740 Y24.675 E6.63991
G1 X204.390 Y25.195 E6.71560
G1 X206.380 Y27.005 E6.96020
G1 X206.940 Y27.575 E7.03286
G1 X207.450 Y28.205 E7.10656
G1 X208.650 Y29.855 E7.29208
G1 X208.980 Y30.345 E7.34580
G1 X210.210 Y32.335 E7.55852
G1 X210.830 Y33.565 E7.68377
G1 X211.220 Y34.885 E7.80892
G1 X212.060 Y38.955 E8.18681
G1 X212.220 Y40.545 E8.33212
G1 X212.060 Y42.135 E8.47742
G1 X211.220 Y46.215 E8.85620
G1 X210.820 Y47.545 E8.98249
G1 X210.200 Y48.785 E9.10855
G1 X208.970 Y50.765 E9.32050
G1 X208.650 Y51.235 E9.37220
G1 X207.450 Y52.885 E9.55772
G1 X206.650 Y53.815 E9.66926
G1 X184.290 Y76.205 E12.54655
G1 X183.810 Y76.655 E12.60638
G1 X181.900 Y78.275 E12.83411
G1 X181.350 Y78.695 E12.89704
G1 X180.760 Y79.075 E12.96085
G1 X179.000 Y80.095 E13.14582
G1 X177.970 Y80.595 E13.24993
G1 X175.920 Y81.415 E13.45070
G1 X174.890 Y81.755 E13.54932
G1 X173.810 Y81.935 E13.64888
G1 X171.780 Y82.145 E13.83445
G1 X170.970 Y82.185 E13.90820
G1 X168.880 Y82.185 E14.09824
G1 X167.650 Y82.095 E14.21038
G1 X166.450 Y81.805 E14.32264
G1 X164.000 Y80.995 E14.55728
G1 X161.960 Y80.175 E14.75720
G1 X160.830 Y79.605 E14.87228
G1 X159.810 Y78.875 E14.98633
G1 X157.900 Y77.255 E15.21407
G1 X156.220 Y75.755 E15.41886
G1 X155.620 Y75.155 E15.49601
G1 X155.090 Y74.495 E15.57298
G1 X153.400 Y72.155 E15.83545
G1 X153.000 Y71.555 E15.90102
G1 X152.670 Y70.925 E15.96569
G1 X151.190 Y67.805 E16.27969
G1 X150.360 Y65.945 E16.46489
G1 X150.010 Y65.015 E16.55525
G1 X148.970 Y61.575 E16.88203
G1 X148.750 Y60.625 E16.97070
G1 X148.100 Y56.845 E17.31945
G1 X148.000 Y55.935 E17.40270
G1 X147.780 Y51.565 E17.80056
G1 X147.780 Y29.525 E19.80465
G1 X147.930 Y27.999 E19.94415
G1 X148.560 Y28.035 F7800.000
G1 X149.020 Y26.605 E20.08074 F540.000
G1 X149.840 Y24.745 E20.26558
G1 X150.600 Y23.405 E20.40566
G1 X151.640 Y22.265 E20.54597
G1 X153.160 Y20.905 E20.73143
G1 X154.380 Y20.025 E20.86821
G1 X155.750 Y19.405 E21.00495
G1 X157.690 Y18.775 E21.19042
G1 X158.800 Y18.515 E21.29409
G1 X159.930 Y18.425 E21.39716
G1 X180.110 Y18.425 E23.23212
G1 X182.090 Y18.475 E23.41222
G1 X182.700 Y18.515 E23.46781
G1 X188.620 Y19.165 E24.00934
G1 X189.480 Y19.315 E24.08872
G1 X193.110 Y20.165 E24.42773
G1 X194.050 Y20.455 E24.51718
G1 X197.260 Y21.685 E24.82975
G1 X198.310 Y22.185 E24.93550
G1 X202.730 Y24.755 E25.40041
G1 X203.380 Y25.175 E25.47078
G1 X203.970 Y25.665 E25.54052
G1 X205.960 Y27.475 E25.78512
G1 X206.480 Y27.995 E25.85199
G1 X206.940 Y28.575 E25.91930
G1 X208.450 Y30.675 E26.15449
G1 X209.680 Y32.665 E26.36722
G1 X210.250 Y33.795 E26.48230
G1 X210.610 Y35.005 E26.59709
G1 X211.450 Y39.075 E26.97498
G1 X211.600 Y40.545 E27.10934
G1 X211.450 Y42.005 E27.24279
G1 X210.610 Y46.085 E27.62157
G1 X210.240 Y47.315 E27.73836
G1 X209.670 Y48.455 E27.85425
G1 X208.440 Y50.435 E28.06621
G1 X208.140 Y50.865 E28.11388
G1 X206.940 Y52.515 E28.29940
G1 X206.210 Y53.375 E28.40197
G1 X183.850 Y75.765 E31.27926
G1 X183.410 Y76.175 E31.33395
G1 X181.500 Y77.795 E31.56168
G1 X180.990 Y78.185 E31.62006
G1 X180.450 Y78.535 E31.67857
G1 X178.690 Y79.555 E31.86354
G1 X177.740 Y80.015 E31.95952
G1 X175.690 Y80.835 E32.16028
G1 X174.740 Y81.145 E32.25115
G1 X173.750 Y81.315 E32.34249
G1 X171.720 Y81.525 E32.52806
G1 X170.970 Y81.565 E32.59635
G1 X168.880 Y81.565 E32.78640
G1 X167.750 Y81.475 E32.88947
G1 X166.640 Y81.215 E32.99314
G1 X164.700 Y80.585 E33.17861
G1 X164.240 Y80.415 E33.22320
G1 X162.200 Y79.595 E33.42312
G1 X161.160 Y79.075 E33.52885
G1 X160.210 Y78.395 E33.63508
G1 X158.300 Y76.775 E33.86281
G1 X156.640 Y75.285 E34.06564
G1 X156.080 Y74.735 E34.13702
G1 X155.590 Y74.125 E34.20816
G1 X153.900 Y71.785 E34.47063
G1 X153.540 Y71.235 E34.53040
G1 X153.230 Y70.655 E34.59020
G1 X151.830 Y67.705 E34.88712
G1 X150.930 Y65.685 E35.08820
G1 X150.610 Y64.835 E35.17079
G1 X149.570 Y61.395 E35.49757
G1 X149.370 Y60.525 E35.57874
G1 X148.720 Y56.745 E35.92750
G1 X148.620 Y55.895 E36.00532
G1 X148.400 Y51.565 E36.39955
G1 X148.400 Y29.525 E38.40364
G1 X148.550 Y28.129 E38.53138
G1 X149.170 Y28.155 F7800.000
G1 X149.590 Y26.855 E38.65561 F540.000
G1 X150.410 Y24.995 E38.84044
G1 X151.110 Y23.775 E38.96834
G1 X152.050 Y22.725 E39.09649
G1 X153.570 Y21.365 E39.28195
G1 X154.690 Y20.565 E39.40710
G1 X155.940 Y20.005 E39.53165
G1 X157.880 Y19.375 E39.71712
G1 X158.890 Y19.135 E39.81152
G1 X159.930 Y19.055 E39.90636
G1 X180.100 Y19.055 E41.74041
G1 X182.080 Y19.105 E41.92051
G1 X182.630 Y19.135 E41.97059
G1 X188.550 Y19.785 E42.51213
G1 X189.340 Y19.925 E42.58509
G1 X192.970 Y20.775 E42.92409
G1 X193.830 Y21.035 E43.00578
G1 X197.040 Y22.265 E43.31836
G1 X198.000 Y22.725 E43.41516
G1 X202.420 Y25.295 E43.88007
G1 X203.010 Y25.685 E43.94438
G1 X203.550 Y26.125 E44.00772
G1 X205.540 Y27.935 E44.25232
G1 X206.010 Y28.415 E44.31340
G1 X206.440 Y28.935 E44.37476
G1 X207.640 Y30.585 E44.56028
G1 X207.920 Y31.005 E44.60618
G1 X209.150 Y32.995 E44.81890
G1 X209.670 Y34.025 E44.92382
G1 X210.000 Y35.135 E45.02911
G1 X210.840 Y39.205 E45.40700
G1 X210.970 Y40.545 E45.52942
G1 X210.840 Y41.885 E45.65183
G1 X210.000 Y45.965 E46.03061
G1 X209.660 Y47.075 E46.13617
G1 X209.140 Y48.125 E46.24271
G1 X207.910 Y50.105 E46.45466
G1 X207.640 Y50.505 E46.49854
G1 X206.440 Y52.155 E46.68406
G1 X205.770 Y52.935 E46.77756
G1 X183.410 Y75.325 E49.65485
G1 X183.010 Y75.695 E49.70439
G1 X181.100 Y77.315 E49.93213
G1 X180.630 Y77.675 E49.98596
G1 X180.130 Y77.995 E50.03994
G1 X178.370 Y79.015 E50.22491
G1 X177.510 Y79.435 E50.31193
G1 X175.460 Y80.255 E50.51270
G1 X174.590 Y80.535 E50.59580
G1 X173.680 Y80.695 E50.67982
G1 X171.650 Y80.905 E50.86539
G1 X170.970 Y80.935 E50.92728
G1 X168.880 Y80.935 E51.11733
G1 X167.840 Y80.855 E51.21217
G1 X166.830 Y80.615 E51.30657
G1 X164.470 Y79.835 E51.53258
G1 X162.430 Y79.015 E51.73250
G1 X161.480 Y78.535 E51.82928
G1 X160.610 Y77.915 E51.92643
G1 X158.570 Y76.185 E52.16964
G1 X157.050 Y74.825 E52.35510
G1 X156.550 Y74.315 E52.42005
G1 X156.100 Y73.765 E52.48466
G1 X154.410 Y71.425 E52.74713
G1 X154.080 Y70.915 E52.80237
G1 X153.790 Y70.385 E52.85730
G1 X152.390 Y67.435 E53.15422
G1 X151.500 Y65.435 E53.35327
G1 X151.210 Y64.655 E53.42894
G1 X150.170 Y61.215 E53.75572
G1 X149.980 Y60.415 E53.83049
G1 X149.330 Y56.635 E54.17924
G1 X149.240 Y55.865 E54.24974
G1 X149.030 Y51.915 E54.60942
G1 X149.030 Y29.525 E56.64533
G1 X149.160 Y28.249 E56.76203
G1 F1800.000 E55.76203
G92 E0
G1 X169.067 Y39.550 F7800.000
G1 E1.00000 F1800.000
G1 X170.973 Y38.931 E1.18226 F540.000
G1 X172.151 Y40.552 E1.36452
G1 X170.973 Y42.174 E1.54677
G1 X169.067 Y41.555 E1.72903
G1 X169.067 Y39.644 E1.90277
G1 X169.692 Y40.004 F7800.000
G1 X170.735 Y39.666 E2.00246 F540.000
G1 X171.379 Y40.552 E2.10215
G1 X170.735 Y41.439 E2.20184
G1 X169.692 Y41.101 E2.30153
G1 X169.692 Y40.098 E2.39270
G1 X160.088 Y26.650 F7800.000
G1 X179.883 Y26.650 E4.19261 F540.000
G1 X180.406 Y26.705 E4.24045
G1 X181.868 Y26.705 E4.37336
G1 X187.667 Y27.340 E4.90382
G1 X191.175 Y28.163 E5.23148
G1 X194.254 Y29.341 E5.53126
G1 X198.518 Y31.820 E5.97975
G1 X200.355 Y33.495 E6.20574
G1 X201.473 Y35.034 E6.37878
G1 X202.592 Y36.847 E6.57249
G1 X203.356 Y40.552 E6.91652
G1 X202.980 Y42.435 E7.09104
G1 X202.592 Y44.258 E7.26055
G1 X201.473 Y46.071 E7.45426
G1 X200.355 Y47.610 E7.62730
G1 X198.518 Y49.285 E7.85330
G1 X194.254 Y51.764 E8.30178
G1 X191.175 Y52.942 E8.60156
G1 X187.667 Y53.765 E8.92922
G1 X184.202 Y54.152 E9.24621
G1 X183.528 Y58.096 E9.61004
G1 X183.117 Y60.031 E9.78990
G1 X182.105 Y63.363 E10.10654
G1 X180.775 Y66.167 E10.38875
G1 X178.008 Y69.983 E10.81732
G1 X176.255 Y71.467 E11.02624
G1 X174.624 Y72.409 E11.19746
G1 X172.769 Y73.156 E11.37929
G1 X170.928 Y73.350 E11.54765
G1 X169.043 Y73.350 E11.71900
G1 X167.283 Y72.778 E11.88733
G1 X165.415 Y72.025 E12.07047
G1 X163.636 Y70.519 E12.28240
G1 X162.208 Y69.234 E12.45707
G1 X160.630 Y67.055 E12.70166
G1 X159.275 Y64.196 E12.98938
G1 X158.475 Y62.399 E13.16824
G1 X157.465 Y59.074 E13.48417
G1 X156.839 Y55.413 E13.82197
G1 X156.625 Y51.545 E14.17418
G1 X156.625 Y29.740 E16.15690
G1 X157.285 Y28.256 E16.30463
G1 X158.493 Y27.169 E16.45237
G1 X159.999 Y26.679 E16.59639
G1 X159.989 Y26.025 F7800.000
G1 X179.916 Y26.025 E18.40827 F378.000
G1 X180.439 Y26.080 E18.45611
G1 X181.901 Y26.080 E18.58903
G1 X187.773 Y26.723 E19.12622
G1 X191.359 Y27.564 E19.46111
G1 X194.524 Y28.775 E19.76923
G1 X198.890 Y31.314 E20.22853
G1 X200.823 Y33.076 E20.46631
G1 X201.993 Y34.686 E20.64729
G1 X203.181 Y36.611 E20.85300
G1 X203.993 Y40.552 E21.21893
G1 X203.592 Y42.561 E21.40516
G1 X203.181 Y44.494 E21.58487
G1 X201.993 Y46.419 E21.79058
G1 X200.823 Y48.029 E21.97155
G1 X198.890 Y49.791 E22.20934
G1 X194.524 Y52.330 E22.66863
G1 X191.359 Y53.541 E22.97676
G1 X187.773 Y54.382 E23.31164
G1 X184.739 Y54.721 E23.58927
G1 X184.142 Y58.214 E23.91148
G1 X183.722 Y60.187 E24.09490
G1 X182.689 Y63.589 E24.41818
G1 X181.315 Y66.487 E24.70985
G1 X178.469 Y70.411 E25.15059
G1 X176.616 Y71.980 E25.37146
G1 X174.898 Y72.972 E25.55179
G1 X172.922 Y73.768 E25.74557
G1 X170.961 Y73.975 E25.92486
G1 X168.944 Y73.975 E26.10820
G1 X167.069 Y73.365 E26.28748
G1 X165.088 Y72.567 E26.48174
G1 X163.225 Y70.990 E26.70368
G1 X161.826 Y69.731 E26.87477
G1 X161.797 Y69.731 E26.87748
G1 X160.090 Y67.375 E27.14197
G1 X158.707 Y64.457 E27.43562
G1 X157.888 Y62.618 E27.61868
G1 X156.856 Y59.218 E27.94171
G1 X156.247 Y55.659 E28.27007
G1 X156.227 Y55.659 E28.27192
G1 X156.000 Y51.562 E28.64499
G1 X156.000 Y29.607 E30.64136
G1 X156.769 Y27.880 E30.81325
G1 X158.173 Y26.615 E30.98514
G1 X159.900 Y26.054 E31.15024
G1 X171.468 Y38.895 F7800.000
G1 X186.090 Y53.517 E33.03397 F1080.000
G1 X183.559 Y55.412 F7800.000
G1 X170.664 Y42.517 E34.69528 F1080.000
G1 X171.373 Y42.341 E34.76188
G1 X183.688 Y54.656 E36.34843
G1 X183.818 Y53.900 E36.41830
G1 X171.746 Y41.828 E37.97351
G1 X172.118 Y41.316 E38.03125
G1 X184.497 Y53.695 E39.62606
G1 X185.294 Y53.606 E39.69906
G1 X172.491 Y40.803 E41.34847
G1 X191.361 Y28.685 F7800.000
G1 X202.847 Y40.171 E42.82823 F1080.000
G1 X202.826 Y41.036 E42.90699
G1 X190.144 Y28.354 E44.54076
G1 X188.988 Y28.083 E44.64898
G1 X202.675 Y41.770 E46.41225
G1 X202.523 Y42.504 E46.48052
G1 X187.831 Y27.812 E48.37329
G1 X186.804 Y27.670 E48.46776
G1 X202.372 Y43.238 E50.47338
G1 X202.220 Y43.972 E50.54165
G1 X185.810 Y27.561 E52.65585
G1 X184.816 Y27.452 E52.74696
G1 X201.915 Y44.552 E54.94990
G1 X201.577 Y45.099 E55.00851
G1 X183.821 Y27.343 E57.29600
G1 X182.827 Y27.235 E57.38711
G1 X201.239 Y45.647 E59.75915
G1 X200.879 Y46.171 E59.81715
G1 X181.834 Y27.127 E62.27065
G1 X180.949 Y27.127 E62.35131
G1 X200.506 Y46.684 E64.87087
G1 X200.134 Y47.197 E64.92861
G1 X180.026 Y27.089 E67.51909
G1 X179.123 Y27.072 E67.60134
G1 X199.694 Y47.642 E70.25143
G1 X199.231 Y48.065 E70.30852
G1 X178.238 Y27.072 E73.01301
G1 X177.353 Y27.072 E73.09366
G1 X198.768 Y48.487 E75.85256
G1 X198.304 Y48.909 E75.90965
G1 X176.467 Y27.072 E78.72295
G1 X175.582 Y27.072 E78.80360
G1 X197.752 Y49.242 E81.65984
G1 X197.193 Y49.568 E81.71883
G1 X174.697 Y27.072 E84.61701
G1 X173.811 Y27.072 E84.69766
G1 X196.633 Y49.894 E87.63778
G1 X196.073 Y50.219 E87.69677
G1 X172.926 Y27.072 E90.67883
G1 X172.041 Y27.072 E90.75948
G1 X195.513 Y50.545 E93.78348
G1 X194.953 Y50.870 E93.84247
G1 X171.155 Y27.072 E96.90840
G1 X170.270 Y27.072 E96.98906
G1 X194.393 Y51.196 E100.09693
G1 X193.799 Y51.487 E100.15721
G1 X169.384 Y27.072 E103.30260
G1 X168.499 Y27.072 E103.38326
G1 X193.159 Y51.732 E106.56021
G1 X192.519 Y51.977 E106.62267
G1 X167.614 Y27.072 E109.83119
G1 X166.728 Y27.072 E109.91184
G1 X191.878 Y52.222 E113.15191
G1 X191.238 Y52.467 E113.21437
G1 X165.843 Y27.072 E116.48600
G1 X164.958 Y27.072 E116.56665
G1 X190.543 Y52.657 E119.86283
G1 X189.826 Y52.826 E119.92994
G1 X164.072 Y27.072 E123.24779
G1 X163.187 Y27.072 E123.32844
G1 X189.109 Y52.994 E126.66795
G1 X188.391 Y53.162 E126.73506
G1 X162.302 Y27.072 E130.09624
G1 X161.416 Y27.072 E130.17689
G1 X187.674 Y53.330 E133.55974
G1 X186.887 Y53.428 E133.63204
G1 X160.531 Y27.072 E137.02747
G1 X159.770 Y27.197 E137.09767
G1 X171.040 Y38.466 E138.54947
G1 X170.371 Y38.683 E138.61348
G1 X159.102 Y27.414 E140.06527
G1 X158.517 Y27.714 E140.12518
G1 X169.703 Y38.900 E141.56628
G1 X169.035 Y39.117 E141.63028
G1 X158.053 Y28.135 E143.04511
G1 X157.610 Y28.578 E143.10214
G1 X168.645 Y39.613 E144.52381
G1 X168.645 Y40.499 E144.60446
G1 X157.333 Y29.186 E146.06186
G1 X157.060 Y29.799 E146.12295
G1 X183.430 Y56.168 E149.52015
G1 X183.300 Y56.924 E149.59003
G1 X157.046 Y30.670 E152.97235
G1 X157.046 Y31.556 E153.05300
G1 X183.171 Y57.680 E156.41867
G1 X183.027 Y58.422 E156.48749
G1 X157.046 Y32.441 E159.83464
G1 X157.046 Y33.326 E159.91529
G1 X182.872 Y59.152 E163.24245
G1 X182.717 Y59.882 E163.31046
G1 X157.046 Y34.212 E166.61763
G1 X157.046 Y35.097 E166.69828
G1 X182.514 Y60.564 E169.97927
G1 X182.307 Y61.244 E170.04392
G1 X157.046 Y35.982 E173.29834
G1 X157.046 Y36.868 E173.37899
G1 X182.101 Y61.923 E176.60684
G1 X181.895 Y62.602 E176.67149
G1 X157.046 Y37.753 E179.87277
G1 X157.046 Y38.638 E179.95342
G1 X181.681 Y63.273 E183.12708
G1 X181.396 Y63.873 E183.18763
G1 X157.046 Y39.524 E186.32460
G1 X157.046 Y40.409 E186.40526
G1 X181.111 Y64.474 E189.50554
G1 X180.826 Y65.075 E189.56610
G1 X157.046 Y41.294 E192.62970
G1 X157.046 Y42.180 E192.71035
G1 X180.542 Y65.675 E195.73728
G1 X180.210 Y66.229 E195.79606
G1 X157.046 Y43.065 E198.78022
G1 X157.046 Y43.951 E198.86087
G1 X179.837 Y66.742 E201.79708
G1 X179.465 Y67.255 E201.85483
G1 X157.046 Y44.836 E204.74309
G1 X157.046 Y45.721 E204.82375
G1 X179.093 Y67.768 E207.66407
G1 X178.721 Y68.281 E207.72181
G1 X157.046 Y46.607 E210.51419
G1 X157.046 Y47.492 E210.59484
G1 X178.349 Y68.795 E213.33927
G1 X177.977 Y69.308 E213.39702
G1 X157.046 Y48.377 E216.09350
G1 X157.046 Y49.263 E216.17416
G1 X177.565 Y69.781 E218.81757
G1 X177.098 Y70.200 E218.87469
G1 X157.046 Y50.148 E221.45803
G1 X157.046 Y51.033 E221.53868
G1 X176.619 Y70.606 E224.06026
G1 X176.140 Y71.012 E224.11749
G1 X157.069 Y51.941 E226.57438
G1 X157.121 Y52.879 E226.65990
G1 X175.600 Y71.358 E229.04062
G1 X175.039 Y71.682 E229.09966
G1 X157.173 Y53.816 E231.40137
G1 X157.225 Y54.753 E231.48689
G1 X174.478 Y72.006 E233.70959
G1 X173.851 Y72.265 E233.77133
G1 X157.322 Y55.736 E235.90081
G1 X157.505 Y56.804 E235.99952
G1 X173.220 Y72.520 E238.02417
G1 X172.569 Y72.753 E238.08724
G1 X157.687 Y57.872 E240.00438
G1 X157.870 Y58.940 E240.10309
G1 X171.767 Y72.837 E241.89348
G1 X170.966 Y72.922 E241.96687
G1 X158.249 Y60.205 E243.60521
G1 X158.635 Y61.476 E243.72627
G1 X170.087 Y72.928 E245.20163
G1 X169.202 Y72.928 E245.28228
G1 X159.148 Y62.874 E246.57753
G1 X159.883 Y64.495 F7800.000
