; generated by Slic3r 1.2.9 on 2015-10-31 at 15:39:56

; external perimeters extrusion width = 0.35mm
; perimeters extrusion width = 0.44mm
; infill extrusion width = 0.44mm
; solid infill extrusion width = 0.44mm
; top infill extrusion width = 0.44mm

M107
M104 S220 ; set temperature
G28 ; home all axes
G1 Z5 F5000 ; lift nozzle

M109 S220 ; wait for temperature to be reached
G21 ; set units to millimeters
G90 ; use absolute coordinates
M82 ; use absolute distances for extrusion
G92 E0
G1 Z0.350 F7800.000
G1 E-2.00000 F2400.00000
G92 E0
G1 X25.561 Y58.816 F7800.000
G1 E2.00000 F2400.00000
G1 X27.500 Y58.186 E2.18543 F1800.000
G1 X29.934 Y57.800 E2.40947
G1 X50.151 Y57.803 E4.24781
G1 X52.137 Y57.858 E4.42847 F1800.000
G1 X52.743 Y57.898 E4.48370
G1 X58.709 Y58.552 E5.02937
G1 X59.630 Y58.711 E5.11437
G1 X63.258 Y59.561 E5.45327
G1 X64.274 Y59.873 E5.54990
G1 X67.488 Y61.101 E5.86274
G1 X68.613 Y61.637 E5.97604
G1 X73.073 Y64.231 E6.44522
G1 X74.404 Y65.210 E6.59548
G1 X76.390 Y67.021 E6.83984
G1 X77.456 Y68.212 E6.98514
G1 X78.654 Y69.861 E7.17056
G1 X78.984 Y70.353 E7.22441
G1 X80.212 Y72.342 E7.43688
G1 X81.214 Y74.841 E7.68177
G1 X81.657 Y76.931 E7.87600
G1 X82.073 Y79.010 E8.06878
G1 X82.073 Y82.094 E8.34923
G1 X81.657 Y84.173 E8.54202
G1 X81.214 Y86.263 E8.73625
G1 X80.212 Y88.763 E8.98113
G1 X78.984 Y90.751 E9.19360
G1 X78.654 Y91.243 E9.24745
G1 X77.456 Y92.892 E9.43287
G1 X76.657 Y93.828 E9.54475
G1 X54.300 Y116.215 E12.42168
G1 X53.814 Y116.663 E12.48177
G1 X51.904 Y118.279 E12.70923
G1 X50.755 Y119.086 E12.83689
G1 X48.989 Y120.106 E13.02231
G1 X48.001 Y120.588 E13.12233
G1 X45.956 Y121.414 E13.32286
G1 X43.830 Y121.943 E13.52203
G1 X41.802 Y122.157 E13.70746
G1 X40.979 Y122.200 E13.78242
G1 X38.889 Y122.200 E13.97252
G1 X36.455 Y121.814 E14.19657
G1 X34.516 Y121.184 E14.38199
G1 X34.001 Y120.997 E14.43183
G1 X31.956 Y120.171 E14.63236
G1 X29.818 Y118.881 E14.85933
G1 X27.909 Y117.265 E15.08679
G1 X26.210 Y115.741 E15.29435
G1 X25.102 Y114.509 E15.44502
G1 X23.411 Y112.174 E15.70716
G1 X22.672 Y110.926 E15.83902
G1 X21.273 Y107.975 E16.13604
G1 X20.366 Y105.942 E16.33840
G1 X20.025 Y105.029 E16.42703
G1 X18.980 Y101.589 E16.75394
G1 X18.752 Y100.627 E16.84385
G1 X18.106 Y96.849 E17.19234
G1 X18.006 Y95.957 E17.27399
G1 X17.787 Y92.007 E17.63374
G1 X17.775 Y69.532 E19.67731
G1 X18.456 Y66.330 E19.97505
G1 X19.285 Y64.467 E20.16048
G1 X21.210 Y61.817 E20.45825
G1 X22.725 Y60.453 E20.64366
G1 X25.515 Y58.842 E20.93660
G1 X25.754 Y59.410 F7800.000
G1 X27.693 Y58.780 E21.12203 F1800.000
G1 X29.934 Y58.425 E21.32829
G1 X50.134 Y58.428 E23.16507
G1 X52.120 Y58.483 E23.34572 F1800.000
G1 X52.678 Y58.520 E23.39657
G1 X58.639 Y59.173 E23.94187
G1 X59.487 Y59.319 E24.02012
G1 X63.116 Y60.169 E24.35902
G1 X64.051 Y60.456 E24.44798
G1 X67.265 Y61.685 E24.76082
G1 X68.300 Y62.178 E24.86512
G1 X72.758 Y64.771 E25.33400
G1 X73.983 Y65.672 E25.47234
G1 X75.969 Y67.483 E25.71670
G1 X76.950 Y68.579 E25.85047
G1 X78.149 Y70.229 E26.03589
G1 X78.453 Y70.682 E26.08547
G1 X79.680 Y72.670 E26.29794
G1 X80.603 Y74.971 E26.52339
G1 X81.045 Y77.053 E26.71692
G1 X81.460 Y79.132 E26.90971
G1 X81.460 Y81.972 E27.16790
G1 X81.045 Y84.051 E27.36069
G1 X80.603 Y86.133 E27.55422
G1 X79.680 Y88.434 E27.77967
G1 X78.453 Y90.423 E27.99214
G1 X78.149 Y90.875 E28.04172
G1 X76.950 Y92.525 E28.22714
G1 X76.215 Y93.387 E28.33014
G1 X53.858 Y115.774 E31.20707
G1 X53.410 Y116.186 E31.26239
G1 X51.500 Y117.801 E31.48985
G1 X50.443 Y118.545 E31.60738
G1 X48.677 Y119.565 E31.79280
G1 X47.767 Y120.008 E31.88488
G1 X45.722 Y120.834 E32.08542
G1 X43.765 Y121.322 E32.26878
G1 X41.737 Y121.535 E32.45420
G1 X40.979 Y121.575 E32.52322
G1 X38.889 Y121.575 E32.71332
G1 X36.648 Y121.220 E32.91959
G1 X34.709 Y120.590 E33.10501
G1 X34.234 Y120.417 E33.15089
G1 X32.190 Y119.591 E33.35142
G1 X30.222 Y118.404 E33.56038
G1 X28.312 Y116.788 E33.78785
G1 X26.628 Y115.277 E33.99364
G1 X25.608 Y114.142 E34.13236
G1 X23.917 Y111.807 E34.39450
G1 X23.236 Y110.659 E34.51589
G1 X21.838 Y107.707 E34.81291
G1 X20.937 Y105.688 E35.01393
G1 X20.623 Y104.847 E35.09553
G1 X19.578 Y101.408 E35.42244
G1 X19.368 Y100.522 E35.50522
G1 X18.722 Y96.744 E35.85371
G1 X18.630 Y95.923 E35.92887
G1 X18.411 Y91.972 E36.28862
G1 X18.400 Y69.532 E38.32906
G1 X19.027 Y66.584 E38.60317
G1 X19.856 Y64.721 E38.78860
G1 X21.628 Y62.282 E39.06274
G1 X23.144 Y60.917 E39.24815
G1 X25.708 Y59.437 E39.51747
G1 X25.947 Y60.005 F7800.000
G1 X27.886 Y59.374 E39.70289 F1800.000
G1 X29.934 Y59.050 E39.89138
G1 X50.117 Y59.053 E41.72659
G1 X52.103 Y59.107 E41.90724 F1800.000
G1 X52.612 Y59.141 E41.95371
G1 X58.570 Y59.794 E42.49863
G1 X59.345 Y59.927 E42.57014
G1 X62.973 Y60.778 E42.90903
G1 X63.828 Y61.040 E42.99033
G1 X67.042 Y62.269 E43.30316
G1 X67.988 Y62.719 E43.39848
G1 X72.442 Y65.310 E43.86705
G1 X73.562 Y66.134 E43.99346
G1 X75.548 Y67.945 E44.23783
G1 X76.445 Y68.946 E44.36007
G1 X77.643 Y70.596 E44.54549
G1 X77.921 Y71.010 E44.59079
G1 X79.148 Y72.998 E44.80326
G1 X79.991 Y75.101 E45.00928
G1 X80.432 Y77.176 E45.20211
G1 X80.847 Y79.255 E45.39490
G1 X80.847 Y81.849 E45.63084
G1 X80.432 Y83.929 E45.82363
G1 X79.991 Y86.003 E46.01646
G1 X79.148 Y88.106 E46.22248
G1 X77.921 Y90.094 E46.43495
G1 X77.643 Y90.508 E46.48025
G1 X76.445 Y92.158 E46.66567
G1 X75.773 Y92.945 E46.75979
G1 X53.415 Y115.332 E49.63673
G1 X53.006 Y115.709 E49.68727
G1 X51.097 Y117.324 E49.91474
G1 X50.130 Y118.004 E50.02214
G1 X48.364 Y119.023 E50.20756
G1 X47.533 Y119.429 E50.29170
G1 X45.488 Y120.255 E50.49223
G1 X43.700 Y120.700 E50.65979
G1 X41.672 Y120.914 E50.84522
G1 X40.979 Y120.950 E50.90829
G1 X38.889 Y120.950 E51.09838
G1 X36.841 Y120.626 E51.28687
G1 X34.902 Y119.995 E51.47229
G1 X34.468 Y119.838 E51.51422
G1 X32.424 Y119.012 E51.71475
G1 X30.626 Y117.927 E51.90570
G1 X28.716 Y116.311 E52.13316
G1 X27.046 Y114.812 E52.33721
G1 X26.114 Y113.776 E52.46396
G1 X24.423 Y111.441 E52.72611
G1 X23.801 Y110.391 E52.83704
G1 X22.402 Y107.439 E53.13406
G1 X21.507 Y105.434 E53.33373
G1 X21.221 Y104.666 E53.40830
G1 X20.176 Y101.226 E53.73521
G1 X19.984 Y100.416 E53.81085
G1 X19.338 Y96.639 E54.15934
G1 X19.253 Y95.888 E54.22802
G1 X19.035 Y91.938 E54.58777
G1 X19.025 Y69.532 E56.62507
G1 X19.597 Y66.838 E56.87556
G1 X20.427 Y64.975 E57.06098
G1 X22.046 Y62.746 E57.31149
G1 X23.562 Y61.382 E57.49691
G1 X25.902 Y60.031 E57.74260
G1 E55.74260 F2400.00000
G92 E0
G1 X40.735 Y81.439 F7800.000
G1 E2.00000 F2400.00000
G1 X39.692 Y81.100 E2.09969 F1800.000
G1 X39.692 Y80.004 E2.19938
G1 X40.735 Y79.665 E2.29908
G1 X41.379 Y80.552 E2.39877
G1 X40.766 Y81.397 E2.49369
G1 E0.49369 F2400.00000
G92 E0
G1 X54.739 Y94.720 F7800.000
G1 E2.00000 F2400.00000
G1 X54.142 Y98.214 E2.32230 F1800.000
G1 X53.723 Y100.187 E2.50572
G1 X52.689 Y103.588 E2.82891
G1 X51.315 Y106.487 E3.12064
G1 X48.469 Y110.411 E3.56139
G1 X46.616 Y111.979 E3.78215
G1 X44.898 Y112.971 E3.96250
G1 X42.922 Y113.769 E4.15633
G1 X40.961 Y113.975 E4.33561
G1 X38.944 Y113.975 E4.51900
G1 X37.069 Y113.366 E4.69827
G1 X35.087 Y112.566 E4.89258
G1 X33.225 Y110.990 E5.11444
G1 X31.741 Y109.654 E5.29601
G1 X30.090 Y107.375 E5.55184
G1 X28.707 Y104.456 E5.84554
G1 X27.888 Y102.617 E6.02862
G1 X26.856 Y99.219 E6.35155
G1 X26.217 Y95.483 E6.69622
G1 X26.000 Y91.562 E7.05327
G1 X26.000 Y69.607 E9.04965
G1 X26.769 Y67.880 E9.22154
G1 X28.173 Y66.615 E9.39343
G1 X29.989 Y66.025 E9.56704
G1 X50.000 Y66.034 E11.38663
G1 X50.437 Y66.080 E11.42654
G1 X51.901 Y66.080 E11.55966
G1 X57.774 Y66.723 E12.09691
G1 X61.359 Y67.563 E12.43172
G1 X64.524 Y68.773 E12.73983
G1 X68.891 Y71.314 E13.19921
G1 X70.823 Y73.075 E13.43694
G1 X71.993 Y74.685 E13.61792
G1 X73.182 Y76.610 E13.82366
G1 X73.993 Y80.552 E14.18959
G1 X73.182 Y84.494 E14.55552
G1 X71.993 Y86.419 E14.76127
G1 X70.823 Y88.029 E14.94225
G1 X68.891 Y89.790 E15.17997
G1 X64.524 Y92.331 E15.63936
G1 X61.359 Y93.541 E15.94747
G1 X57.774 Y94.381 E16.28232
G1 X54.792 Y94.715 E16.55515
G1 X54.720 Y94.356 F7800.000
G1 X41.418 Y81.053 E18.28448 F1800.000
G1 X41.794 Y80.536 E18.34328
G1 X55.524 Y94.266 E20.12819
G1 X56.327 Y94.176 E20.20252
G1 X28.894 Y66.743 E23.76890
G1 X29.568 Y66.524 E23.83407
G1 X57.131 Y94.086 E27.41725
G1 X57.923 Y93.985 E27.49066
G1 X30.342 Y66.404 E31.07625
G1 X31.236 Y66.404 E31.15841
G1 X58.647 Y93.815 E34.72190
G1 X59.370 Y93.645 E34.79023
G1 X32.129 Y66.405 E38.33162
G1 X33.023 Y66.405 E38.41378
G1 X60.094 Y93.476 E41.93307
G1 X60.818 Y93.306 E42.00140
G1 X33.917 Y66.405 E45.49859
G1 X34.811 Y66.406 E45.58075
G1 X61.520 Y93.115 E49.05304
G1 X62.167 Y92.868 E49.11664
G1 X35.705 Y66.406 E52.55676
G1 X36.598 Y66.407 E52.63892
G1 X62.813 Y92.621 E56.04685
G1 X63.459 Y92.374 E56.11046
G1 X37.492 Y66.407 E59.48621
G1 X38.386 Y66.407 E59.56837
G1 X64.105 Y92.127 E62.91195
G1 X64.712 Y91.840 E62.97362
G1 X39.280 Y66.408 E66.27983
G1 X40.174 Y66.408 E66.36199
G1 X65.277 Y91.511 E69.62544
G1 X65.842 Y91.183 E69.68551
G1 X41.068 Y66.409 E72.90619
G1 X41.961 Y66.409 E72.98835
G1 X66.406 Y90.854 E76.16627
G1 X66.971 Y90.525 E76.22634
G1 X42.855 Y66.409 E79.36149
G1 X43.749 Y66.410 E79.44365
G1 X67.536 Y90.197 E82.53604
G1 X68.101 Y89.868 E82.59611
G1 X44.643 Y66.410 E85.64573
G1 X45.537 Y66.411 E85.72789
G1 X68.666 Y89.540 E88.73475
G1 X69.142 Y89.123 E88.79295
G1 X46.430 Y66.411 E91.74557
G1 X47.324 Y66.411 E91.82773
G1 X69.610 Y88.697 E94.72491
G1 X70.077 Y88.271 E94.78305
G1 X48.218 Y66.412 E97.62479
G1 X49.112 Y66.412 E97.70695
G1 X70.544 Y87.845 E100.49325
G1 X70.926 Y87.333 E100.55194
G1 X50.025 Y66.432 E103.26913
G1 X50.945 Y66.458 E103.35373
G1 X71.302 Y86.815 E106.00020
G1 X71.678 Y86.298 E106.05900
G1 X51.850 Y66.470 E108.63663
G1 X52.854 Y66.580 E108.72941
G1 X72.021 Y85.748 E111.22122
G1 X72.362 Y85.195 E111.28090
G1 X53.857 Y66.690 E113.68661
G1 X54.860 Y66.800 E113.77939
G1 X72.703 Y84.643 E116.09900
G1 X72.927 Y83.973 E116.16390
G1 X55.864 Y66.910 E118.38216
G1 X56.867 Y67.020 E118.47494
G1 X73.079 Y83.232 E120.58260
G1 X73.232 Y82.492 E120.65213
G1 X57.922 Y67.181 E122.64252
G1 X59.088 Y67.455 E122.75269
G1 X73.385 Y81.751 E124.61122
G1 X73.537 Y81.010 E124.68075
G1 X60.255 Y67.728 E126.40743
G1 X61.505 Y68.084 E126.52690
G1 X73.474 Y80.054 E128.08293
G1 X73.242 Y78.928 E128.18853
G1 X62.951 Y68.638 E129.52638
G1 X64.507 Y69.299 F7800.000
G1 X73.011 Y77.803 E130.63193 F1800.000
G1 X72.503 Y76.402 F7800.000
G1 X66.642 Y70.542 E131.39384 F1800.000
G1 X69.986 Y72.992 F7800.000
G1 X70.648 Y73.654 E131.47987 F1800.000
G1 X54.349 Y94.878 F7800.000
G1 X41.042 Y81.571 E133.20985 F1800.000
G1 X40.335 Y81.757 F7800.000
G1 X54.219 Y95.641 E135.01480 F1800.000
G1 X54.088 Y96.404 E135.08595
G1 X26.652 Y68.968 E138.65272
G1 X26.927 Y68.350 E138.71492
G1 X39.313 Y80.736 E140.32514
G1 X39.313 Y79.842 E140.40726
G1 X27.306 Y67.835 E141.96820
G1 X27.774 Y67.410 E142.02634
G1 X39.929 Y79.565 E143.60650
G1 X40.604 Y79.346 E143.67168
G1 X28.245 Y66.987 E145.27838
G1 X26.378 Y69.587 F7800.000
G1 X53.958 Y97.167 E148.86379 F1800.000
G1 X53.827 Y97.930 E148.93494
G1 X26.378 Y70.481 E152.50339
G1 X26.378 Y71.374 E152.58551
G1 X53.682 Y98.678 E156.13503
G1 X53.525 Y99.414 E156.20427
G1 X26.378 Y72.268 E159.73342
G1 X26.378 Y73.161 E159.81555
G1 X53.368 Y100.151 E163.32434
G1 X53.163 Y100.839 E163.39035
G1 X26.378 Y74.054 E166.87244
G1 X26.378 Y74.948 E166.95457
G1 X52.955 Y101.524 E170.40960
G1 X52.747 Y102.210 E170.47543
G1 X26.378 Y75.841 E173.90339
G1 X26.378 Y76.735 E173.98551
G1 X52.538 Y102.895 E177.38640
G1 X52.325 Y103.575 E177.45192
G1 X26.378 Y77.628 E180.82508
G1 X26.378 Y78.521 E180.90721
G1 X52.038 Y104.181 E184.24303
G1 X51.751 Y104.787 E184.30469
G1 X26.378 Y79.415 E187.60317
G1 X26.378 Y80.308 E187.68529
G1 X51.463 Y105.393 E190.94643
G1 X51.176 Y106.000 E191.00809
G1 X26.378 Y81.202 E194.23188
G1 X26.378 Y82.095 E194.31401
G1 X50.853 Y106.570 E197.49576
G1 X50.477 Y107.088 E197.55457
G1 X26.378 Y82.988 E200.68750
G1 X26.378 Y83.882 E200.76963
G1 X50.102 Y107.605 E203.85373
G1 X49.726 Y108.123 E203.91253
G1 X26.378 Y84.775 E206.94781
G1 X26.378 Y85.669 E207.02994
G1 X49.351 Y108.641 E210.01639
G1 X48.975 Y109.159 E210.07519
G1 X26.378 Y86.562 E213.01281
G1 X26.378 Y87.456 E213.09494
G1 X48.599 Y109.677 E215.98374
G1 X48.209 Y110.180 E216.04228
G1 X26.378 Y88.349 E218.88038
G1 X26.378 Y89.242 E218.96250
G1 X47.740 Y110.604 E221.73952
G1 X47.256 Y111.013 E221.79780
G1 X26.378 Y90.136 E224.51190
G1 X26.378 Y91.029 E224.59403
G1 X46.772 Y111.422 E227.24521
G1 X46.259 Y111.804 E227.30390
G1 X26.408 Y91.952 E229.88463
G1 X26.460 Y92.898 E229.97170
G1 X45.693 Y112.131 E232.47200
G1 X45.127 Y112.458 E232.53212
G1 X26.513 Y93.844 E234.95198
G1 X26.565 Y94.789 E235.03905
G1 X44.530 Y112.754 E237.37453
G1 X43.893 Y113.011 E237.43762
G1 X26.679 Y95.797 E239.67553
G1 X26.863 Y96.875 E239.77603
G1 X43.257 Y113.268 E241.90725
G1 X42.537 Y113.442 E241.97532
G1 X27.048 Y97.952 E243.98899
G1 X27.244 Y99.042 E244.09075
G1 X41.729 Y113.527 E245.97384
G1 X40.905 Y113.596 E246.04984
G1 X27.634 Y100.325 E247.77513
G1 X28.024 Y101.609 E247.89844
G1 X40.012 Y113.596 E249.45689
G1 X39.099 Y113.577 E249.54078
G1 X28.563 Y103.041 E250.91050
G1 X29.309 Y104.681 F7800.000
G1 X37.776 Y113.147 E252.01112 F1800.000
G1 X36.330 Y112.595 F7800.000
G1 X30.114 Y106.379 E252.81917 F1800.000
G1 X31.916 Y109.075 F7800.000
G1 X32.540 Y109.699 E252.90035 F1800.000
M104 S220 ; set temperature
G1 Z0.600 F7800.000
G1 X44.983 Y85.787 F7800.000
G1 X43.324 Y86.853 E252.96108 F1800.000
G1 X41.432 Y87.408 E253.02180
G1 X39.461 Y87.408 E253.08253
G1 X37.569 Y86.853 E253.14326
G1 X35.910 Y85.787 E253.20399
G1 X34.619 Y84.297 E253.26472
G1 X33.800 Y82.504 E253.32545
G1 X33.520 Y80.552 E253.38617
G1 X33.800 Y78.601 E253.44690
G1 X34.619 Y76.807 E253.50763
G1 X35.910 Y75.317 E253.56836
G1 X37.569 Y74.251 E253.62909
G1 X39.461 Y73.696 E253.68982
G1 X41.432 Y73.696 E253.75054 F1800.000
G1 X43.324 Y74.251 E253.81127
G1 X44.983 Y75.317 E253.87200
G1 X46.274 Y76.807 E253.93273
G1 X47.093 Y78.601 E253.99346
G1 X47.373 Y80.552 E254.05419
G1 X47.093 Y82.504 E254.11491
G1 X46.274 Y84.297 E254.17564
G1 X45.017 Y85.747 E254.23475
G1 X54.890 Y94.880 F7800.000
G1 X54.314 Y98.247 E254.33998 F1800.000
G1 X53.892 Y100.231 E254.40245
G1 X52.853 Y103.651 E254.51256
G1 X51.467 Y106.577 E254.61228
G1 X48.599 Y110.531 E254.76274
G1 X46.717 Y112.123 E254.83866
G1 X44.975 Y113.128 E254.90061
G1 X42.964 Y113.940 E254.96740
G1 X40.970 Y114.150 E255.02917
G1 X38.916 Y114.150 E255.09243
G1 X37.009 Y113.530 E255.15420
G1 X34.996 Y112.717 E255.22107
G1 X33.110 Y111.122 E255.29718
G1 X31.610 Y109.771 E255.35933
G1 X29.939 Y107.465 E255.44707
G1 X28.548 Y104.529 E255.54712
G1 X27.724 Y102.678 E255.60953
G1 X26.685 Y99.259 E255.71960
G1 X26.042 Y95.502 E255.83700
G1 X25.825 Y91.567 E255.95841
G1 X25.825 Y69.570 E256.63596
G1 X26.624 Y67.775 E256.69648
G1 X28.084 Y66.460 E256.75700
G1 X29.962 Y65.850 E256.81781
G1 X49.925 Y65.850 E257.43271
G1 X50.446 Y65.905 E257.44886
G1 X51.910 Y65.905 E257.49396
G1 X57.804 Y66.550 E257.67657
G1 X61.410 Y67.396 E257.79068
G1 X64.600 Y68.615 E257.89585
G1 X68.995 Y71.172 E258.05248
G1 X70.954 Y72.958 E258.13413
G1 X72.138 Y74.588 E258.19619
G1 X73.346 Y76.544 E258.26702
G1 X73.764 Y78.508 E258.32886
G1 X74.172 Y80.552 E258.39306
G1 X73.764 Y82.596 E258.45726
G1 X73.346 Y84.560 E258.51910
G1 X72.138 Y86.516 E258.58993
G1 X70.954 Y88.146 E258.65199
G1 X68.995 Y89.932 E258.73364
G1 X64.600 Y92.489 E258.89027
G1 X61.410 Y93.709 E258.99544
G1 X57.803 Y94.554 E259.10955
G1 X54.942 Y94.874 E259.19824
G1 X62.310 Y93.106 F7800.000
G1 X73.713 Y81.703 E259.84509 F1200.000
G1 X73.850 Y81.021 E259.87299
G1 X61.426 Y93.444 E260.57769
G1 X60.678 Y93.647 E260.60877
G1 X73.942 Y80.383 E261.36114
G1 X73.851 Y79.928 E261.37974
G1 X59.965 Y93.814 E262.16739
G1 X59.253 Y93.981 E262.19675
G1 X73.760 Y79.473 E263.01968
G1 X73.669 Y79.018 E263.03829
G1 X58.540 Y94.148 E263.89649
G1 X57.827 Y94.315 E263.92585
G1 X73.579 Y78.563 E264.81933
G1 X73.484 Y78.112 E264.83781
G1 X57.191 Y94.405 E265.76198
G1 X56.577 Y94.473 E265.78678
G1 X73.388 Y77.662 E266.74037
