; generated by Slic3r 1.1.6 on 2014-08-06 at 00:00:11

; perimeters extrusion width = 0.37mm
; infill extrusion width = 0.60mm
; solid infill extrusion width = 0.38mm
; top infill extrusion width = 0.30mm

G21 ; set units to millimeters
M107
G28 ; home all axes
M203 X192 Y208 Z3 ; Speed limits to minimize skipped steps when moving really fast courtesy of forum.lulzbot.com user 1013
G90 ; use absolute coordinates
G92 E0
M82 ; use absolute distances for extrusion
M204 S1000
G1 F1500.000 E-2.00000
G92 E0
G1 Z0.300 F12000.000
G1 X107.679 Y79.515 F12000.000
G1 E2.00000 F1500.000
G1 X109.293 Y77.811 E2.05021 F2340.000
G1 X111.189 Y76.806 E2.09612
G1 X111.624 Y76.656 E2.10597
G1 X113.520 Y76.286 E2.14731
G1 X114.461 Y76.247 E2.16745
G1 X181.141 Y76.307 E3.59405
G1 X184.846 Y76.337 E3.67332
G1 X187.156 Y76.753 E3.72353
G1 X189.195 Y77.915 E3.77374
G1 X190.729 Y79.691 E3.82396
G1 X191.584 Y81.877 E3.87417
G1 X191.726 Y83.273 E3.90418
G1 X191.726 Y192.818 E6.24785
G1 X191.328 Y195.131 E6.29806
G1 X190.183 Y197.179 E6.34828
G1 X188.419 Y198.728 E6.39849
G1 X186.240 Y199.600 E6.44871
G1 X184.790 Y199.753 E6.47990
G1 X113.225 Y199.753 E8.01101
G1 X110.912 Y199.356 E8.06123
G1 X108.864 Y198.210 E8.11144
G1 X107.315 Y196.447 E8.16165
G1 X106.443 Y194.268 E8.21187
G1 X106.289 Y192.818 E8.24305
G1 X106.274 Y83.723 E10.57709
G1 X106.671 Y81.410 E10.62731
G1 X107.439 Y79.875 E10.66403
G1 X107.650 Y79.559 E10.67216
G1 X108.069 Y79.775 F12000.000
G1 X109.636 Y78.139 E10.72064 F2340.000
G1 X111.341 Y77.248 E10.76180
G1 X111.776 Y77.098 E10.77164
G1 X113.545 Y76.754 E10.81019
G1 X114.461 Y76.715 E10.82980
G1 X181.137 Y76.775 E12.25633
G1 X184.842 Y76.805 E12.33560
G1 X187.070 Y77.220 E12.38407
G1 X189.018 Y78.378 E12.43255
G1 X190.447 Y80.136 E12.48103
G1 X191.258 Y83.273 E12.55034
G1 X191.258 Y192.818 E14.89401
G1 X190.861 Y195.048 E14.94249
G1 X189.719 Y197.005 E14.99097
G1 X187.972 Y198.448 E15.03945
G1 X184.790 Y199.285 E15.10984
G1 X113.225 Y199.285 E16.64094
G1 X110.994 Y198.888 E16.68942
G1 X109.037 Y197.746 E16.73790
G1 X107.594 Y195.999 E16.78638
G1 X106.757 Y192.818 E16.85675
G1 X106.742 Y83.723 E19.19080
G1 X107.139 Y81.492 E19.23928
G1 X107.829 Y80.135 E19.27186
G1 X108.039 Y79.818 E19.27999
G1 F1500.000 E17.27999
G92 E0
G1 X169.154 Y165.862 F12000.000
G1 E2.00000 F1500.000
G1 X167.603 Y165.358 E2.03489 F4485.000
G1 X167.603 Y163.727 E2.06978
G1 X169.154 Y163.223 E2.10467
G1 X170.112 Y164.542 E2.13956
G1 X169.185 Y165.819 E2.17333
G1 X168.975 Y165.312 F12000.000
G1 X168.070 Y165.018 E2.19368 F3510.000
G1 X168.070 Y164.067 E2.21403
G1 X168.975 Y163.773 E2.23437
G1 X169.534 Y164.542 E2.25472
G1 X169.006 Y165.269 E2.27395
G1 X168.833 Y165.632 F12000.000
G1 F1500.000 E0.27395
G92 E0
G1 X184.072 Y192.100 F12000.000
G1 E2.00000 F1500.000
G1 X113.943 Y192.100 E3.50039 F4485.000
G1 X113.933 Y83.929 E5.81467
G1 X114.441 Y83.902 E5.82556
G1 X115.733 Y84.033 E5.85334
G1 X116.157 Y84.054 E5.86243
G1 X116.033 Y86.319 E5.91097
G1 X115.987 Y87.879 E5.94434
G1 X115.972 Y89.424 E5.97741
G1 X116.017 Y92.533 E6.04392
G1 X116.138 Y96.460 E6.12798
G1 X116.201 Y97.337 E6.14679
G1 X116.345 Y98.215 E6.16583
G1 X116.537 Y99.062 E6.18441
G1 X116.813 Y99.922 E6.20374
G1 X117.172 Y100.739 E6.22282
G1 X117.609 Y101.515 E6.24187
G1 X118.108 Y102.256 E6.26100
G1 X118.557 Y102.805 E6.27617
G1 X119.025 Y103.272 E6.29031
G1 X119.546 Y103.710 E6.30487
G1 X120.100 Y104.073 E6.31904
G1 X120.711 Y104.370 E6.33358
G1 X121.360 Y104.580 E6.34818
G1 X122.048 Y104.704 E6.36313
G1 X122.722 Y104.719 E6.37755
G1 X123.372 Y104.783 E6.39153
G1 X123.824 Y104.945 E6.40180
G1 X124.200 Y105.213 E6.41169
G1 X124.548 Y105.609 E6.42295
G1 X124.881 Y106.116 E6.43594
G1 X125.202 Y106.688 E6.44997
G1 X125.826 Y107.996 E6.48097
G1 X126.364 Y108.841 E6.50241
G1 X126.823 Y109.660 E6.52249
G1 X127.227 Y110.496 E6.54237
G1 X127.603 Y111.364 E6.56260
G1 X127.921 Y112.231 E6.58236
G1 X128.209 Y113.123 E6.60241
G1 X128.658 Y114.963 E6.64294
G1 X128.750 Y115.686 E6.65851
G1 X128.974 Y116.441 E6.67538
G1 X129.269 Y117.131 E6.69142
G1 X130.199 Y118.976 E6.73562
G1 X130.449 Y119.560 E6.74923
G1 X130.648 Y120.143 E6.76241
G1 X131.102 Y122.645 E6.81681
G1 X131.489 Y125.207 E6.87223
G1 X131.817 Y127.772 E6.92756
G1 X132.101 Y130.371 E6.98351
G1 X132.611 Y135.576 E7.09539
G1 X133.163 Y140.742 E7.20655
G1 X133.298 Y145.041 E7.29857
G1 X133.403 Y147.212 E7.34508
G1 X133.539 Y149.387 E7.39170
G1 X133.736 Y151.565 E7.43847
G1 X133.978 Y153.730 E7.48508
G1 X134.297 Y155.899 E7.53200
G1 X134.693 Y158.065 E7.57911
G1 X135.017 Y159.344 E7.60733
G1 X135.204 Y160.000 E7.62192
G1 X135.426 Y160.665 E7.63691
G1 X135.682 Y161.305 E7.65166
G1 X135.981 Y161.936 E7.66660
G1 X136.375 Y162.553 E7.68228
G1 X136.809 Y163.071 E7.69673
G1 X137.466 Y163.762 E7.71713
G1 X138.296 Y164.242 E7.73764
G1 X139.151 Y164.521 E7.75689
G1 X140.030 Y164.673 E7.77598
G1 X140.917 Y164.705 E7.79496
G1 X141.768 Y164.705 E7.81317
G1 X142.586 Y164.676 E7.83069
G1 X143.905 Y164.721 E7.85892
G1 X144.502 Y164.703 E7.87169
G1 X145.100 Y164.591 E7.88471
G1 X145.658 Y164.380 E7.89748
G1 X146.171 Y164.064 E7.91036
G1 X146.613 Y163.642 E7.92344
G1 X146.973 Y163.102 E7.93732
G1 X147.200 Y162.498 E7.95112
G1 X147.385 Y161.671 E7.96926
G1 X147.704 Y161.057 E7.98406
G1 X148.153 Y160.463 E8.00000
G1 X149.317 Y159.271 E8.03563
G1 X149.913 Y158.578 E8.05520
G1 X150.457 Y157.796 E8.07557
G1 X150.798 Y156.989 E8.09431
G1 X151.129 Y156.422 E8.10835
G1 X151.362 Y155.705 E8.12449
G1 X151.400 Y154.999 E8.13961
G1 X151.329 Y154.325 E8.15412
G1 X151.171 Y153.676 E8.16841
G1 X150.709 Y152.498 E8.19547
G1 X150.431 Y151.907 E8.20945
G1 X150.002 Y151.175 E8.22761
G1 X149.393 Y150.605 E8.24545
G1 X148.689 Y150.225 E8.26256
G1 X147.958 Y150.012 E8.27885
G1 X147.190 Y149.907 E8.29545
G1 X146.462 Y149.875 E8.31103
G1 X145.039 Y149.890 E8.34148
G1 X144.392 Y149.994 E8.35550
G1 X144.044 Y149.897 E8.36322
G1 X143.740 Y149.647 E8.37164
G1 X143.496 Y149.260 E8.38142
G1 X143.356 Y148.773 E8.39226
G1 X143.345 Y148.277 E8.40289
G1 X143.487 Y147.810 E8.41333
G1 X143.651 Y147.581 E8.41935
G1 X144.138 Y147.528 E8.42983
G1 X144.946 Y147.485 E8.44713
G1 X146.609 Y147.470 E8.48271
G1 X149.171 Y147.516 E8.53755
G1 X149.961 Y147.487 E8.55446
G1 X150.610 Y147.590 E8.56851
G1 X151.359 Y147.396 E8.58507
G1 X151.931 Y146.962 E8.60042
G1 X152.324 Y146.432 E8.61455
G1 X152.615 Y145.883 E8.62784
G1 X153.067 Y144.874 E8.65148
G1 X153.308 Y144.409 E8.66270
G1 X154.114 Y142.021 E8.71662
G1 X154.402 Y141.300 E8.73323
G1 X154.704 Y140.610 E8.74934
G1 X155.041 Y139.949 E8.76522
G1 X155.416 Y139.339 E8.78053
G1 X156.405 Y138.035 E8.81554
G1 X156.996 Y137.388 E8.83430
G1 X157.645 Y136.782 E8.85329
G1 X159.730 Y134.908 E8.91328
G1 X160.399 Y134.207 E8.93400
G1 X161.013 Y133.452 E8.95483
G1 X161.534 Y132.743 E8.97364
G1 X162.108 Y132.155 E8.99122
G1 X162.752 Y131.597 E9.00947
G1 X164.183 Y130.428 E9.04900
G1 X164.854 Y129.785 E9.06888
G1 X165.495 Y129.025 E9.09014
G1 X166.017 Y128.072 E9.11340
G1 X166.241 Y126.967 E9.13752
G1 X166.338 Y125.900 E9.16045
G1 X166.322 Y124.823 E9.18348
G1 X166.159 Y123.745 E9.20682
G1 X165.880 Y122.712 E9.22970
G1 X165.447 Y121.697 E9.25331
G1 X164.863 Y120.778 E9.27661
G1 X164.102 Y119.897 E9.30151
G1 X163.164 Y119.284 E9.32548
G1 X162.130 Y119.085 E9.34800
G1 X161.155 Y119.217 E9.36905
G1 X160.219 Y119.564 E9.39042
G1 X159.377 Y120.033 E9.41104
G1 X158.571 Y120.529 E9.43128
G1 X157.842 Y121.020 E9.45008
G1 X157.050 Y121.485 E9.46975
G1 X154.178 Y125.257 E9.57117
G1 X153.303 Y126.531 E9.60423
G1 X152.489 Y127.852 E9.63744
G1 X151.744 Y129.218 E9.67073
G1 X151.118 Y130.674 E9.70463
G1 X150.649 Y132.110 E9.73695
G1 X150.239 Y132.850 E9.75506
G1 X149.717 Y133.565 E9.77399
G1 X149.094 Y134.259 E9.79394
G1 X147.704 Y135.648 E9.83599
G1 X147.006 Y136.393 E9.85784
G1 X146.330 Y137.214 E9.88058
G1 X145.865 Y137.967 E9.89952
G1 X145.641 Y138.136 E9.90551
G1 X145.298 Y138.319 E9.91383
G1 X144.908 Y138.446 E9.92262
G1 X144.516 Y138.502 E9.93109
G1 X144.198 Y138.482 E9.93789
G1 X143.957 Y138.394 E9.94339
G1 X143.781 Y138.253 E9.94820
G1 X143.673 Y138.063 E9.95288
G1 X143.612 Y137.258 E9.97015
G1 X143.568 Y136.306 E9.99055
G1 X143.553 Y134.338 E10.03265
G1 X143.598 Y131.342 E10.09676
G1 X143.568 Y130.360 E10.11778
G1 X143.613 Y129.133 E10.14404
G1 X143.538 Y125.415 E10.22360
G1 X143.538 Y124.186 E10.24989
G1 X143.567 Y123.002 E10.27524
G1 X143.668 Y121.825 E10.30051
G1 X143.868 Y120.679 E10.32540
G1 X144.082 Y119.795 E10.34485
G1 X144.354 Y118.936 E10.36413
G1 X144.666 Y118.099 E10.38324
G1 X145.051 Y117.301 E10.40221
G1 X145.464 Y116.517 E10.42116
G1 X145.946 Y115.780 E10.44001
G1 X146.481 Y115.043 E10.45949
G1 X147.046 Y114.337 E10.47883
G1 X148.348 Y113.035 E10.51822
G1 X149.636 Y111.641 E10.55883
G1 X152.141 Y108.851 E10.63905
G1 X154.691 Y106.121 E10.71897
G1 X155.991 Y104.807 E10.75853
G1 X157.385 Y103.548 E10.79871
G1 X159.688 Y101.245 E10.86839
G1 X163.547 Y97.461 E10.98403
G1 X165.187 Y95.595 E11.03717
G1 X166.888 Y93.850 E11.08932
G1 X168.670 Y92.171 E11.14169
G1 X170.504 Y90.531 E11.19433
G1 X176.119 Y85.667 E11.35326
G1 X177.777 Y84.133 E11.40159
G1 X178.404 Y84.046 E11.41514
G1 X179.258 Y83.975 E11.43347
G1 X181.076 Y83.960 E11.47238
G1 X182.933 Y84.020 E11.51213
G1 X184.072 Y84.020 E11.53649
G1 X184.072 Y192.047 E13.84769
G1 X184.540 Y192.568 F12000.000
G1 X113.475 Y192.568 E15.36810 F3510.000
G1 X113.475 Y84.334 E17.68370
G1 X113.462 Y83.795 E17.69524
G1 X113.611 Y83.571 E17.70100
G1 X113.933 Y83.460 E17.70829
G1 X114.450 Y83.433 E17.71936
G1 X115.770 Y83.567 E17.74775
G1 X116.417 Y83.598 E17.76160
G1 X116.660 Y83.564 E17.76685
G1 X116.575 Y84.803 E17.79342
G1 X116.500 Y86.338 E17.82630
G1 X116.455 Y87.888 E17.85947
G1 X116.440 Y89.423 E17.89232
G1 X116.485 Y92.521 E17.95861
G1 X116.605 Y96.439 E18.04247
G1 X116.666 Y97.282 E18.06055
G1 X116.804 Y98.125 E18.07884
G1 X116.989 Y98.938 E18.09668
G1 X117.251 Y99.756 E18.11505
G1 X117.591 Y100.529 E18.13312
G1 X118.007 Y101.269 E18.15127
G1 X118.484 Y101.977 E18.16954
G1 X118.904 Y102.490 E18.18374
G1 X119.341 Y102.927 E18.19695
G1 X119.826 Y103.333 E18.21048
G1 X120.331 Y103.665 E18.22342
G1 X120.886 Y103.935 E18.23662
G1 X121.474 Y104.126 E18.24984
G1 X122.095 Y104.237 E18.26333
G1 X122.750 Y104.252 E18.27735
G1 X123.475 Y104.323 E18.29294
G1 X124.043 Y104.526 E18.30585
G1 X124.516 Y104.864 E18.31829
G1 X124.921 Y105.324 E18.33140
G1 X125.281 Y105.873 E18.34543
G1 X125.618 Y106.473 E18.36015
G1 X126.236 Y107.769 E18.39088
G1 X126.765 Y108.601 E18.41198
G1 X127.238 Y109.443 E18.43264
G1 X127.653 Y110.302 E18.45303
G1 X128.038 Y111.190 E18.47376
G1 X128.364 Y112.079 E18.49401
G1 X128.659 Y112.996 E18.51461
G1 X129.119 Y114.878 E18.55607
G1 X129.210 Y115.589 E18.57141
G1 X129.414 Y116.282 E18.58687
G1 X129.693 Y116.933 E18.60202
G1 X130.623 Y118.778 E18.64622
G1 X130.886 Y119.392 E18.66052
G1 X131.102 Y120.025 E18.67483
G1 X131.563 Y122.568 E18.73013
G1 X131.952 Y125.142 E18.78581
G1 X132.282 Y127.717 E18.84135
G1 X132.566 Y130.323 E18.89744
G1 X133.076 Y135.528 E19.00933
G1 X133.630 Y140.710 E19.12082
G1 X133.765 Y145.022 E19.21314
G1 X133.870 Y147.186 E19.25949
G1 X134.006 Y149.352 E19.30590
G1 X134.201 Y151.518 E19.35243
G1 X134.442 Y153.670 E19.39876
G1 X134.758 Y155.823 E19.44533
G1 X135.151 Y157.966 E19.49193
G1 X135.469 Y159.223 E19.51967
G1 X135.651 Y159.861 E19.53388
G1 X135.865 Y160.504 E19.54836
G1 X136.111 Y161.118 E19.56251
G1 X136.391 Y161.709 E19.57651
G1 X136.753 Y162.276 E19.59090
G1 X137.158 Y162.759 E19.60440
G1 X137.759 Y163.391 E19.62304
G1 X138.488 Y163.812 E19.64105
G1 X139.265 Y164.066 E19.65854
G1 X140.079 Y164.207 E19.67623
G1 X140.925 Y164.237 E19.69435
G1 X141.760 Y164.237 E19.71219
G1 X142.582 Y164.208 E19.72980
G1 X143.912 Y164.253 E19.75826
G1 X144.452 Y164.237 E19.76983
G1 X144.973 Y164.139 E19.78117
G1 X145.451 Y163.958 E19.79210
G1 X145.884 Y163.692 E19.80297
G1 X146.253 Y163.339 E19.81389
G1 X146.554 Y162.887 E19.82551
G1 X146.750 Y162.364 E19.83747
G1 X146.942 Y161.509 E19.85622
G1 X147.307 Y160.806 E19.87316
G1 X147.796 Y160.160 E19.89050
G1 X148.973 Y158.953 E19.92658
G1 X149.543 Y158.291 E19.94526
G1 X150.045 Y157.569 E19.96407
G1 X150.379 Y156.780 E19.98241
G1 X150.700 Y156.230 E19.99602
G1 X150.898 Y155.619 E20.00977
G1 X150.931 Y155.011 E20.02279
G1 X150.867 Y154.405 E20.03583
G1 X150.724 Y153.817 E20.04877
G1 X150.280 Y152.683 E20.07482
G1 X150.016 Y152.126 E20.08802
G1 X149.632 Y151.470 E20.10428
G1 X149.117 Y150.988 E20.11937
G1 X148.510 Y150.660 E20.13413
G1 X147.861 Y150.470 E20.14861
G1 X147.147 Y150.373 E20.16401
G1 X146.454 Y150.342 E20.17886
G1 X145.079 Y150.358 E20.20828
G1 X144.365 Y150.472 E20.22376
G1 X143.823 Y150.321 E20.23578
G1 X143.385 Y149.960 E20.24793
G1 X143.065 Y149.454 E20.26073
G1 X142.889 Y148.845 E20.27431
G1 X142.876 Y148.212 E20.28784
G1 X143.062 Y147.600 E20.30153
G1 X143.393 Y147.139 E20.31367
G1 X144.100 Y147.062 E20.32889
G1 X144.929 Y147.017 E20.34665
G1 X145.762 Y147.002 E20.36448
G1 X149.167 Y147.048 E20.43733
G1 X149.990 Y147.018 E20.45494
G1 X150.587 Y147.113 E20.46788
G1 X151.151 Y146.967 E20.48034
G1 X151.595 Y146.630 E20.49226
G1 X151.927 Y146.181 E20.50421
G1 X152.195 Y145.677 E20.51642
G1 X152.645 Y144.671 E20.54000
G1 X152.876 Y144.225 E20.55074
G1 X153.675 Y141.859 E20.60418
G1 X153.971 Y141.119 E20.62123
G1 X154.281 Y140.410 E20.63779
G1 X154.633 Y139.720 E20.65436
G1 X155.027 Y139.077 E20.67049
G1 X156.046 Y137.734 E20.70657
G1 X156.663 Y137.058 E20.72613
G1 X157.329 Y136.437 E20.74562
G1 X159.404 Y134.572 E20.80531
G1 X160.048 Y133.898 E20.82525
G1 X160.643 Y133.165 E20.84544
G1 X161.176 Y132.440 E20.86471
G1 X161.787 Y131.815 E20.88340
G1 X162.451 Y131.239 E20.90222
G1 X163.872 Y130.077 E20.94149
G1 X164.512 Y129.464 E20.96045
G1 X165.107 Y128.760 E20.98018
G1 X165.572 Y127.909 E21.00091
G1 X165.778 Y126.899 E21.02297
G1 X165.870 Y125.882 E21.04482
G1 X165.855 Y124.862 E21.06665
G1 X165.700 Y123.841 E21.08874
G1 X165.437 Y122.866 E21.11035
G1 X165.032 Y121.916 E21.13245
G1 X164.486 Y121.058 E21.15419
G1 X163.791 Y120.252 E21.17695
G1 X162.986 Y119.726 E21.19754
G1 X162.117 Y119.559 E21.21646
G1 X161.269 Y119.673 E21.23477
G1 X160.415 Y119.990 E21.25425
G1 X159.614 Y120.437 E21.27389
G1 X158.825 Y120.922 E21.29371
G1 X158.092 Y121.416 E21.31261
G1 X157.366 Y121.842 E21.33062
G1 X154.557 Y125.531 E21.42981
G1 X153.695 Y126.786 E21.46239
G1 X152.894 Y128.087 E21.49508
G1 X152.165 Y129.423 E21.52764
G1 X151.556 Y130.839 E21.56062
G1 X151.080 Y132.297 E21.59344
G1 X150.634 Y133.103 E21.61314
G1 X150.081 Y133.860 E21.63320
G1 X149.433 Y134.580 E21.65392
G1 X148.040 Y135.974 E21.69607
G1 X147.357 Y136.702 E21.71744
G1 X146.711 Y137.487 E21.73918
G1 X146.217 Y138.287 E21.75930
G1 X145.895 Y138.531 E21.76796
G1 X145.482 Y138.751 E21.77796
G1 X145.013 Y138.903 E21.78850
G1 X144.535 Y138.971 E21.79884
G1 X144.102 Y138.945 E21.80813
G1 X143.724 Y138.807 E21.81673
G1 X143.419 Y138.562 E21.82510
G1 X143.215 Y138.203 E21.83394
G1 X143.145 Y137.287 E21.85359
G1 X143.100 Y136.320 E21.87430
G1 X143.085 Y134.334 E21.91678
G1 X143.130 Y131.346 E21.98074
G1 X143.100 Y130.358 E22.00187
G1 X143.145 Y129.130 E22.02817
G1 X143.070 Y125.420 E22.10756
G1 X143.070 Y124.181 E22.13407
G1 X143.100 Y122.976 E22.15985
G1 X143.203 Y121.765 E22.18586
G1 X143.410 Y120.584 E22.21152
G1 X143.631 Y119.670 E22.23163
G1 X143.911 Y118.784 E22.25151
G1 X144.235 Y117.916 E22.27133
G1 X144.633 Y117.090 E22.29094
G1 X145.061 Y116.279 E22.31055
G1 X145.561 Y115.514 E22.33011
G1 X146.109 Y114.759 E22.35007
G1 X146.697 Y114.024 E22.37020
G1 X148.010 Y112.711 E22.40995
G1 X149.290 Y111.326 E22.45029
G1 X151.795 Y108.536 E22.53051
G1 X154.355 Y105.796 E22.61073
G1 X155.668 Y104.468 E22.65068
G1 X157.062 Y103.209 E22.69088
G1 X159.360 Y100.911 E22.76040
G1 X163.207 Y97.139 E22.87567
G1 X164.844 Y95.277 E22.92870
G1 X166.560 Y93.516 E22.98133
G1 X168.354 Y91.827 E23.03404
G1 X170.195 Y90.180 E23.08689
G1 X175.807 Y85.319 E23.24573
G1 X177.567 Y83.689 E23.29705
G1 X178.352 Y83.581 E23.31401
G1 X179.236 Y83.507 E23.33299
G1 X181.082 Y83.493 E23.37247
