; generated by Slic3r 1.0.0RC1 on 2013-12-26 at 21:52:08

; layer_height = 0.25
; perimeters = 3
; top_solid_layers = 6
; bottom_solid_layers = 3
; fill_density = 0.4
; perimeter_speed = 30
; infill_speed = 60
; travel_speed = 130
; nozzle_diameter = 0.35
; filament_diameter = 1.75
; extrusion_multiplier = 1
; perimeters extrusion width = 0.35mm
; infill extrusion width = 0.39mm
; solid infill extrusion width = 0.39mm
; top infill extrusion width = 0.39mm
; support material extrusion width = 0.35mm
; first layer extrusion width = 0.70mm

G21 ; set units to millimeters
M107
M104 S200 ; set temperature
G28 ; home all axes
G1 Z5 F5000 ; lift nozzle

M109 S200 ; wait for temperature to be reached
G90 ; use absolute coordinates
G92 E0
M82 ; use absolute distances for extrusion
G1 F1800.000 E-1.00000
G92 E0
G1 Z0.350 F7800.000
G1 X129.320 Y129.320 F7800.000
G1 E1.00000 F1800.000
G1 X130.320 Y128.490 E1.11817 F540.000
G1 X131.460 Y127.880 E1.23574
G1 X132.710 Y127.500 E1.35453
G1 X134.000 Y127.380 E1.47234
G1 X166.000 Y127.380 E4.38209
G1 X167.290 Y127.500 E4.49989
G1 X168.540 Y127.880 E4.61869
G1 X169.680 Y128.490 E4.73626
G1 X170.680 Y129.320 E4.85443
G1 X171.510 Y130.320 E4.97260
G1 X172.120 Y131.460 E5.09016
G1 X172.500 Y132.710 E5.20896
G1 X172.620 Y134.000 E5.32677
G1 X172.620 Y166.000 E8.23651
G1 X172.500 Y167.290 E8.35432
G1 X172.120 Y168.540 E8.47312
G1 X171.510 Y169.680 E8.59068
G1 X170.680 Y170.680 E8.70885
G1 X169.680 Y171.510 E8.82702
G1 X168.540 Y172.120 E8.94459
G1 X167.290 Y172.500 E9.06339
G1 X166.000 Y172.620 E9.18119
G1 X134.000 Y172.620 E12.09094
G1 X132.710 Y172.500 E12.20875
G1 X131.460 Y172.120 E12.32754
G1 X130.320 Y171.510 E12.44511
G1 X129.320 Y170.680 E12.56328
G1 X128.490 Y169.680 E12.68145
G1 X127.880 Y168.540 E12.79902
G1 X127.500 Y167.290 E12.91782
G1 X127.380 Y166.000 E13.03562
G1 X127.380 Y134.000 E15.94537
G1 X127.500 Y132.710 E16.06317
G1 X127.880 Y131.460 E16.18197
G1 X128.490 Y130.320 E16.29954
G1 X129.260 Y129.392 E16.40919
G1 F1800.000 E15.40919
G92 E0
G1 X144.192 Y144.192 F7800.000
G1 E1.00000 F1800.000
G1 X145.893 Y142.887 E1.19497 F540.000
G1 X147.540 Y142.205 E1.35708
G1 X147.874 Y142.066 E1.38994
G1 X150.000 Y141.786 E1.58491
G1 X152.126 Y142.066 E1.77988
G1 X154.107 Y142.887 E1.97485
G1 X156.660 Y144.846 E2.26743
G1 X156.552 Y145.162 E2.29781
G1 X157.113 Y145.893 E2.38161
G1 X157.934 Y147.874 E2.57658
G1 X158.214 Y150.000 E2.77155
G1 X157.934 Y152.126 E2.96652
G1 X157.113 Y154.107 E3.16149
G1 X155.808 Y155.808 E3.35646
G1 X154.107 Y157.113 E3.55143
G1 X152.126 Y157.934 E3.74639
G1 X150.000 Y158.214 E3.94136
G1 X147.874 Y157.934 E4.13633
G1 X145.893 Y157.113 E4.33130
G1 X144.192 Y155.808 E4.52627
G1 X142.887 Y154.107 E4.72124
G1 X142.749 Y153.773 E4.75410
G1 X142.066 Y152.126 E4.91621
G1 X141.786 Y150.000 E5.11118
G1 X142.066 Y147.874 E5.30615
G1 X142.887 Y145.893 E5.50112
G1 X144.135 Y144.266 E5.68756
G1 X144.638 Y144.638 F7800.000
G1 X146.208 Y143.433 E5.86757 F540.000
G1 X147.779 Y142.782 E6.02220
G1 X148.037 Y142.675 E6.04758
G1 X150.000 Y142.417 E6.22759
G1 X151.963 Y142.675 E6.40759
G1 X153.534 Y143.326 E6.56222
G1 X153.792 Y143.433 E6.58760
G1 X155.362 Y144.638 E6.76761
G1 X156.567 Y146.208 E6.94762
G1 X157.325 Y148.037 E7.12762
G1 X157.583 Y150.000 E7.30763
G1 X157.325 Y151.963 E7.48764
G1 X156.567 Y153.792 E7.66765
G1 X155.362 Y155.362 E7.84766
G1 X153.792 Y156.567 E8.02766
G1 X151.963 Y157.325 E8.20767
G1 X150.000 Y157.583 E8.38768
G1 X148.037 Y157.325 E8.56769
G1 X146.208 Y156.567 E8.74769
G1 X144.638 Y155.362 E8.92770
G1 X143.433 Y153.792 E9.10771
G1 X143.326 Y153.534 E9.13309
G1 X142.675 Y151.963 E9.28772
G1 X142.417 Y150.000 E9.46772
G1 X142.675 Y148.037 E9.64773
G1 X143.433 Y146.208 E9.82774
G1 X144.581 Y144.712 E9.99922
G1 X145.083 Y145.083 F7800.000
G1 X146.523 Y143.979 E10.16427 F378.000
G1 X148.019 Y143.359 E10.31142
G1 X148.200 Y143.284 E10.32932
G1 X150.000 Y143.047 E10.49436
G1 X151.800 Y143.284 E10.65941
G1 X153.295 Y143.903 E10.80656
G1 X153.477 Y143.979 E10.82446
G1 X154.917 Y145.083 E10.98950
G1 X156.021 Y146.523 E11.15455
G1 X156.716 Y148.200 E11.31960
G1 X156.953 Y150.000 E11.48464
G1 X156.716 Y151.800 E11.64969
G1 X156.021 Y153.477 E11.81474
G1 X154.917 Y154.917 E11.97978
G1 X153.477 Y156.021 E12.14483
G1 X151.800 Y156.716 E12.30988
G1 X150.000 Y156.953 E12.47492
G1 X148.200 Y156.716 E12.63997
G1 X146.523 Y156.021 E12.80502
G1 X145.083 Y154.917 E12.97006
G1 X143.979 Y153.477 E13.13511
G1 X143.903 Y153.295 E13.15301
G1 X143.284 Y151.800 E13.30015
G1 X143.047 Y150.000 E13.46520
G1 X143.284 Y148.200 E13.63025
G1 X143.979 Y146.523 E13.79529
G1 X145.026 Y145.158 E13.95182
G1 X144.948 Y144.473 F7800.000
G1 X135.600 Y135.600 F7800.000
G1 X164.400 Y135.600 E16.57063 F540.000
G1 X164.400 Y164.400 E19.18944
G1 X135.600 Y164.400 E21.80825
G1 X135.600 Y135.694 E24.41854
G1 X134.975 Y134.975 F7800.000
G1 X165.025 Y134.975 E27.15100 F540.000
G1 X165.025 Y165.025 E29.88345
G1 X134.975 Y165.025 E32.61591
G1 X134.975 Y135.069 E35.33984
G1 X134.350 Y134.350 F7800.000
G1 X165.650 Y134.350 E38.18593 F378.000
G1 X165.650 Y165.650 E41.03203
G1 X134.350 Y165.650 E43.87812
G1 X134.350 Y134.444 E46.71570
G1 X134.891 Y134.662 F7800.000
G1 X154.980 Y143.026 F7800.000
G1 X147.976 Y136.021 E47.61822 F1080.000
G1 X147.091 Y136.021 E47.69890
G1 X153.070 Y142.001 E48.46941
G1 X151.779 Y141.595 E48.59273
G1 X146.205 Y136.021 E49.31095
G1 X145.320 Y136.021 E49.39164
G1 X150.759 Y141.461 E50.09256
G1 X149.800 Y141.387 E50.18021
G1 X144.434 Y136.021 E50.87164
G1 X143.549 Y136.021 E50.95233
G1 X149.017 Y141.490 E51.65704
G1 X148.235 Y141.593 E51.72896
G1 X142.663 Y136.021 E52.44694
G1 X141.777 Y136.021 E52.52763
G1 X147.515 Y141.759 E53.26691
G1 X146.889 Y142.018 E53.32866
G1 X140.892 Y136.021 E54.10136
G1 X140.006 Y136.021 E54.18205
G1 X146.262 Y142.277 E54.98818
G1 X145.645 Y142.546 E55.04950
G1 X139.121 Y136.021 E55.89019
G1 X138.235 Y136.021 E55.97088
G1 X145.144 Y142.930 E56.86111
G1 X144.643 Y143.315 E56.91865
G1 X137.350 Y136.021 E57.85842
G1 X136.464 Y136.021 E57.93911
G1 X144.142 Y143.699 E58.92843
G1 X143.699 Y144.142 E58.98548
G1 X136.021 Y136.464 E59.97480
G1 X136.021 Y137.350 E60.05548
G1 X143.315 Y144.643 E60.99526
G1 X142.930 Y145.144 E61.05280
G1 X136.021 Y138.235 E61.94303
G1 X136.021 Y139.121 E62.02372
G1 X142.546 Y145.645 E62.86441
G1 X142.277 Y146.262 E62.92574
G1 X136.021 Y140.006 E63.73186
G1 X136.021 Y140.892 E63.81255
G1 X142.018 Y146.889 E64.58525
G1 X141.759 Y147.515 E64.64701
G1 X136.021 Y141.777 E65.38629
G1 X136.021 Y142.663 E65.46698
G1 X141.593 Y148.235 E66.18496
G1 X141.490 Y149.017 E66.25688
G1 X136.021 Y143.549 E66.96158
G1 X136.021 Y144.434 E67.04227
G1 X141.387 Y149.800 E67.73371
G1 X141.461 Y150.759 E67.82136
G1 X136.021 Y145.320 E68.52227
G1 X136.021 Y146.205 E68.60296
G1 X141.595 Y151.779 E69.32118
G1 X142.001 Y153.070 E69.44451
G1 X136.021 Y147.091 E70.21501
G1 X136.021 Y147.976 E70.29569
G1 X143.025 Y154.980 E71.19820
G1 X145.020 Y156.975 F7800.000
G1 X152.024 Y163.979 E72.10070 F1080.000
G1 X151.138 Y163.979 E72.18139
G1 X136.021 Y148.862 E74.12929
G1 X136.021 Y149.747 E74.20998
G1 X150.253 Y163.979 E76.04377
G1 X149.367 Y163.979 E76.12446
G1 X136.021 Y150.633 E77.84414
G1 X136.021 Y151.518 E77.92483
G1 X148.482 Y163.979 E79.53041
G1 X147.596 Y163.979 E79.61109
G1 X136.021 Y152.404 E81.10256
G1 X136.021 Y153.289 E81.18325
G1 X146.711 Y163.979 E82.56061
G1 X145.825 Y163.979 E82.64130
G1 X136.021 Y154.175 E83.90455
G1 X136.021 Y155.061 E83.98524
G1 X144.939 Y163.979 E85.13438
G1 X144.054 Y163.979 E85.21507
G1 X136.021 Y155.946 E86.25011
G1 X136.021 Y156.832 E86.33080
G1 X143.168 Y163.979 E87.25173
G1 X142.283 Y163.979 E87.33241
G1 X136.021 Y157.717 E88.13924
G1 X136.021 Y158.603 E88.21992
G1 X141.397 Y163.979 E88.91264
G1 X140.512 Y163.979 E88.99332
G1 X136.021 Y159.488 E89.57193
G1 X136.021 Y160.374 E89.65262
G1 X139.626 Y163.979 E90.11712
G1 X138.741 Y163.979 E90.19780
G1 X136.021 Y161.259 E90.54820
G1 X136.021 Y162.145 E90.62888
G1 X137.855 Y163.979 E90.86517
G1 X136.970 Y163.979 E90.94585
G1 X136.021 Y163.030 E91.06803
G1 X136.021 Y163.916 E91.14872
G1 X136.084 Y163.979 E91.15678
G1 X146.930 Y157.999 F7800.000
G1 X152.909 Y163.979 E91.92729 F1080.000
G1 X153.795 Y163.979 E92.00797
G1 X148.221 Y158.405 E92.72619
G1 X149.241 Y158.539 E92.81991
G1 X154.680 Y163.979 E93.52083
G1 X155.566 Y163.979 E93.60152
G1 X150.200 Y158.613 E94.29295
G1 X150.983 Y158.510 E94.36487
G1 X156.451 Y163.979 E95.06958
G1 X157.337 Y163.979 E95.15026
G1 X151.765 Y158.407 E95.86825
G1 X152.485 Y158.241 E95.93558
G1 X158.223 Y163.979 E96.67486
G1 X159.108 Y163.979 E96.75555
G1 X153.111 Y157.982 E97.52826
G1 X153.738 Y157.723 E97.59001
G1 X159.994 Y163.979 E98.39614
G1 X160.879 Y163.979 E98.47682
G1 X154.355 Y157.454 E99.31751
G1 X154.856 Y157.070 E99.37506
G1 X161.765 Y163.979 E100.26529
G1 X162.650 Y163.979 E100.34598
G1 X155.357 Y156.685 E101.28575
G1 X155.858 Y156.301 E101.34330
G1 X163.536 Y163.979 E102.33261
G1 X163.979 Y163.536 E102.38967
G1 X156.301 Y155.858 E103.37898
G1 X156.685 Y155.357 E103.43653
G1 X163.979 Y162.650 E104.37630
G1 X163.979 Y161.765 E104.45699
G1 X157.070 Y154.856 E105.34722
G1 X157.454 Y154.355 E105.40476
G1 X163.979 Y160.879 E106.24545
G1 X163.979 Y159.994 E106.32614
G1 X157.723 Y153.738 E107.13226
G1 X157.982 Y153.111 E107.19402
G1 X163.979 Y159.108 E107.96672
G1 X163.979 Y158.222 E108.04741
G1 X158.241 Y152.485 E108.78669
G1 X158.407 Y151.765 E108.85402
G1 X163.979 Y157.337 E109.57201
G1 X163.979 Y156.451 E109.65269
G1 X158.510 Y150.983 E110.35740
G1 X158.613 Y150.200 E110.42932
G1 X163.979 Y155.566 E111.12075
G1 X163.979 Y154.680 E111.20144
G1 X158.539 Y149.241 E111.90236
G1 X158.405 Y148.221 E111.99608
G1 X163.979 Y153.795 E112.71430
G1 X163.979 Y152.909 E112.79499
G1 X157.999 Y146.930 E113.56549
G1 X157.028 Y145.073 F7800.000
G1 X163.979 Y152.024 E114.46115 F1080.000
G1 X163.979 Y151.138 E114.54183
G1 X148.862 Y136.021 E116.48973
G1 X149.747 Y136.021 E116.57042
G1 X163.979 Y150.253 E118.40420
G1 X163.979 Y149.367 E118.48489
G1 X150.633 Y136.021 E120.20457
G1 X151.518 Y136.021 E120.28526
G1 X163.979 Y148.482 E121.89083
G1 X163.979 Y147.596 E121.97152
G1 X152.404 Y136.021 E123.46298
G1 X153.289 Y136.021 E123.54367
G1 X163.979 Y146.711 E124.92103
G1 X163.979 Y145.825 E125.00171
G1 X154.175 Y136.021 E126.26496
G1 X155.061 Y136.021 E126.34565
G1 X163.979 Y144.939 E127.49479
G1 X163.979 Y144.054 E127.57548
G1 X155.946 Y136.021 E128.61051
G1 X156.832 Y136.021 E128.69120
G1 X163.979 Y143.168 E129.61213
G1 X163.979 Y142.283 E129.69281
G1 X157.717 Y136.021 E130.49963
G1 X158.603 Y136.021 E130.58032
G1 X163.979 Y141.397 E131.27303
G1 X163.979 Y140.512 E131.35372
G1 X159.488 Y136.021 E131.93232
G1 X160.374 Y136.021 E132.01301
G1 X163.979 Y139.626 E132.47750
G1 X163.979 Y138.741 E132.55819
G1 X161.259 Y136.021 E132.90858
G1 X162.145 Y136.021 E132.98926
G1 X163.979 Y137.855 E133.22554
G1 X163.979 Y136.970 E133.30623
G1 X163.030 Y136.021 E133.42840
G1 X163.916 Y136.021 E133.50909
G1 X163.979 Y136.084 E133.51715
G1 F1800.000 E132.51715
G92 E0
G1 X153.086 Y144.507 F7800.000
G1 E1.00000 F1800.000
G1 X146.914 Y144.507 E1.56116 F1080.000
G1 X145.371 Y145.756 E1.74176
G1 X154.629 Y145.756 E2.58365
G1 X155.531 Y147.006 E2.72380
G1 X144.469 Y147.006 E3.72974
G1 X143.951 Y148.256 E3.85275
G1 X156.049 Y148.256 E4.95283
G1 X156.245 Y149.506 E5.06786
G1 X143.755 Y149.506 E6.20356
G1 X143.789 Y150.756 E6.31725
G1 X156.211 Y150.756 E7.44669
G1 X155.941 Y152.005 E7.56295
G1 X144.059 Y152.005 E8.64335
G1 X144.612 Y153.255 E8.76762
G1 X155.388 Y153.255 E9.74744
G1 X154.406 Y154.505 E9.89197
G1 X145.594 Y154.505 E10.69320
G1 X147.545 Y155.755 E10.90388
G1 X152.455 Y155.755 E11.35031
M106 S134
M104 S220 ; set temperature
G1 F1800.000 E10.35031
G92 E0
G1 Z0.425 F7800.000
G1 X150.100 Y155.894 F7800.000
G1 E1.00000 F1800.000
G1 X150.100 Y143.849 E1.13145 F3600
G1 X150.000 Y143.753 F7800.000
G1 X148.383 Y143.966 E1.14925 F3600
G1 X148.047 Y144.105 E1.15322
G1 X146.877 Y144.590 E1.16704
G1 X145.583 Y145.583 E1.18484
G1 X144.590 Y146.877 E1.20264
G1 X144.252 Y147.693 E1.21229
G1 X143.966 Y148.383 E1.22044
G1 X143.753 Y150.000 E1.23823
G1 X143.966 Y151.617 E1.25603
G1 X144.049 Y151.816 E1.25839
G1 X144.590 Y153.123 E1.27383
G1 X145.583 Y154.417 E1.29163
G1 X146.877 Y155.410 E1.30942
G1 X148.383 Y156.034 E1.32722
G1 X150.000 Y156.247 E1.34502
G1 X151.617 Y156.034 E1.36282
G1 X153.123 Y155.410 E1.38061
G1 X154.417 Y154.417 E1.39841
G1 X155.410 Y153.123 E1.41621
G1 X156.034 Y151.617 E1.43401
G1 X156.247 Y150.000 E1.45181
G1 X156.034 Y148.383 E1.46960
G1 X155.722 Y147.630 E1.47850
G1 X155.410 Y146.877 E1.48740
G1 X154.417 Y145.583 E1.50520
G1 X153.123 Y144.590 E1.52300
G1 X151.617 Y143.966 E1.54079
G1 X150.000 Y143.753 E1.55859
G1 F1800.000 E0.55859
G92 E0
G1 X144.750 Y146.803 F7800.000
G1 E1.00000 F1800.000
G1 X144.750 Y153.197 E1.06977 F3600
G1 X155.450 Y152.811 F7800.000
G1 X155.450 Y147.189 E1.13114 F3600
G1 F1800.000 E0.13114
G92 E0
G1 Z0.600 F7800.000
G1 X156.670 Y146.717 F7800.000
G1 E1.00000 F1800.000
G1 X157.228 Y148.063 E1.05300 F1800
G1 X157.483 Y150.000 E1.12406
G1 X157.228 Y151.937 E1.19512
G1 X156.480 Y153.741 E1.26618
G1 X155.291 Y155.291 E1.33724
G1 X153.741 Y156.480 E1.40830
G1 X151.937 Y157.228 E1.47936
G1 X150.000 Y157.483 E1.55042
G1 X148.063 Y157.228 E1.62148
G1 X146.259 Y156.480 E1.69253
G1 X144.709 Y155.291 E1.76359
G1 X143.520 Y153.741 E1.83465
G1 X142.772 Y151.937 E1.90571
G1 X142.517 Y150.000 E1.97677
G1 X142.772 Y148.063 E2.04783
G1 X143.520 Y146.259 E2.11889
G1 X144.709 Y144.709 E2.18995
G1 X146.259 Y143.520 E2.26101
G1 X148.063 Y142.772 E2.33207
G1 X150.000 Y142.517 E2.40312
G1 X151.937 Y142.772 E2.47418
G1 X153.741 Y143.520 E2.54524
G1 X155.291 Y144.709 E2.61630
G1 X156.480 Y146.259 E2.68736
G1 X156.650 Y146.669 E2.70351
G1 X156.447 Y147.093 F7800.000
G1 X156.887 Y148.155 E2.74531 F1800
G1 X157.130 Y150.000 E2.81301
G1 X156.887 Y151.845 E2.88072
G1 X156.174 Y153.565 E2.94843
G1 X155.041 Y155.041 E3.01613
G1 X153.565 Y156.174 E3.08384
G1 X151.845 Y156.887 E3.15155
G1 X150.000 Y157.130 E3.21925
G1 X148.155 Y156.887 E3.28696
G1 X146.435 Y156.174 E3.35467
G1 X144.959 Y155.041 E3.42237
G1 X143.826 Y153.565 E3.49008
G1 X143.113 Y151.845 E3.55778
G1 X142.870 Y150.000 E3.62549
G1 X143.113 Y148.155 E3.69320
G1 X143.826 Y146.435 E3.76090
G1 X144.959 Y144.959 E3.82861
G1 X146.435 Y143.826 E3.89632
G1 X148.155 Y143.113 E3.96402
G1 X150.000 Y142.870 E4.03173
G1 X151.845 Y143.113 E4.09944
G1 X153.565 Y143.826 E4.16714
G1 X155.041 Y144.959 E4.23485
G1 X156.174 Y146.435 E4.30256
G1 X156.427 Y147.045 E4.32655
G1 X156.079 Y147.119 F7800.000
G1 X156.546 Y148.246 E4.37093 F1260
G1 X156.777 Y150.000 E4.43528
G1 X156.546 Y151.754 E4.49964
G1 X155.869 Y153.388 E4.56399
G1 X154.792 Y154.792 E4.62835
G1 X153.388 Y155.869 E4.69270
G1 X151.754 Y156.546 E4.75706
G1 X150.000 Y156.777 E4.82141
G1 X148.246 Y156.546 E4.88576
G1 X146.612 Y155.869 E4.95012
G1 X145.208 Y154.792 E5.01447
G1 X144.131 Y153.388 E5.07883
G1 X143.454 Y151.754 E5.14318
G1 X143.398 Y151.325 E5.15890
G1 X143.223 Y150.000 E5.20753
G1 X143.454 Y148.246 E5.27189
G1 X144.131 Y146.612 E5.33624
G1 X145.208 Y145.208 E5.40060
G1 X146.612 Y144.131 E5.46495
G1 X148.246 Y143.454 E5.52930
G1 X150.000 Y143.223 E5.59366
G1 X151.754 Y143.454 E5.65801
G1 X153.388 Y144.131 E5.72237
G1 X154.792 Y145.208 E5.78672
G1 X155.869 Y146.612 E5.85107
G1 X156.059 Y147.071 E5.86914
G1 X156.426 Y147.165 F7800.000
G1 X165.125 Y134.875 F7800.000
G1 X165.125 Y165.125 E6.96958 F1800
G1 X134.875 Y165.125 E8.07003
G1 X134.875 Y134.875 E9.17047
G1 X165.072 Y134.875 E10.26900
G1 X165.475 Y134.525 F7800.000
G1 X165.475 Y165.475 E11.39491 F1800
G1 X134.525 Y165.475 E12.52082
G1 X134.525 Y134.525 E13.64673
G1 X165.423 Y134.525 E14.77072
G1 X165.825 Y134.175 F7800.000
G1 X165.825 Y165.825 E15.92210 F1260
G1 X134.175 Y165.825 E17.07347
G1 X134.175 Y134.175 E18.22484
G1 X165.773 Y134.175 E19.37430
G1 X165.650 Y134.478 F7800.000
G1 X157.406 Y152.140 F7800.000
G1 X164.883 Y144.663 E19.79819 F3600
G1 X164.883 Y144.117 E19.82005
