; generated by Slic3r 1.0.0RC1 on 2013-12-28 at 15:05:33

; layer_height = 0.25
; perimeters = 1
; top_solid_layers = 2
; bottom_solid_layers = 3
; fill_density = 0.4
; perimeter_speed = 30
; infill_speed = 60
; travel_speed = 130
; nozzle_diameter = 0.35
; filament_diameter = 1.75
; extrusion_multiplier = 1
; perimeters extrusion width = 0.35mm
; infill extrusion width = 0.39mm
; solid infill extrusion width = 0.39mm
; top infill extrusion width = 0.39mm
; support material extrusion width = 0.35mm
; first layer extrusion width = 0.70mm

G21 ; set units to millimeters
M107
M104 S220 ; set temperature
G28 ; home all axes
G1 Z5 F5000 ; lift nozzle

M109 S220 ; wait for temperature to be reached
G90 ; use absolute coordinates
G92 E0
M82 ; use absolute distances for extrusion
G1 F1800.000 E-1.00000
G92 E0
G1 Z0.350 F7800.000
G1 X129.320 Y129.320 F7800.000
G1 E1.00000 F1800.000
G1 X130.320 Y128.490 E1.11817 F540.000
G1 X131.460 Y127.880 E1.23574
G1 X132.710 Y127.500 E1.35453
G1 X134.000 Y127.380 E1.47234
G1 X166.000 Y127.380 E4.38209
G1 X167.290 Y127.500 E4.49989
G1 X168.540 Y127.880 E4.61869
G1 X169.680 Y128.490 E4.73626
G1 X170.680 Y129.320 E4.85443
G1 X171.510 Y130.320 E4.97260
G1 X172.120 Y131.460 E5.09016
G1 X172.500 Y132.710 E5.20896
G1 X172.620 Y134.000 E5.32677
G1 X172.620 Y166.000 E8.23651
G1 X172.500 Y167.290 E8.35432
G1 X172.120 Y168.540 E8.47312
G1 X171.510 Y169.680 E8.59068
G1 X170.680 Y170.680 E8.70885
G1 X169.680 Y171.510 E8.82702
G1 X168.540 Y172.120 E8.94459
G1 X167.290 Y172.500 E9.06339
G1 X166.000 Y172.620 E9.18119
G1 X134.000 Y172.620 E12.09094
G1 X132.710 Y172.500 E12.20875
G1 X131.460 Y172.120 E12.32754
G1 X130.320 Y171.510 E12.44511
G1 X129.320 Y170.680 E12.56328
G1 X128.490 Y169.680 E12.68145
G1 X127.880 Y168.540 E12.79902
G1 X127.500 Y167.290 E12.91782
G1 X127.380 Y166.000 E13.03562
G1 X127.380 Y134.000 E15.94537
G1 X127.500 Y132.710 E16.06317
G1 X127.880 Y131.460 E16.18197
G1 X128.490 Y130.320 E16.29954
G1 X129.260 Y129.392 E16.40919
G1 F1800.000 E15.40919
G92 E0
G1 X144.638 Y144.638 F7800.000
G1 E1.00000 F1800.000
G1 X146.208 Y143.433 E1.18001 F540.000
G1 X147.779 Y142.782 E1.33464
G1 X148.037 Y142.675 E1.36002
G1 X150.000 Y142.417 E1.54002
G1 X151.963 Y142.675 E1.72003
G1 X153.534 Y143.326 E1.87466
G1 X153.792 Y143.433 E1.90004
G1 X155.362 Y144.638 E2.08005
G1 X156.567 Y146.208 E2.26005
G1 X157.325 Y148.037 E2.44006
G1 X157.583 Y150.000 E2.62007
G1 X157.325 Y151.963 E2.80008
G1 X156.567 Y153.792 E2.98009
G1 X155.362 Y155.362 E3.16009
G1 X153.792 Y156.567 E3.34010
G1 X151.963 Y157.325 E3.52011
G1 X150.000 Y157.583 E3.70012
G1 X148.037 Y157.325 E3.88012
G1 X146.208 Y156.567 E4.06013
G1 X144.638 Y155.362 E4.24014
G1 X143.433 Y153.792 E4.42015
G1 X143.326 Y153.534 E4.44553
G1 X142.675 Y151.963 E4.60015
G1 X142.417 Y150.000 E4.78016
G1 X142.675 Y148.037 E4.96017
G1 X143.433 Y146.208 E5.14018
G1 X144.581 Y144.712 E5.31166
G1 X145.083 Y145.083 F7800.000
G1 X146.523 Y143.979 E5.47671 F378.000
G1 X148.019 Y143.359 E5.62386
G1 X148.200 Y143.284 E5.64176
G1 X150.000 Y143.047 E5.80680
G1 X151.800 Y143.284 E5.97185
G1 X153.295 Y143.903 E6.11900
G1 X153.477 Y143.979 E6.13690
G1 X154.917 Y145.083 E6.30194
G1 X156.021 Y146.523 E6.46699
G1 X156.716 Y148.200 E6.63203
G1 X156.953 Y150.000 E6.79708
G1 X156.716 Y151.800 E6.96213
G1 X156.021 Y153.477 E7.12717
G1 X154.917 Y154.917 E7.29222
G1 X153.477 Y156.021 E7.45727
G1 X151.800 Y156.716 E7.62231
G1 X150.000 Y156.953 E7.78736
G1 X148.200 Y156.716 E7.95241
G1 X146.523 Y156.021 E8.11745
G1 X145.083 Y154.917 E8.28250
G1 X143.979 Y153.477 E8.44755
G1 X143.903 Y153.295 E8.46544
G1 X143.284 Y151.800 E8.61259
G1 X143.047 Y150.000 E8.77764
G1 X143.284 Y148.200 E8.94269
G1 X143.979 Y146.523 E9.10773
G1 X145.026 Y145.158 E9.26426
G1 X134.975 Y134.975 F7800.000
G1 X165.025 Y134.975 E11.99671 F540.000
G1 X165.025 Y165.025 E14.72916
G1 X134.975 Y165.025 E17.46162
G1 X134.975 Y135.069 E20.18555
G1 X134.350 Y134.350 F7800.000
G1 X165.650 Y134.350 E23.03164 F378.000
G1 X165.650 Y165.650 E25.87774
G1 X134.350 Y165.650 E28.72384
G1 X134.350 Y134.444 E31.56141
G1 F1800.000 E30.56141
G92 E0
G1 X147.066 Y157.379 F7800.000
G1 E1.00000 F1800.000
G1 X154.291 Y164.604 E1.94279 F1080.000
G1 X155.188 Y164.604 E2.02553
G1 X148.379 Y157.795 E2.91402
G1 X149.412 Y157.931 E3.01013
G1 X156.085 Y164.604 E3.88087
G1 X156.981 Y164.604 E3.96361
G1 X150.341 Y157.963 E4.83011
G1 X151.133 Y157.859 E4.90386
G1 X157.878 Y164.604 E5.78397
G1 X158.775 Y164.604 E5.86671
G1 X151.926 Y157.755 E6.76043
G1 X152.589 Y157.521 E6.82532
G1 X159.672 Y164.604 E7.74949
G1 X160.568 Y164.604 E7.83223
G1 X153.223 Y157.259 E8.79067
G1 X153.857 Y156.996 E8.85400
G1 X161.465 Y164.604 E9.84671
G1 X162.362 Y164.604 E9.92946
G1 X154.394 Y156.636 E10.96915
G1 X154.902 Y156.247 E11.02816
G1 X163.259 Y164.604 E12.11866
G1 X164.155 Y164.604 E12.20141
G1 X155.409 Y155.857 E13.34271
G1 X155.857 Y155.409 E13.40122
G1 X164.604 Y164.155 E14.54252
G1 X164.604 Y163.259 E14.62526
G1 X156.247 Y154.902 E15.71576
G1 X156.636 Y154.394 E15.77477
G1 X164.604 Y162.362 E16.81447
G1 X164.604 Y161.465 E16.89721
G1 X156.996 Y153.857 E17.88992
G1 X157.259 Y153.223 E17.95325
G1 X164.604 Y160.568 E18.91169
G1 X164.604 Y159.672 E18.99443
G1 X157.521 Y152.589 E19.91860
G1 X157.755 Y151.926 E19.98349
G1 X164.604 Y158.775 E20.87721
G1 X164.604 Y157.878 E20.95995
G1 X157.859 Y151.133 E21.84006
G1 X157.963 Y150.341 E21.91381
G1 X164.604 Y156.981 E22.78031
G1 X164.604 Y156.085 E22.86305
G1 X157.931 Y149.412 E23.73379
G1 X157.795 Y148.379 E23.82990
G1 X164.604 Y155.188 E24.71839
G1 X164.604 Y154.291 E24.80113
G1 X157.379 Y147.066 E25.74392
G1 X164.604 Y135.460 F7800.000
G1 X164.540 Y135.396 E25.75219 F1080.000
G1 X163.644 Y135.396 E25.83494
G1 X164.604 Y136.356 E25.96022
G1 X164.604 Y137.253 E26.04296
G1 X162.747 Y135.396 E26.28526
G1 X161.850 Y135.396 E26.36800
G1 X164.604 Y138.150 E26.72731
G1 X164.604 Y139.047 E26.81006
G1 X160.953 Y135.396 E27.28638
G1 X160.057 Y135.396 E27.36913
G1 X164.604 Y139.943 E27.96247
G1 X164.604 Y140.840 E28.04521
G1 X159.160 Y135.396 E28.75556
G1 X158.263 Y135.396 E28.83831
G1 X164.604 Y141.737 E29.66568
G1 X164.604 Y142.634 E29.74842
G1 X157.366 Y135.396 E30.69280
G1 X156.470 Y135.396 E30.77555
G1 X164.604 Y143.530 E31.83694
G1 X164.604 Y144.427 E31.91969
G1 X155.573 Y135.396 E33.09810
G1 X154.676 Y135.396 E33.18084
G1 X164.604 Y145.324 E34.47627
G1 X164.604 Y146.221 E34.55901
G1 X153.779 Y135.396 E35.97145
G1 X152.883 Y135.396 E36.05420
G1 X164.604 Y147.117 E37.58365
G1 X164.604 Y148.014 E37.66639
G1 X151.986 Y135.396 E39.31286
G1 X151.089 Y135.396 E39.39561
G1 X164.604 Y148.911 E41.15909
G1 X164.604 Y149.807 E41.24183
G1 X150.193 Y135.396 E43.12233
G1 X149.296 Y135.396 E43.20508
G1 X164.604 Y150.704 E45.20259
G1 X164.604 Y151.601 E45.28533
G1 X148.399 Y135.396 E47.39986
G1 X147.502 Y135.396 E47.48260
G1 X164.604 Y152.498 E49.71415
G1 X164.604 Y153.394 E49.79689
G1 X146.606 Y135.396 E52.14544
G1 X145.709 Y135.396 E52.22819
G1 X152.934 Y142.621 E53.17098
G1 X151.621 Y142.205 E53.29807
G1 X144.812 Y135.396 E54.18655
G1 X143.915 Y135.396 E54.26929
G1 X150.588 Y142.069 E55.14004
G1 X149.659 Y142.037 E55.22584
G1 X143.019 Y135.396 E56.09233
G1 X142.122 Y135.396 E56.17507
G1 X148.867 Y142.141 E57.05518
G1 X148.074 Y142.245 E57.12893
G1 X141.225 Y135.396 E58.02265
G1 X140.328 Y135.396 E58.10539
G1 X147.411 Y142.479 E59.02956
G1 X146.777 Y142.741 E59.09289
G1 X139.432 Y135.396 E60.05133
G1 X138.535 Y135.396 E60.13407
G1 X146.143 Y143.004 E61.12678
G1 X145.606 Y143.364 E61.18641
G1 X137.638 Y135.396 E62.22611
G1 X136.741 Y135.396 E62.30885
G1 X145.098 Y143.753 E63.39935
G1 X144.591 Y144.143 E63.45836
G1 X135.845 Y135.396 E64.59966
G1 X135.396 Y135.845 E64.65817
G1 X144.143 Y144.591 E65.79947
G1 X143.753 Y145.098 E65.85849
G1 X135.396 Y136.741 E66.94899
G1 X135.396 Y137.638 E67.03173
G1 X143.364 Y145.606 E68.07142
G1 X143.004 Y146.142 E68.13106
G1 X135.396 Y138.535 E69.12377
G1 X135.396 Y139.432 E69.20651
G1 X142.741 Y146.777 E70.16495
G1 X142.479 Y147.411 E70.22828
G1 X135.396 Y140.328 E71.15245
G1 X135.396 Y141.225 E71.23519
G1 X142.245 Y148.074 E72.12891
G1 X142.141 Y148.867 E72.20266
G1 X135.396 Y142.122 E73.08277
G1 X135.396 Y143.019 E73.16551
G1 X142.037 Y149.659 E74.03201
G1 X142.069 Y150.588 E74.11780
G1 X135.396 Y143.915 E74.98855
G1 X135.396 Y144.812 E75.07129
G1 X142.205 Y151.621 E75.95977
G1 X142.621 Y152.934 E76.08686
G1 X135.396 Y145.709 E77.02965
G1 X135.396 Y146.605 E77.11239
G1 X153.395 Y164.604 E79.46095
G1 X152.498 Y164.604 E79.54369
G1 X135.396 Y147.502 E81.77524
G1 X135.396 Y148.399 E81.85798
G1 X151.601 Y164.604 E83.97251
G1 X150.704 Y164.604 E84.05526
G1 X135.396 Y149.296 E86.05278
G1 X135.396 Y150.192 E86.13552
G1 X149.808 Y164.604 E88.01602
G1 X148.911 Y164.604 E88.09876
G1 X135.396 Y151.089 E89.86225
G1 X135.396 Y151.986 E89.94499
G1 X148.014 Y164.604 E91.59147
G1 X147.117 Y164.604 E91.67421
G1 X135.396 Y152.883 E93.20367
G1 X135.396 Y153.779 E93.28642
G1 X146.221 Y164.604 E94.69886
G1 X145.324 Y164.604 E94.78160
G1 X135.396 Y154.676 E96.07704
G1 X135.396 Y155.573 E96.15978
G1 X144.427 Y164.604 E97.33820
G1 X143.530 Y164.604 E97.42094
G1 X135.396 Y156.470 E98.48234
G1 X135.396 Y157.366 E98.56508
G1 X142.634 Y164.604 E99.50947
G1 X141.737 Y164.604 E99.59221
G1 X135.396 Y158.263 E100.41959
G1 X135.396 Y159.160 E100.50233
G1 X140.840 Y164.604 E101.21269
G1 X139.943 Y164.604 E101.29543
G1 X135.396 Y160.057 E101.88878
G1 X135.396 Y160.953 E101.97152
G1 X139.047 Y164.604 E102.44785
G1 X138.150 Y164.604 E102.53059
G1 X135.396 Y161.850 E102.88991
G1 X135.396 Y162.747 E102.97265
G1 X137.253 Y164.604 E103.21496
G1 X136.356 Y164.604 E103.29770
G1 X135.396 Y163.644 E103.42299
G1 X135.396 Y164.540 E103.50573
G1 X135.460 Y164.604 E103.51400
G1 F1800.000 E102.51400
G92 E0
G1 X152.455 Y155.755 F7800.000
G1 E1.00000 F1800.000
G1 X147.545 Y155.755 E1.44643 F1080.000
G1 X145.594 Y154.505 E1.65711
G1 X154.406 Y154.505 E2.45834
G1 X155.388 Y153.255 E2.60287
G1 X144.612 Y153.255 E3.58270
G1 X144.059 Y152.005 E3.70697
G1 X155.941 Y152.005 E4.78736
G1 X156.211 Y150.756 E4.90362
G1 X143.789 Y150.756 E6.03307
G1 X143.755 Y149.506 E6.14675
G1 X156.245 Y149.506 E7.28245
G1 X156.049 Y148.256 E7.39748
G1 X143.951 Y148.256 E8.49757
G1 X144.469 Y147.006 E8.62057
G1 X155.531 Y147.006 E9.62651
G1 X154.629 Y145.756 E9.76666
G1 X145.371 Y145.756 E10.60855
G1 X146.914 Y144.507 E10.78915
G1 X153.086 Y144.507 E11.35031
M106 S154
M104 S220 ; set temperature
G1 F1800.000 E10.35031
G92 E0
G1 Z0.425 F7800.000
G1 X150.000 Y143.753 F7800.000
G1 E1.00000 F1800.000
G1 X148.383 Y143.966 E1.01780 F3600
G1 X148.048 Y144.105 E1.02176
G1 X146.877 Y144.590 E1.03560
G1 X145.583 Y145.583 E1.05339
G1 X144.590 Y146.877 E1.07119
G1 X144.105 Y148.048 E1.08503
G1 X143.966 Y148.383 E1.08899
G1 X143.753 Y150.000 E1.10679
G1 X143.966 Y151.617 E1.12458
G1 X144.590 Y153.123 E1.14238
G1 X145.583 Y154.417 E1.16018
G1 X146.877 Y155.410 E1.17798
G1 X148.383 Y156.034 E1.19577
G1 X150.000 Y156.247 E1.21357
G1 X151.617 Y156.034 E1.23137
G1 X153.123 Y155.410 E1.24917
G1 X154.417 Y154.417 E1.26696
G1 X155.410 Y153.123 E1.28476
G1 X156.034 Y151.617 E1.30256
G1 X156.247 Y150.000 E1.32036
G1 X156.034 Y148.383 E1.33815
G1 X155.410 Y146.877 E1.35595
G1 X154.417 Y145.583 E1.37375
G1 X153.123 Y144.590 E1.39155
G1 X151.617 Y143.966 E1.40935
G1 X150.000 Y143.753 E1.42714
G1 F1800.000 E0.42714
G92 E0
G1 Z0.600 F7800.000
G1 X150.000 Y142.870 F7800.000
G1 E1.00000 F1800.000
G1 X151.845 Y143.113 E1.06771 F1800
G1 X153.565 Y143.826 E1.13541
G1 X155.041 Y144.959 E1.20312
G1 X156.174 Y146.435 E1.27083
G1 X156.887 Y148.155 E1.33853
G1 X157.130 Y150.000 E1.40624
G1 X156.887 Y151.845 E1.47395
G1 X156.174 Y153.565 E1.54165
G1 X155.041 Y155.041 E1.60936
G1 X153.565 Y156.174 E1.67707
G1 X151.845 Y156.887 E1.74477
G1 X150.000 Y157.130 E1.81248
G1 X148.155 Y156.887 E1.88019
G1 X146.435 Y156.174 E1.94789
G1 X144.959 Y155.041 E2.01560
G1 X143.826 Y153.565 E2.08330
G1 X143.113 Y151.845 E2.15101
G1 X142.870 Y150.000 E2.21872
G1 X143.113 Y148.155 E2.28642
G1 X143.296 Y147.713 E2.30382
G1 X143.826 Y146.435 E2.35413
G1 X144.959 Y144.959 E2.42184
G1 X146.435 Y143.826 E2.48954
G1 X148.155 Y143.113 E2.55725
G1 X149.948 Y142.877 E2.62305
G1 X150.000 Y143.223 F7800.000
G1 X151.754 Y143.454 E2.68740 F1260
G1 X153.388 Y144.131 E2.75176
G1 X154.792 Y145.208 E2.81611
G1 X155.869 Y146.612 E2.88046
G1 X156.546 Y148.246 E2.94482
G1 X156.777 Y150.000 E3.00917
G1 X156.546 Y151.754 E3.07353
G1 X155.869 Y153.388 E3.13788
G1 X154.792 Y154.792 E3.20223
G1 X153.388 Y155.869 E3.26659
G1 X151.754 Y156.546 E3.33094
G1 X150.000 Y156.777 E3.39530
G1 X148.246 Y156.546 E3.45965
G1 X146.612 Y155.869 E3.52400
G1 X145.208 Y154.792 E3.58836
G1 X144.131 Y153.388 E3.65271
G1 X143.454 Y151.754 E3.71707
G1 X143.223 Y150.000 E3.78142
G1 X143.454 Y148.246 E3.84577
G1 X143.620 Y147.847 E3.86150
G1 X144.131 Y146.612 E3.91013
G1 X145.208 Y145.208 E3.97448
G1 X146.612 Y144.131 E4.03884
G1 X148.246 Y143.454 E4.10319
G1 X149.948 Y143.230 E4.16563
G1 X134.525 Y134.525 F7800.000
G1 X165.475 Y134.525 E5.29154 F1800
G1 X165.475 Y165.475 E6.41745
G1 X134.525 Y165.475 E7.54336
G1 X134.525 Y134.577 E8.66735
G1 X134.175 Y134.175 F7800.000
G1 X165.825 Y134.175 E9.81873 F1260
G1 X165.825 Y165.825 E10.97010
G1 X134.175 Y165.825 E12.12147
G1 X134.175 Y134.227 E13.27093
G1 X134.806 Y134.767 F7800.000
G1 X134.767 Y134.806 E13.27314 F3600
G1 X134.767 Y135.354 E13.29523
G1 X135.354 Y134.767 E13.32868
G1 X135.902 Y134.767 E13.35077
G1 X134.767 Y135.902 E13.41546
G1 X134.767 Y136.451 E13.43754
G1 X136.451 Y134.767 E13.53347
G1 X136.999 Y134.767 E13.55556
G1 X134.767 Y136.999 E13.68273
G1 X134.767 Y137.547 E13.70482
G1 X137.547 Y134.767 E13.86322
G1 X138.095 Y134.767 E13.88531
G1 X134.767 Y138.095 E14.07495
G1 X134.767 Y138.644 E14.09704
G1 X138.644 Y134.767 E14.31793
G1 X139.192 Y134.767 E14.34002
G1 X134.767 Y139.192 E14.59214
G1 X134.767 Y139.740 E14.61423
G1 X139.740 Y134.767 E14.89759
G1 X140.288 Y134.767 E14.91968
G1 X134.767 Y140.288 E15.23428
G1 X134.767 Y140.836 E15.25637
G1 X140.836 Y134.767 E15.60221
G1 X141.385 Y134.767 E15.62430
G1 X134.767 Y141.385 E16.00139
G1 X134.767 Y141.933 E16.02347
G1 X141.933 Y134.767 E16.43179
G1 X142.481 Y134.767 E16.45388
G1 X134.767 Y142.481 E16.89344
G1 X134.767 Y143.029 E16.91553
G1 X143.029 Y134.767 E17.38633
G1 X143.578 Y134.767 E17.40842
G1 X134.767 Y143.578 E17.91046
G1 X134.767 Y144.126 E17.93255
G1 X144.126 Y134.767 E18.46583
G1 X144.674 Y134.767 E18.48792
G1 X134.767 Y144.674 E19.05243
G1 X134.767 Y145.222 E19.07452
G1 X145.222 Y134.767 E19.67028
G1 X145.771 Y134.767 E19.69237
G1 X134.767 Y145.771 E20.31936
G1 X134.767 Y146.319 E20.34145
G1 X146.319 Y134.767 E20.99969
G1 X146.867 Y134.767 E21.02178
G1 X134.767 Y146.867 E21.71125
G1 X134.767 Y147.415 E21.73334
G1 X147.415 Y134.767 E22.45406
G1 X147.964 Y134.767 E22.47615
G1 X134.767 Y147.964 E23.22810
G1 X134.767 Y148.512 E23.25019
G1 X148.512 Y134.767 E24.03338
G1 X149.060 Y134.767 E24.05547
G1 X134.767 Y149.060 E24.86990
G1 X134.767 Y149.608 E24.89199
G1 X149.608 Y134.767 E25.73766
G1 X150.156 Y134.767 E25.75975
G1 X134.767 Y150.156 E26.63667
G1 X134.767 Y150.705 E26.65875
G1 X150.705 Y134.767 E27.56690
G1 X151.253 Y134.767 E27.58899
G1 X134.767 Y151.253 E28.52838
G1 X134.767 Y151.801 E28.55047
G1 X151.801 Y134.767 E29.52110
G1 X152.349 Y134.767 E29.54319
G1 X134.767 Y152.349 E30.54506
G1 X134.767 Y152.898 E30.56715
G1 X152.898 Y134.767 E31.60026
G1 X153.446 Y134.767 E31.62235
G1 X134.767 Y153.446 E32.68669
G1 X134.767 Y153.994 E32.70878
G1 X153.994 Y134.767 E33.80437
G1 X154.542 Y134.767 E33.82646
G1 X134.767 Y154.542 E34.95329
G1 X134.767 Y155.091 E34.97538
G1 X143.843 Y146.014 E35.49255
G1 X143.276 Y147.130 F7800.000
G1 X134.767 Y155.639 E35.97737 F3600
G1 X134.767 Y156.187 E35.99946
G1 X142.888 Y148.066 E36.46220
G1 X142.797 Y148.706 E36.48823
G1 X134.767 Y156.735 E36.94576
G1 X134.767 Y157.283 E36.96785
G1 X142.713 Y149.337 E37.42064
G1 X142.630 Y149.969 E37.44630
G1 X134.767 Y157.832 E37.89436
G1 X134.767 Y158.380 E37.91645
