; generated by Slic3r 1.0.0RC2 on 2014-01-09 at 23:03:24

; layer_height = 0.25
; perimeters = 1
; top_solid_layers = 3
; bottom_solid_layers = 3
; fill_density = 0.4
; perimeter_speed = 30
; infill_speed = 60
; travel_speed = 130
; nozzle_diameter = 0.35
; filament_diameter = 1.75
; extrusion_multiplier = 1
; perimeters extrusion width = 0.35mm
; infill extrusion width = 0.39mm
; solid infill extrusion width = 0.39mm
; top infill extrusion width = 0.39mm
; first layer extrusion width = 0.70mm

G21 ; set units to millimeters
M107
M104 S220 ; set temperature
G28 ; home all axes
G1 Z5 F5000 ; lift nozzle

M109 S220 ; wait for temperature to be reached
G90 ; use absolute coordinates
G92 E0
M82 ; use absolute distances for extrusion
G1 F1800.000 E-1.00000
G92 E0
G1 Z0.350 F7800.000
G1 X160.280 Y36.460 F7800.000
G1 E1.00000 F1800.000
G1 X160.720 Y34.990 E1.13953 F540.000
G1 X161.450 Y33.630 E1.27988
G1 X162.430 Y32.430 E1.42076
G1 X163.630 Y31.450 E1.56164
G1 X164.990 Y30.720 E1.70199
G1 X166.460 Y30.280 E1.84152
G1 X168.000 Y30.130 E1.98221
G1 X192.000 Y30.130 E4.16452
G1 X193.540 Y30.280 E4.30521
G1 X195.010 Y30.720 E4.44474
G1 X196.370 Y31.450 E4.58509
G1 X197.570 Y32.430 E4.72597
G1 X198.550 Y33.630 E4.86685
G1 X199.280 Y34.990 E5.00720
G1 X199.720 Y36.460 E5.14673
G1 X199.870 Y38.000 E5.28742
G1 X199.870 Y62.000 E7.46973
G1 X199.720 Y63.540 E7.61043
G1 X199.280 Y65.010 E7.74995
G1 X198.550 Y66.370 E7.89031
G1 X197.570 Y67.570 E8.03119
G1 X196.370 Y68.550 E8.17207
G1 X195.010 Y69.280 E8.31242
G1 X193.540 Y69.720 E8.45195
G1 X192.000 Y69.870 E8.59264
G1 X168.000 Y69.870 E10.77495
G1 X166.460 Y69.720 E10.91564
G1 X164.990 Y69.280 E11.05517
G1 X163.630 Y68.550 E11.19552
G1 X162.430 Y67.570 E11.33640
G1 X161.450 Y66.370 E11.47728
G1 X160.720 Y65.010 E11.61763
G1 X160.280 Y63.540 E11.75716
G1 X160.130 Y62.000 E11.89785
G1 X160.130 Y38.000 E14.08016
G1 X160.271 Y36.553 E14.21233
G1 X160.890 Y36.590 F7800.000
G1 X161.300 Y35.230 E14.34150 F540.000
G1 X161.970 Y33.970 E14.47126
G1 X162.870 Y32.870 E14.60049
G1 X163.970 Y31.970 E14.72973
G1 X165.230 Y31.300 E14.85949
G1 X166.590 Y30.890 E14.98865
G1 X168.000 Y30.750 E15.11749
G1 X192.000 Y30.750 E17.29980
G1 X193.410 Y30.890 E17.42864
G1 X194.770 Y31.300 E17.55781
G1 X196.030 Y31.970 E17.68757
G1 X197.130 Y32.870 E17.81680
G1 X198.030 Y33.970 E17.94604
G1 X198.700 Y35.230 E18.07580
G1 X199.110 Y36.590 E18.20496
G1 X199.250 Y38.000 E18.33380
G1 X199.250 Y62.000 E20.51611
G1 X199.110 Y63.410 E20.64495
G1 X198.700 Y64.770 E20.77412
G1 X198.030 Y66.030 E20.90388
G1 X197.130 Y67.130 E21.03311
G1 X196.030 Y68.030 E21.16235
G1 X194.770 Y68.700 E21.29211
G1 X193.410 Y69.110 E21.42127
G1 X192.000 Y69.250 E21.55011
G1 X168.000 Y69.250 E23.73242
G1 X166.590 Y69.110 E23.86126
G1 X165.230 Y68.700 E23.99043
G1 X163.970 Y68.030 E24.12019
G1 X162.870 Y67.130 E24.24942
G1 X161.970 Y66.030 E24.37866
G1 X161.300 Y64.770 E24.50842
G1 X160.890 Y63.410 E24.63758
G1 X160.750 Y62.000 E24.76642
G1 X160.750 Y38.000 E26.94873
G1 X160.881 Y36.683 E27.06905
G1 X161.500 Y36.710 F7800.000
G1 X161.880 Y35.460 E27.18785 F540.000
G1 X162.490 Y34.320 E27.30542
G1 X163.320 Y33.320 E27.42359
G1 X164.320 Y32.490 E27.54176
G1 X165.460 Y31.880 E27.65932
G1 X166.710 Y31.500 E27.77812
G1 X168.000 Y31.380 E27.89593
G1 X192.000 Y31.380 E30.07824
G1 X193.290 Y31.500 E30.19604
G1 X194.540 Y31.880 E30.31484
G1 X195.680 Y32.490 E30.43241
G1 X196.680 Y33.320 E30.55058
G1 X197.510 Y34.320 E30.66875
G1 X198.120 Y35.460 E30.78631
G1 X198.500 Y36.710 E30.90511
G1 X198.620 Y38.000 E31.02292
G1 X198.620 Y62.000 E33.20523
G1 X198.500 Y63.290 E33.32303
G1 X198.120 Y64.540 E33.44183
G1 X197.510 Y65.680 E33.55940
G1 X196.680 Y66.680 E33.67757
G1 X195.680 Y67.510 E33.79574
G1 X194.540 Y68.120 E33.91330
G1 X193.290 Y68.500 E34.03210
G1 X192.000 Y68.620 E34.14991
G1 X168.000 Y68.620 E36.33222
G1 X166.710 Y68.500 E36.45002
G1 X165.460 Y68.120 E36.56882
G1 X164.320 Y67.510 E36.68639
G1 X163.320 Y66.680 E36.80456
G1 X162.490 Y65.680 E36.92273
G1 X161.880 Y64.540 E37.04029
G1 X161.500 Y63.290 E37.15909
G1 X161.380 Y62.000 E37.27690
G1 X161.380 Y38.000 E39.45921
G1 X161.491 Y36.803 E39.56849
G1 F1800.000 E38.56849
G92 E0
G1 X168.350 Y38.350 F7800.000
G1 E1.00000 F1800.000
G1 X191.650 Y38.350 E3.11866 F378.000
G1 X191.650 Y61.650 E5.23732
G1 X168.350 Y61.650 E7.35598
G1 X168.350 Y38.444 E9.46611
G1 X168.835 Y61.229 F7800.000
G1 X168.771 Y61.165 E9.47437 F1080.000
G1 X168.771 Y60.270 E9.55693
G1 X169.730 Y61.229 E9.68194
G1 X170.626 Y61.229 E9.76450
G1 X168.771 Y59.374 E10.00627
G1 X168.771 Y58.478 E10.08883
G1 X171.522 Y61.229 E10.44736
G1 X172.418 Y61.229 E10.52992
G1 X168.771 Y57.582 E11.00521
G1 X168.771 Y56.687 E11.08777
G1 X173.313 Y61.229 E11.67981
G1 X174.209 Y61.229 E11.76237
G1 X168.771 Y55.791 E12.47117
G1 X168.771 Y54.895 E12.55373
G1 X175.105 Y61.229 E13.37928
G1 X176.001 Y61.229 E13.46184
G1 X168.771 Y53.999 E14.40416
G1 X168.771 Y53.103 E14.48672
G1 X176.897 Y61.229 E15.54579
G1 X177.792 Y61.229 E15.62835
G1 X168.771 Y52.208 E16.80418
G1 X168.771 Y51.312 E16.88674
G1 X178.688 Y61.229 E18.17932
G1 X179.584 Y61.229 E18.26188
G1 X168.771 Y50.416 E19.67123
G1 X168.771 Y49.520 E19.75379
G1 X180.480 Y61.229 E21.27989
G1 X181.375 Y61.229 E21.36245
G1 X168.771 Y48.625 E23.00531
G1 X168.771 Y47.729 E23.08787
G1 X182.271 Y61.229 E24.84748
G1 X183.167 Y61.229 E24.93004
G1 X168.771 Y46.833 E26.80641
G1 X168.771 Y45.937 E26.88897
G1 X184.063 Y61.229 E28.88210
G1 X184.958 Y61.229 E28.96466
G1 X168.771 Y45.042 E31.07455
G1 X168.771 Y44.146 E31.15711
G1 X185.854 Y61.229 E33.38375
G1 X186.750 Y61.229 E33.46631
G1 X168.771 Y43.250 E35.80971
G1 X168.771 Y42.354 E35.89227
G1 X187.646 Y61.229 E38.35243
G1 X188.541 Y61.229 E38.43499
G1 X168.771 Y41.459 E41.01191
G1 X168.771 Y40.563 E41.09447
G1 X189.437 Y61.229 E43.78814
G1 X190.333 Y61.229 E43.87070
G1 X168.771 Y39.667 E46.68113
G1 X168.803 Y38.803 E46.76083
G1 X191.197 Y61.197 E49.67976
G1 X191.229 Y60.333 E49.75945
G1 X169.667 Y38.771 E52.56988
G1 X170.563 Y38.771 E52.65244
G1 X191.229 Y59.437 E55.34611
G1 X191.229 Y58.541 E55.42867
G1 X171.459 Y38.771 E58.00558
G1 X172.354 Y38.771 E58.08814
G1 X191.229 Y57.646 E60.54830
G1 X191.229 Y56.750 E60.63086
G1 X173.250 Y38.771 E62.97425
G1 X174.146 Y38.771 E63.05681
G1 X191.229 Y55.854 E65.28345
G1 X191.229 Y54.958 E65.36601
G1 X175.042 Y38.771 E67.47590
G1 X175.937 Y38.771 E67.55846
G1 X191.229 Y54.063 E69.55158
G1 X191.229 Y53.167 E69.63414
G1 X176.833 Y38.771 E71.51051
G1 X177.729 Y38.771 E71.59307
G1 X191.229 Y52.271 E73.35268
G1 X191.229 Y51.375 E73.43524
G1 X178.625 Y38.771 E75.07810
G1 X179.520 Y38.771 E75.16066
G1 X191.229 Y50.480 E76.68675
G1 X191.229 Y49.584 E76.76931
G1 X180.416 Y38.771 E78.17865
G1 X181.312 Y38.771 E78.26121
G1 X191.229 Y48.688 E79.55380
G1 X191.229 Y47.792 E79.63636
G1 X182.208 Y38.771 E80.81218
G1 X183.104 Y38.771 E80.89474
G1 X191.229 Y46.896 E81.95381
G1 X191.229 Y46.001 E82.03637
G1 X183.999 Y38.771 E82.97868
G1 X184.895 Y38.771 E83.06124
G1 X191.229 Y45.105 E83.88679
G1 X191.229 Y44.209 E83.96935
G1 X185.791 Y38.771 E84.67815
G1 X186.687 Y38.771 E84.76071
G1 X191.229 Y43.313 E85.35275
G1 X191.229 Y42.418 E85.43531
G1 X187.582 Y38.771 E85.91059
G1 X188.478 Y38.771 E85.99315
G1 X191.229 Y41.522 E86.35167
G1 X191.229 Y40.626 E86.43423
G1 X189.374 Y38.771 E86.67600
G1 X190.270 Y38.771 E86.75856
G1 X191.229 Y39.730 E86.88357
G1 X191.229 Y38.835 E86.96613
G1 X191.165 Y38.771 E86.97438
M106 S255
M104 S220 ; set temperature
G1 F1800.000 E85.97438
G92 E0
G1 Z0.600 F7800.000
G1 X191.825 Y38.175 F7800.000
G1 E1.00000 F1800.000
G1 X191.825 Y61.825 E1.86035 F1186.249
G1 X168.175 Y61.825 E2.72069
G1 X168.175 Y38.175 E3.58104
G1 X191.773 Y38.175 E4.43947
G1 X168.417 Y38.456 F7800.000
G1 X168.456 Y38.417 E4.44170 F3389.283
G1 X169.007 Y38.417 E4.46399
G1 X168.417 Y39.007 E4.49773
G1 X168.417 Y39.557 E4.52001
G1 X169.557 Y38.417 E4.58527
G1 X170.108 Y38.417 E4.60755
G1 X168.417 Y40.108 E4.70432
G1 X168.417 Y40.659 E4.72661
G1 X170.659 Y38.417 E4.85489
G1 X171.209 Y38.417 E4.87718
G1 X168.417 Y41.209 E5.03698
G1 X168.417 Y41.760 E5.05926
G1 X171.760 Y38.417 E5.25057
G1 X172.311 Y38.417 E5.27286
G1 X168.417 Y42.311 E5.49569
G1 X168.417 Y42.861 E5.51797
G1 X172.861 Y38.417 E5.77231
G1 X173.412 Y38.417 E5.79460
G1 X168.417 Y43.412 E6.08046
G1 X168.417 Y43.962 E6.10274
G1 X173.962 Y38.417 E6.42011
G1 X174.513 Y38.417 E6.44239
G1 X168.417 Y44.513 E6.79128
G1 X168.417 Y45.064 E6.81356
G1 X175.064 Y38.417 E7.19397
G1 X175.614 Y38.417 E7.21625
G1 X168.417 Y45.614 E7.62816
G1 X168.417 Y46.165 E7.65045
G1 X176.165 Y38.417 E8.09388
G1 X176.716 Y38.417 E8.11616
G1 X168.417 Y46.716 E8.59110
G1 X168.417 Y47.266 E8.61339
G1 X177.266 Y38.417 E9.11985
G1 X177.817 Y38.417 E9.14213
G1 X168.417 Y47.817 E9.68010
G1 X168.417 Y48.368 E9.70239
G1 X178.368 Y38.417 E10.27187
G1 X178.918 Y38.417 E10.29416
G1 X168.417 Y48.918 E10.89516
G1 X168.417 Y49.469 E10.91744
G1 X179.469 Y38.417 E11.54996
G1 X180.019 Y38.417 E11.57224
G1 X168.417 Y50.019 E12.23627
G1 X168.417 Y50.570 E12.25856
G1 X180.570 Y38.417 E12.95410
G1 X181.121 Y38.417 E12.97638
G1 X168.417 Y51.121 E13.70344
G1 X168.417 Y51.671 E13.72573
G1 X181.671 Y38.417 E14.48430
G1 X182.222 Y38.417 E14.50658
G1 X168.417 Y52.222 E15.29667
G1 X168.417 Y52.773 E15.31896
G1 X182.773 Y38.417 E16.14056
G1 X183.323 Y38.417 E16.16284
G1 X168.417 Y53.323 E17.01596
G1 X168.417 Y53.874 E17.03824
G1 X183.874 Y38.417 E17.92287
G1 X184.425 Y38.417 E17.94516
G1 X168.417 Y54.425 E18.86130
G1 X168.417 Y54.975 E18.88359
G1 X184.975 Y38.417 E19.83124
G1 X185.526 Y38.417 E19.85353
G1 X168.417 Y55.526 E20.83270
G1 X168.417 Y56.076 E20.85499
G1 X186.076 Y38.417 E21.86567
G1 X186.627 Y38.417 E21.88796
G1 X168.417 Y56.627 E22.93016
G1 X168.417 Y57.178 E22.95245
G1 X187.178 Y38.417 E24.02616
G1 X187.728 Y38.417 E24.04845
G1 X168.417 Y57.728 E25.15368
G1 X168.417 Y58.279 E25.17596
G1 X188.279 Y38.417 E26.31271
G1 X188.830 Y38.417 E26.33499
G1 X168.417 Y58.830 E27.50325
G1 X168.417 Y59.380 E27.52554
G1 X189.380 Y38.417 E28.72531
G1 X189.931 Y38.417 E28.74759
G1 X168.417 Y59.931 E29.97888
G1 X168.417 Y60.482 E30.00117
G1 X190.482 Y38.417 E31.26397
G1 X191.032 Y38.417 E31.28625
G1 X168.417 Y61.032 E32.58057
G1 X168.437 Y61.563 E32.60208
G1 X191.563 Y38.437 E33.92569
G1 X191.583 Y38.968 E33.94720
G1 X168.968 Y61.583 E35.24152
G1 X169.518 Y61.583 E35.26380
G1 X191.583 Y39.518 E36.52660
G1 X191.583 Y40.069 E36.54889
G1 X170.069 Y61.583 E37.78018
G1 X170.620 Y61.583 E37.80246
G1 X191.583 Y40.620 E39.00224
G1 X191.583 Y41.170 E39.02452
G1 X171.170 Y61.583 E40.19278
G1 X171.721 Y61.583 E40.21507
G1 X191.583 Y41.721 E41.35181
G1 X191.583 Y42.272 E41.37410
G1 X172.272 Y61.583 E42.47933
G1 X172.822 Y61.583 E42.50161
G1 X191.583 Y42.822 E43.57533
G1 X191.583 Y43.373 E43.59762
G1 X173.373 Y61.583 E44.63982
G1 X173.923 Y61.583 E44.66210
G1 X191.583 Y43.923 E45.67279
G1 X191.583 Y44.474 E45.69508
G1 X174.474 Y61.583 E46.67425
G1 X175.025 Y61.583 E46.69653
G1 X191.583 Y45.025 E47.64420
G1 X191.583 Y45.575 E47.66648
G1 X175.575 Y61.583 E48.58263
G1 X176.126 Y61.583 E48.60491
G1 X191.583 Y46.126 E49.48954
G1 X191.583 Y46.677 E49.51182
G1 X176.677 Y61.583 E50.36494
G1 X177.227 Y61.583 E50.38723
G1 X191.583 Y47.227 E51.20883
G1 X191.583 Y47.778 E51.23111
G1 X177.778 Y61.583 E52.02120
G1 X178.329 Y61.583 E52.04348
G1 X191.583 Y48.329 E52.80206
G1 X191.583 Y48.879 E52.82434
G1 X178.879 Y61.583 E53.55140
G1 X179.430 Y61.583 E53.57369
G1 X191.583 Y49.430 E54.26923
G1 X191.583 Y49.981 E54.29152
G1 X179.981 Y61.583 E54.95555
G1 X180.531 Y61.583 E54.97783
G1 X191.583 Y50.531 E55.61035
G1 X191.583 Y51.082 E55.63263
G1 X181.082 Y61.583 E56.23363
G1 X181.632 Y61.583 E56.25592
G1 X191.583 Y51.632 E56.82540
G1 X191.583 Y52.183 E56.84769
G1 X182.183 Y61.583 E57.38566
G1 X182.734 Y61.583 E57.40794
G1 X191.583 Y52.734 E57.91440
G1 X191.583 Y53.284 E57.93669
G1 X183.284 Y61.583 E58.41163
G1 X183.835 Y61.583 E58.43392
G1 X191.583 Y53.835 E58.87735
G1 X191.583 Y54.386 E58.89963
G1 X184.386 Y61.583 E59.31155
G1 X184.936 Y61.583 E59.33383
G1 X191.583 Y54.936 E59.71423
G1 X191.583 Y55.487 E59.73651
G1 X185.487 Y61.583 E60.08540
G1 X186.038 Y61.583 E60.10769
G1 X191.583 Y56.038 E60.42506
G1 X191.583 Y56.588 E60.44734
G1 X186.588 Y61.583 E60.73320
G1 X187.139 Y61.583 E60.75548
G1 X191.583 Y57.139 E61.00983
G1 X191.583 Y57.689 E61.03211
G1 X187.689 Y61.583 E61.25494
G1 X188.240 Y61.583 E61.27722
G1 X191.583 Y58.240 E61.46854
G1 X191.583 Y58.791 E61.49082
G1 X188.791 Y61.583 E61.65062
G1 X189.341 Y61.583 E61.67291
G1 X191.583 Y59.341 E61.80119
G1 X191.583 Y59.892 E61.82348
G1 X189.892 Y61.583 E61.92025
G1 X190.443 Y61.583 E61.94253
G1 X191.583 Y60.443 E62.00779
G1 X191.583 Y60.993 E62.03007
G1 X190.993 Y61.583 E62.06382
G1 X191.544 Y61.583 E62.08610
G1 X191.583 Y61.544 E62.08833
G1 F1800.000 E61.08833
G92 E0
G1 Z0.850 F7800.000
G1 X191.825 Y61.825 F7800.000
G1 E1.00000 F1800.000
G1 X168.175 Y61.825 E1.86035 F1186.249
G1 X168.175 Y38.175 E2.72069
G1 X191.825 Y38.175 E3.58104
G1 X191.825 Y61.772 E4.43947
G1 X191.544 Y38.417 F7800.000
G1 X191.583 Y38.456 E4.44170 F3389.283
G1 X191.583 Y39.007 E4.46399
G1 X190.993 Y38.417 E4.49773
G1 X190.443 Y38.417 E4.52001
G1 X191.583 Y39.557 E4.58527
G1 X191.583 Y40.108 E4.60755
G1 X189.892 Y38.417 E4.70432
G1 X189.341 Y38.417 E4.72661
G1 X191.583 Y40.659 E4.85489
G1 X191.583 Y41.209 E4.87718
G1 X188.791 Y38.417 E5.03698
G1 X188.240 Y38.417 E5.05926
G1 X191.583 Y41.760 E5.25057
G1 X191.583 Y42.311 E5.27286
G1 X187.689 Y38.417 E5.49569
G1 X187.139 Y38.417 E5.51797
G1 X191.583 Y42.861 E5.77231
G1 X191.583 Y43.412 E5.79460
G1 X186.588 Y38.417 E6.08046
G1 X186.038 Y38.417 E6.10274
G1 X191.583 Y43.962 E6.42011
G1 X191.583 Y44.513 E6.44240
G1 X185.487 Y38.417 E6.79128
G1 X184.936 Y38.417 E6.81357
G1 X191.583 Y45.064 E7.19397
G1 X191.583 Y45.614 E7.21625
G1 X184.386 Y38.417 E7.62816
G1 X183.835 Y38.417 E7.65045
G1 X191.583 Y46.165 E8.09388
G1 X191.583 Y46.716 E8.11616
G1 X183.284 Y38.417 E8.59111
G1 X182.734 Y38.417 E8.61339
G1 X191.583 Y47.266 E9.11985
G1 X191.583 Y47.817 E9.14213
G1 X182.183 Y38.417 E9.68010
G1 X181.632 Y38.417 E9.70239
G1 X191.583 Y48.368 E10.27187
G1 X191.583 Y48.918 E10.29416
G1 X181.082 Y38.417 E10.89516
G1 X180.531 Y38.417 E10.91744
G1 X191.583 Y49.469 E11.54996
G1 X191.583 Y50.019 E11.57224
G1 X179.981 Y38.417 E12.23627
G1 X179.430 Y38.417 E12.25856
G1 X191.583 Y50.570 E12.95410
G1 X191.583 Y51.121 E12.97639
G1 X178.879 Y38.417 E13.70344
G1 X178.329 Y38.417 E13.72573
G1 X191.583 Y51.671 E14.48430
G1 X191.583 Y52.222 E14.50659
G1 X177.778 Y38.417 E15.29667
G1 X177.227 Y38.417 E15.31896
G1 X191.583 Y52.773 E16.14056
G1 X191.583 Y53.323 E16.16284
G1 X176.677 Y38.417 E17.01596
G1 X176.126 Y38.417 E17.03824
G1 X191.583 Y53.874 E17.92287
G1 X191.583 Y54.425 E17.94516
G1 X175.575 Y38.417 E18.86130
G1 X175.025 Y38.417 E18.88359
G1 X191.583 Y54.975 E19.83125
G1 X191.583 Y55.526 E19.85353
G1 X174.474 Y38.417 E20.83271
G1 X173.924 Y38.417 E20.85499
G1 X191.583 Y56.076 E21.86568
G1 X191.583 Y56.627 E21.88796
G1 X173.373 Y38.417 E22.93016
G1 X172.822 Y38.417 E22.95245
G1 X191.583 Y57.178 E24.02617
G1 X191.583 Y57.728 E24.04845
G1 X172.272 Y38.417 E25.15368
G1 X171.721 Y38.417 E25.17596
G1 X191.583 Y58.279 E26.31271
G1 X191.583 Y58.830 E26.33499
G1 X171.170 Y38.417 E27.50325
G1 X170.620 Y38.417 E27.52554
G1 X191.583 Y59.380 E28.72531
G1 X191.583 Y59.931 E28.74760
G1 X170.069 Y38.417 E29.97889
G1 X169.518 Y38.417 E30.00117
G1 X191.583 Y60.482 E31.26397
G1 X191.583 Y61.032 E31.28626
G1 X168.968 Y38.417 E32.58058
G1 X168.437 Y38.437 E32.60209
G1 X191.563 Y61.563 E33.92569
G1 X191.032 Y61.583 E33.94720
G1 X168.417 Y38.968 E35.24152
G1 X168.417 Y39.518 E35.26380
G1 X190.482 Y61.583 E36.52661
G1 X189.931 Y61.583 E36.54889
G1 X168.417 Y40.069 E37.78018
G1 X168.417 Y40.620 E37.80247
G1 X189.380 Y61.583 E39.00224
G1 X188.830 Y61.583 E39.02452
G1 X168.417 Y41.170 E40.19279
G1 X168.417 Y41.721 E40.21507
G1 X188.279 Y61.583 E41.35182
G1 X187.728 Y61.583 E41.37410
G1 X168.417 Y42.272 E42.47933
G1 X168.417 Y42.822 E42.50162
