; generated by Slic3r 1.0.0RC2 on 2014-01-09 at 23:13:54

; layer_height = 0.25
; perimeters = 1
; top_solid_layers = 3
; bottom_solid_layers = 3
; fill_density = 0.4
; perimeter_speed = 30
; infill_speed = 60
; travel_speed = 130
; nozzle_diameter = 0.35
; filament_diameter = 1.75
; extrusion_multiplier = 1
; perimeters extrusion width = 0.35mm
; infill extrusion width = 0.39mm
; solid infill extrusion width = 0.39mm
; top infill extrusion width = 0.39mm
; first layer extrusion width = 0.70mm

G21 ; set units to millimeters
M107
M104 S220 ; set temperature
G28 ; home all axes
G1 Z5 F5000 ; lift nozzle

M109 S220 ; wait for temperature to be reached
G90 ; use absolute coordinates
G92 E0
M82 ; use absolute distances for extrusion
G1 F1800.000 E-1.00000
G92 E0
G1 Z0.350 F7800.000
G1 X160.280 Y36.460 F7800.000
G1 E1.00000 F1800.000
G1 X160.720 Y34.990 E1.13953 F540.000
G1 X161.450 Y33.630 E1.27988
G1 X162.430 Y32.430 E1.42076
G1 X163.630 Y31.450 E1.56164
G1 X164.990 Y30.720 E1.70199
G1 X166.460 Y30.280 E1.84152
G1 X168.000 Y30.130 E1.98221
G1 X192.000 Y30.130 E4.16452
G1 X193.540 Y30.280 E4.30521
G1 X195.010 Y30.720 E4.44474
G1 X196.370 Y31.450 E4.58509
G1 X197.570 Y32.430 E4.72597
G1 X198.550 Y33.630 E4.86685
G1 X199.280 Y34.990 E5.00720
G1 X199.720 Y36.460 E5.14673
G1 X199.870 Y38.000 E5.28742
G1 X199.870 Y62.000 E7.46973
G1 X199.720 Y63.540 E7.61043
G1 X199.280 Y65.010 E7.74995
G1 X198.550 Y66.370 E7.89031
G1 X197.570 Y67.570 E8.03119
G1 X196.370 Y68.550 E8.17207
G1 X195.010 Y69.280 E8.31242
G1 X193.540 Y69.720 E8.45195
G1 X192.000 Y69.870 E8.59264
G1 X168.000 Y69.870 E10.77495
G1 X166.460 Y69.720 E10.91564
G1 X164.990 Y69.280 E11.05517
G1 X163.630 Y68.550 E11.19552
G1 X162.430 Y67.570 E11.33640
G1 X161.450 Y66.370 E11.47728
G1 X160.720 Y65.010 E11.61763
G1 X160.280 Y63.540 E11.75716
G1 X160.130 Y62.000 E11.89785
G1 X160.130 Y38.000 E14.08016
G1 X160.271 Y36.553 E14.21233
G1 X160.890 Y36.590 F7800.000
G1 X161.300 Y35.230 E14.34150 F540.000
G1 X161.970 Y33.970 E14.47126
G1 X162.870 Y32.870 E14.60049
G1 X163.970 Y31.970 E14.72973
G1 X165.230 Y31.300 E14.85949
G1 X166.590 Y30.890 E14.98865
G1 X168.000 Y30.750 E15.11749
G1 X192.000 Y30.750 E17.29980
G1 X193.410 Y30.890 E17.42864
G1 X194.770 Y31.300 E17.55781
G1 X196.030 Y31.970 E17.68757
G1 X197.130 Y32.870 E17.81680
G1 X198.030 Y33.970 E17.94604
G1 X198.700 Y35.230 E18.07580
G1 X199.110 Y36.590 E18.20496
G1 X199.250 Y38.000 E18.33380
G1 X199.250 Y62.000 E20.51611
G1 X199.110 Y63.410 E20.64495
G1 X198.700 Y64.770 E20.77412
G1 X198.030 Y66.030 E20.90388
G1 X197.130 Y67.130 E21.03311
G1 X196.030 Y68.030 E21.16235
G1 X194.770 Y68.700 E21.29211
G1 X193.410 Y69.110 E21.42127
G1 X192.000 Y69.250 E21.55011
G1 X168.000 Y69.250 E23.73242
G1 X166.590 Y69.110 E23.86126
G1 X165.230 Y68.700 E23.99043
G1 X163.970 Y68.030 E24.12019
G1 X162.870 Y67.130 E24.24942
G1 X161.970 Y66.030 E24.37866
G1 X161.300 Y64.770 E24.50842
G1 X160.890 Y63.410 E24.63758
G1 X160.750 Y62.000 E24.76642
G1 X160.750 Y38.000 E26.94873
G1 X160.881 Y36.683 E27.06905
G1 X161.500 Y36.710 F7800.000
G1 X161.880 Y35.460 E27.18785 F540.000
G1 X162.490 Y34.320 E27.30542
G1 X163.320 Y33.320 E27.42359
G1 X164.320 Y32.490 E27.54176
G1 X165.460 Y31.880 E27.65932
G1 X166.710 Y31.500 E27.77812
G1 X168.000 Y31.380 E27.89593
G1 X192.000 Y31.380 E30.07824
G1 X193.290 Y31.500 E30.19604
G1 X194.540 Y31.880 E30.31484
G1 X195.680 Y32.490 E30.43241
G1 X196.680 Y33.320 E30.55058
G1 X197.510 Y34.320 E30.66875
G1 X198.120 Y35.460 E30.78631
G1 X198.500 Y36.710 E30.90511
G1 X198.620 Y38.000 E31.02292
G1 X198.620 Y62.000 E33.20523
G1 X198.500 Y63.290 E33.32303
G1 X198.120 Y64.540 E33.44183
G1 X197.510 Y65.680 E33.55940
G1 X196.680 Y66.680 E33.67757
G1 X195.680 Y67.510 E33.79574
G1 X194.540 Y68.120 E33.91330
G1 X193.290 Y68.500 E34.03210
G1 X192.000 Y68.620 E34.14991
G1 X168.000 Y68.620 E36.33222
G1 X166.710 Y68.500 E36.45002
G1 X165.460 Y68.120 E36.56882
G1 X164.320 Y67.510 E36.68639
G1 X163.320 Y66.680 E36.80456
G1 X162.490 Y65.680 E36.92273
G1 X161.880 Y64.540 E37.04029
G1 X161.500 Y63.290 E37.15909
G1 X161.380 Y62.000 E37.27690
G1 X161.380 Y38.000 E39.45921
G1 X161.491 Y36.803 E39.56849
G1 F1800.000 E38.56849
G92 E0
G1 X178.621 Y48.998 F7800.000
G1 E1.00000 F1800.000
G1 X180.527 Y48.378 E1.18226 F540.000
G1 X181.705 Y50.000 E1.36452
G1 X180.527 Y51.622 E1.54677
G1 X178.621 Y51.002 E1.72903
G1 X178.621 Y49.092 E1.90277
G1 X179.245 Y49.452 F7800.000
G1 X180.288 Y49.113 E2.00246 F540.000
G1 X180.933 Y50.000 E2.10215
G1 X180.288 Y50.887 E2.20184
G1 X179.245 Y50.548 E2.30153
G1 X179.245 Y49.546 E2.39270
G1 X168.975 Y38.975 F7800.000
G1 X191.025 Y38.975 E4.39772 F540.000
G1 X191.025 Y61.025 E6.40274
G1 X168.975 Y61.025 E8.40776
G1 X168.975 Y39.069 E10.40425
G1 X168.350 Y38.350 F7800.000
G1 X191.650 Y38.350 E12.52291 F378.000
G1 X191.650 Y61.650 E14.64157
G1 X168.350 Y61.650 E16.76023
G1 X168.350 Y38.444 E18.87036
G1 X179.473 Y51.722 F7800.000
G1 X188.355 Y60.604 E20.03325 F1080.000
G1 X189.254 Y60.604 E20.11654
G1 X180.721 Y52.071 E21.23375
G1 X181.100 Y51.550 E21.29338
G1 X190.154 Y60.604 E22.47882
G1 X190.604 Y60.154 E22.53772
G1 X181.478 Y51.029 E23.73248
G1 X181.857 Y50.507 E23.79211
G1 X190.604 Y59.254 E24.93730
G1 X190.604 Y58.355 E25.02060
G1 X182.163 Y49.913 E26.12577
G1 X190.604 Y39.460 F7800.000
G1 X190.540 Y39.396 E26.13410 F1080.000
G1 X189.641 Y39.396 E26.21740
G1 X190.604 Y40.359 E26.34352
G1 X190.604 Y41.259 E26.42682
G1 X188.741 Y39.396 E26.67075
G1 X187.841 Y39.396 E26.75405
G1 X190.604 Y42.159 E27.11578
G1 X190.604 Y43.059 E27.19907
G1 X186.941 Y39.396 E27.67860
G1 X186.042 Y39.396 E27.76190
G1 X190.604 Y43.958 E28.35923
G1 X190.604 Y44.858 E28.44253
G1 X185.142 Y39.396 E29.15766
G1 X184.242 Y39.396 E29.24096
G1 X190.604 Y45.758 E30.07389
G1 X190.604 Y46.658 E30.15719
G1 X183.342 Y39.396 E31.10792
G1 X182.443 Y39.396 E31.19122
G1 X190.604 Y47.557 E32.25975
G1 X190.604 Y48.457 E32.34305
G1 X181.543 Y39.396 E33.52938
G1 X180.643 Y39.396 E33.61268
G1 X190.604 Y49.357 E34.91682
G1 X190.604 Y50.257 E35.00012
G1 X179.743 Y39.396 E36.42205
G1 X178.844 Y39.396 E36.50535
G1 X190.604 Y51.156 E38.04509
G1 X190.604 Y52.056 E38.12838
G1 X177.944 Y39.396 E39.78592
G1 X177.044 Y39.396 E39.86922
G1 X190.604 Y52.956 E41.64456
G1 X190.604 Y53.856 E41.72785
G1 X176.144 Y39.396 E43.62099
G1 X175.245 Y39.396 E43.70429
G1 X190.604 Y54.755 E45.71523
G1 X190.604 Y55.655 E45.79853
G1 X174.345 Y39.396 E47.92727
G1 X173.445 Y39.396 E48.01057
G1 X190.604 Y56.555 E50.25711
G1 X190.604 Y57.455 E50.34041
G1 X172.545 Y39.396 E52.70475
G1 X171.645 Y39.396 E52.78805
G1 X180.269 Y48.019 E53.91706
G1 X179.590 Y48.240 E53.98316
G1 X170.746 Y39.396 E55.14106
G1 X169.846 Y39.396 E55.22436
G1 X178.911 Y48.461 E56.41115
G1 X178.231 Y48.681 E56.47726
G1 X169.396 Y39.846 E57.63403
G1 X169.396 Y40.746 E57.71733
G1 X178.199 Y49.549 E58.86991
G1 X178.199 Y50.449 E58.95321
G1 X169.396 Y41.645 E60.10578
G1 X169.396 Y42.545 E60.18908
G1 X187.455 Y60.604 E62.55343
G1 X186.555 Y60.604 E62.63672
G1 X169.396 Y43.445 E64.88327
G1 X169.396 Y44.345 E64.96657
G1 X185.655 Y60.604 E67.09531
G1 X184.756 Y60.604 E67.17861
G1 X169.396 Y45.244 E69.18955
G1 X169.396 Y46.144 E69.27285
G1 X183.856 Y60.604 E71.16599
G1 X182.956 Y60.604 E71.24929
G1 X169.396 Y47.044 E73.02463
G1 X169.396 Y47.944 E73.10793
G1 X182.056 Y60.604 E74.76547
G1 X181.157 Y60.604 E74.84877
G1 X169.396 Y48.843 E76.38851
G1 X169.396 Y49.743 E76.47180
G1 X180.257 Y60.604 E77.89374
G1 X179.357 Y60.604 E77.97704
G1 X169.396 Y50.643 E79.28118
G1 X169.396 Y51.543 E79.36448
G1 X178.457 Y60.604 E80.55081
G1 X177.557 Y60.604 E80.63411
G1 X169.396 Y52.442 E81.70265
G1 X169.396 Y53.342 E81.78595
G1 X176.658 Y60.604 E82.73668
G1 X175.758 Y60.604 E82.81998
G1 X169.396 Y54.242 E83.65292
G1 X169.396 Y55.142 E83.73621
G1 X174.858 Y60.604 E84.45135
G1 X173.958 Y60.604 E84.53465
G1 X169.396 Y56.042 E85.13198
G1 X169.396 Y56.941 E85.21528
G1 X173.059 Y60.604 E85.69481
G1 X172.159 Y60.604 E85.77811
G1 X169.396 Y57.841 E86.13984
G1 X169.396 Y58.741 E86.22314
G1 X171.259 Y60.604 E86.46707
G1 X170.359 Y60.604 E86.55037
G1 X169.396 Y59.641 E86.67650
G1 X169.396 Y60.540 E86.75980
G1 X169.460 Y60.604 E86.76813
M106 S255
M104 S220 ; set temperature
G1 F1800.000 E85.76813
G92 E0
G1 Z0.600 F7800.000
G1 X179.420 Y50.421 F7800.000
G1 E1.00000 F1800.000
G1 X179.420 Y49.579 E1.03063 F1697.933
G1 X180.221 Y49.319 E1.06127
G1 X180.716 Y50.000 E1.09190
G1 X180.221 Y50.681 E1.12253
G1 X179.470 Y50.437 E1.15126
G1 F1800.000 E0.15126
G92 E0
G1 X168.175 Y61.825 F7800.000
G1 E1.00000 F1800.000
G1 X168.175 Y38.175 E1.86035 F1188.553
G1 X191.825 Y38.175 E2.72069
G1 X191.825 Y61.825 E3.58104
G1 X168.227 Y61.825 E4.43947
G1 F1800.000 E3.43947
G92 E0
G1 X179.178 Y50.271 F7800.000
G1 E1.00000 F1800.000
G1 X168.417 Y61.032 E1.61589 F3395.865
G1 X168.437 Y61.563 E1.63740
G1 X179.348 Y50.652 E2.26189
G1 X179.764 Y50.787 E2.27957
G1 X168.968 Y61.583 E2.89744
G1 X169.518 Y61.583 E2.91973
G1 X180.179 Y50.922 E3.52987
G1 X179.178 Y49.720 F7800.000
G1 X168.417 Y60.482 E4.14576 F3395.865
G1 X168.417 Y59.931 E4.16805
G1 X189.931 Y38.417 E5.39934
G1 X189.380 Y38.417 E5.42162
G1 X168.417 Y59.380 E6.62140
G1 X168.417 Y58.830 E6.64368
G1 X188.830 Y38.417 E7.81194
G1 X188.279 Y38.417 E7.83422
G1 X168.417 Y58.279 E8.97097
G1 X168.417 Y57.728 E8.99325
G1 X187.728 Y38.417 E10.09848
G1 X187.178 Y38.417 E10.12077
G1 X168.417 Y57.178 E11.19449
G1 X168.417 Y56.627 E11.21677
G1 X186.627 Y38.417 E12.25897
G1 X186.076 Y38.417 E12.28126
G1 X168.417 Y56.076 E13.29194
G1 X168.417 Y55.526 E13.31423
G1 X185.526 Y38.417 E14.29340
G1 X184.975 Y38.417 E14.31569
G1 X168.417 Y54.975 E15.26335
G1 X168.417 Y54.425 E15.28563
G1 X184.425 Y38.417 E16.20177
G1 X183.874 Y38.417 E16.22406
G1 X168.417 Y53.874 E17.10869
G1 X168.417 Y53.323 E17.13097
G1 X183.323 Y38.417 E17.98409
G1 X182.773 Y38.417 E18.00637
G1 X168.417 Y52.773 E18.82798
G1 X168.417 Y52.222 E18.85026
G1 X182.222 Y38.417 E19.64035
G1 X181.671 Y38.417 E19.66263
G1 X168.417 Y51.671 E20.42120
G1 X168.417 Y51.121 E20.44349
G1 X181.121 Y38.417 E21.17055
G1 X180.570 Y38.417 E21.19283
G1 X168.417 Y50.570 E21.88837
G1 X168.417 Y50.019 E21.91066
G1 X180.019 Y38.417 E22.57469
G1 X179.469 Y38.417 E22.59697
G1 X168.417 Y49.469 E23.22949
G1 X168.417 Y48.918 E23.25177
G1 X178.918 Y38.417 E23.85277
G1 X178.368 Y38.417 E23.87506
G1 X168.417 Y48.368 E24.44454
G1 X168.417 Y47.817 E24.46683
G1 X177.817 Y38.417 E25.00480
G1 X177.266 Y38.417 E25.02708
G1 X168.417 Y47.266 E25.53354
G1 X168.417 Y46.716 E25.55583
G1 X176.716 Y38.417 E26.03077
G1 X176.165 Y38.417 E26.05305
G1 X168.417 Y46.165 E26.49648
G1 X168.417 Y45.614 E26.51877
G1 X175.614 Y38.417 E26.93068
G1 X175.064 Y38.417 E26.95297
G1 X168.417 Y45.064 E27.33337
G1 X168.417 Y44.513 E27.35565
G1 X174.513 Y38.417 E27.70454
G1 X173.962 Y38.417 E27.72682
G1 X168.417 Y43.962 E28.04419
G1 X168.417 Y43.412 E28.06648
G1 X173.412 Y38.417 E28.35233
G1 X172.861 Y38.417 E28.37462
G1 X168.417 Y42.861 E28.62896
G1 X168.417 Y42.311 E28.65124
G1 X172.311 Y38.417 E28.87407
G1 X171.760 Y38.417 E28.89636
G1 X168.417 Y41.760 E29.08767
G1 X168.417 Y41.209 E29.10995
G1 X171.209 Y38.417 E29.26975
G1 X170.659 Y38.417 E29.29204
G1 X168.417 Y40.659 E29.42032
G1 X168.417 Y40.108 E29.44261
G1 X170.108 Y38.417 E29.53938
G1 X169.557 Y38.417 E29.56166
G1 X168.417 Y39.557 E29.62692
G1 X168.417 Y39.007 E29.64920
G1 X169.007 Y38.417 E29.68294
G1 X168.456 Y38.417 E29.70523
G1 X168.417 Y38.456 E29.70746
G1 F1800.000 E28.70746
G92 E0
G1 X179.648 Y49.250 F7800.000
G1 E1.00000 F1800.000
G1 X190.482 Y38.417 E1.62001 F3395.865
G1 X191.032 Y38.417 E1.64230
G1 X180.356 Y49.093 E2.25330
G1 X180.588 Y49.412 E2.26925
G1 X191.563 Y38.437 E2.89739
G1 X191.583 Y38.968 E2.91890
G1 X180.820 Y49.731 E3.53489
G1 X180.788 Y50.313 E3.55851
G1 X191.583 Y39.518 E4.17633
G1 X191.583 Y40.069 E4.19862
G1 X170.069 Y61.583 E5.42990
G1 X170.620 Y61.583 E5.45219
G1 X191.583 Y40.620 E6.65196
G1 X191.583 Y41.170 E6.67425
G1 X171.170 Y61.583 E7.84251
G1 X171.721 Y61.583 E7.86479
G1 X191.583 Y41.721 E9.00154
G1 X191.583 Y42.272 E9.02382
G1 X172.272 Y61.583 E10.12906
G1 X172.822 Y61.583 E10.15134
G1 X191.583 Y42.822 E11.22506
G1 X191.583 Y43.373 E11.24734
G1 X173.373 Y61.583 E12.28955
G1 X173.923 Y61.583 E12.31183
G1 X191.583 Y43.923 E13.32252
G1 X191.583 Y44.474 E13.34480
G1 X174.474 Y61.583 E14.32398
G1 X175.025 Y61.583 E14.34626
G1 X191.583 Y45.025 E15.29392
G1 X191.583 Y45.575 E15.31621
G1 X175.575 Y61.583 E16.23235
G1 X176.126 Y61.583 E16.25464
G1 X191.583 Y46.126 E17.13927
G1 X191.583 Y46.677 E17.16155
G1 X176.677 Y61.583 E18.01467
G1 X177.227 Y61.583 E18.03695
G1 X191.583 Y47.227 E18.85856
G1 X191.583 Y47.778 E18.88084
G1 X177.778 Y61.583 E19.67093
G1 X178.329 Y61.583 E19.69321
G1 X191.583 Y48.329 E20.45179
G1 X191.583 Y48.879 E20.47407
G1 X178.879 Y61.583 E21.20113
G1 X179.430 Y61.583 E21.22341
G1 X191.583 Y49.430 E21.91896
G1 X191.583 Y49.981 E21.94124
G1 X179.981 Y61.583 E22.60527
G1 X180.531 Y61.583 E22.62756
G1 X191.583 Y50.531 E23.26007
G1 X191.583 Y51.082 E23.28236
G1 X181.082 Y61.583 E23.88336
G1 X181.632 Y61.583 E23.90564
G1 X191.583 Y51.632 E24.47513
G1 X191.583 Y52.183 E24.49741
G1 X182.183 Y61.583 E25.03539
G1 X182.734 Y61.583 E25.05767
G1 X191.583 Y52.734 E25.56413
G1 X191.583 Y53.284 E25.58641
G1 X183.284 Y61.583 E26.06136
G1 X183.835 Y61.583 E26.08364
G1 X191.583 Y53.835 E26.52707
G1 X191.583 Y54.386 E26.54936
G1 X184.386 Y61.583 E26.96127
G1 X184.936 Y61.583 E26.98356
G1 X191.583 Y54.936 E27.36396
G1 X191.583 Y55.487 E27.38624
G1 X185.487 Y61.583 E27.73513
G1 X186.038 Y61.583 E27.75741
G1 X191.583 Y56.038 E28.07478
G1 X191.583 Y56.588 E28.09707
G1 X186.588 Y61.583 E28.38293
G1 X187.139 Y61.583 E28.40521
G1 X191.583 Y57.139 E28.65955
G1 X191.583 Y57.689 E28.68184
G1 X187.689 Y61.583 E28.90467
G1 X188.240 Y61.583 E28.92695
G1 X191.583 Y58.240 E29.11827
G1 X191.583 Y58.791 E29.14055
G1 X188.791 Y61.583 E29.30035
G1 X189.341 Y61.583 E29.32263
G1 X191.583 Y59.341 E29.45092
G1 X191.583 Y59.892 E29.47320
G1 X189.892 Y61.583 E29.56998
G1 X190.443 Y61.583 E29.59226
G1 X191.583 Y60.443 E29.65752
G1 X191.583 Y60.993 E29.67980
G1 X190.993 Y61.583 E29.71354
G1 X191.544 Y61.583 E29.73583
G1 X191.583 Y61.544 E29.73806
G1 F1800.000 E28.73806
G92 E0
G1 Z0.850 F7800.000
G1 X184.768 Y55.502 F7800.000
G1 E1.00000 F1800.000
G1 X183.024 Y56.622 E1.07538 F1579.361
G1 X181.036 Y57.206 E1.15077
G1 X178.964 Y57.206 E1.22615
G1 X176.976 Y56.622 E1.30153
G1 X176.730 Y56.465 E1.31214
G1 X175.232 Y55.502 E1.37692
G1 X173.875 Y53.936 E1.45230
G1 X173.015 Y52.051 E1.52769
G1 X172.720 Y50.000 E1.60307
G1 X172.979 Y48.195 E1.66942
G1 X173.015 Y47.949 E1.67845
G1 X173.875 Y46.064 E1.75384
G1 X175.232 Y44.498 E1.82922
G1 X176.976 Y43.378 E1.90460
G1 X178.964 Y42.794 E1.97999
G1 X181.036 Y42.794 E2.05537
G1 X183.024 Y43.378 E2.13076
G1 X184.768 Y44.498 E2.20614
G1 X186.125 Y46.064 E2.28152
G1 X186.985 Y47.949 E2.35691
G1 X187.280 Y50.000 E2.43229
G1 X186.985 Y52.051 E2.50767
G1 X186.125 Y53.936 E2.58306
G1 X184.802 Y55.462 E2.65653
G1 X184.536 Y55.235 F7800.000
G1 X182.877 Y56.301 E2.72825 F1105.552
G1 X180.986 Y56.856 E2.79998
G1 X179.014 Y56.856 E2.87170
G1 X177.123 Y56.301 E2.94342
G1 X176.920 Y56.170 E2.95220
G1 X175.464 Y55.235 E3.01514
G1 X174.173 Y53.745 E3.08687
G1 X173.354 Y51.951 E3.15859
G1 X173.073 Y50.000 E3.23031
G1 X173.326 Y48.245 E3.29483
G1 X173.354 Y48.048 E3.30203
G1 X174.173 Y46.255 E3.37376
G1 X175.464 Y44.765 E3.44548
G1 X177.123 Y43.699 E3.51720
G1 X179.014 Y43.144 E3.58892
G1 X180.986 Y43.144 E3.66065
G1 X182.877 Y43.699 E3.73237
G1 X184.536 Y44.765 E3.80409
G1 X185.827 Y46.255 E3.87581
G1 X186.646 Y48.048 E3.94754
G1 X186.927 Y50.000 E4.01926
G1 X186.646 Y51.951 E4.09098
G1 X185.827 Y53.745 E4.16270
G1 X184.570 Y55.195 E4.23251
G1 X191.475 Y61.475 F7800.000
G1 X168.525 Y61.475 E5.06740 F1579.361
G1 X168.525 Y38.525 E5.90228
G1 X191.475 Y38.525 E6.73716
G1 X191.475 Y61.422 E7.57013
G1 X191.825 Y61.825 F7800.000
G1 X168.175 Y61.825 E8.43048 F1105.552
G1 X168.175 Y38.175 E9.29082
G1 X191.825 Y38.175 E10.15117
G1 X191.825 Y61.772 E11.00960
