; generated by Slic3r 1.0.0RC2 on 2014-01-09 at 22:24:15

; layer_height = 0.25
; perimeters = 2
; top_solid_layers = 3
; bottom_solid_layers = 3
; fill_density = 0.4
; perimeter_speed = 30
; infill_speed = 60
; travel_speed = 130
; nozzle_diameter = 0.35
; filament_diameter = 1.75
; extrusion_multiplier = 1
; perimeters extrusion width = 0.35mm
; infill extrusion width = 0.39mm
; solid infill extrusion width = 0.39mm
; top infill extrusion width = 0.39mm
; support material extrusion width = 0.35mm
; first layer extrusion width = 0.70mm

G21 ; set units to millimeters
M107
M104 S220 ; set temperature
G28 ; home all axes
G1 Z5 F5000 ; lift nozzle

M109 S220 ; wait for temperature to be reached
G90 ; use absolute coordinates
G92 E0
M82 ; use absolute distances for extrusion
G1 F1800.000 E-1.00000
G92 E0
G1 Z0.350 F7800.000
G1 X160.280 Y36.460 F7800.000
G1 E1.00000 F1800.000
G1 X160.720 Y34.990 E1.13953 F540.000
G1 X161.450 Y33.630 E1.27988
G1 X162.430 Y32.430 E1.42076
G1 X163.630 Y31.450 E1.56164
G1 X164.990 Y30.720 E1.70199
G1 X166.460 Y30.280 E1.84152
G1 X168.000 Y30.130 E1.98221
G1 X192.000 Y30.130 E4.16452
G1 X193.540 Y30.280 E4.30521
G1 X195.010 Y30.720 E4.44474
G1 X196.370 Y31.450 E4.58509
G1 X197.570 Y32.430 E4.72597
G1 X198.550 Y33.630 E4.86685
G1 X199.280 Y34.990 E5.00720
G1 X199.720 Y36.460 E5.14673
G1 X199.870 Y38.000 E5.28742
G1 X199.870 Y62.000 E7.46973
G1 X199.720 Y63.540 E7.61043
G1 X199.280 Y65.010 E7.74995
G1 X198.550 Y66.370 E7.89031
G1 X197.570 Y67.570 E8.03119
G1 X196.370 Y68.550 E8.17207
G1 X195.010 Y69.280 E8.31242
G1 X193.540 Y69.720 E8.45195
G1 X192.000 Y69.870 E8.59264
G1 X168.000 Y69.870 E10.77495
G1 X166.460 Y69.720 E10.91564
G1 X164.990 Y69.280 E11.05517
G1 X163.630 Y68.550 E11.19552
G1 X162.430 Y67.570 E11.33640
G1 X161.450 Y66.370 E11.47728
G1 X160.720 Y65.010 E11.61763
G1 X160.280 Y63.540 E11.75716
G1 X160.130 Y62.000 E11.89785
G1 X160.130 Y38.000 E14.08016
G1 X160.271 Y36.553 E14.21233
G1 X160.890 Y36.590 F7800.000
G1 X161.300 Y35.230 E14.34150 F540.000
G1 X161.970 Y33.970 E14.47126
G1 X162.870 Y32.870 E14.60049
G1 X163.970 Y31.970 E14.72973
G1 X165.230 Y31.300 E14.85949
G1 X166.590 Y30.890 E14.98865
G1 X168.000 Y30.750 E15.11749
G1 X192.000 Y30.750 E17.29980
G1 X193.410 Y30.890 E17.42864
G1 X194.770 Y31.300 E17.55781
G1 X196.030 Y31.970 E17.68757
G1 X197.130 Y32.870 E17.81680
G1 X198.030 Y33.970 E17.94604
G1 X198.700 Y35.230 E18.07580
G1 X199.110 Y36.590 E18.20496
G1 X199.250 Y38.000 E18.33380
G1 X199.250 Y62.000 E20.51611
G1 X199.110 Y63.410 E20.64495
G1 X198.700 Y64.770 E20.77412
G1 X198.030 Y66.030 E20.90388
G1 X197.130 Y67.130 E21.03311
G1 X196.030 Y68.030 E21.16235
G1 X194.770 Y68.700 E21.29211
G1 X193.410 Y69.110 E21.42127
G1 X192.000 Y69.250 E21.55011
G1 X168.000 Y69.250 E23.73242
G1 X166.590 Y69.110 E23.86126
G1 X165.230 Y68.700 E23.99043
G1 X163.970 Y68.030 E24.12019
G1 X162.870 Y67.130 E24.24942
G1 X161.970 Y66.030 E24.37866
G1 X161.300 Y64.770 E24.50842
G1 X160.890 Y63.410 E24.63758
G1 X160.750 Y62.000 E24.76642
G1 X160.750 Y38.000 E26.94873
G1 X160.881 Y36.683 E27.06905
G1 X161.500 Y36.710 F7800.000
G1 X161.880 Y35.460 E27.18785 F540.000
G1 X162.490 Y34.320 E27.30542
G1 X163.320 Y33.320 E27.42359
G1 X164.320 Y32.490 E27.54176
G1 X165.460 Y31.880 E27.65932
G1 X166.710 Y31.500 E27.77812
G1 X168.000 Y31.380 E27.89593
G1 X192.000 Y31.380 E30.07824
G1 X193.290 Y31.500 E30.19604
G1 X194.540 Y31.880 E30.31484
G1 X195.680 Y32.490 E30.43241
G1 X196.680 Y33.320 E30.55058
G1 X197.510 Y34.320 E30.66875
G1 X198.120 Y35.460 E30.78631
G1 X198.500 Y36.710 E30.90511
G1 X198.620 Y38.000 E31.02292
G1 X198.620 Y62.000 E33.20523
G1 X198.500 Y63.290 E33.32303
G1 X198.120 Y64.540 E33.44183
G1 X197.510 Y65.680 E33.55940
G1 X196.680 Y66.680 E33.67757
G1 X195.680 Y67.510 E33.79574
G1 X194.540 Y68.120 E33.91330
G1 X193.290 Y68.500 E34.03210
G1 X192.000 Y68.620 E34.14991
G1 X168.000 Y68.620 E36.33222
G1 X166.710 Y68.500 E36.45002
G1 X165.460 Y68.120 E36.56882
G1 X164.320 Y67.510 E36.68639
G1 X163.320 Y66.680 E36.80456
G1 X162.490 Y65.680 E36.92273
G1 X161.880 Y64.540 E37.04029
G1 X161.500 Y63.290 E37.15909
G1 X161.380 Y62.000 E37.27690
G1 X161.380 Y38.000 E39.45921
G1 X161.491 Y36.803 E39.56849
G1 F1800.000 E38.56849
G92 E0
G1 X173.493 Y45.818 F7800.000
G1 E1.00000 F1800.000
G1 X174.935 Y44.154 E1.20019 F540.000
G1 X176.598 Y43.085 E1.37999
G1 X176.787 Y42.964 E1.40038
G1 X178.899 Y42.344 E1.60057
G1 X181.101 Y42.344 E1.80076
G1 X182.998 Y42.901 E1.98056
G1 X183.213 Y42.964 E2.00095
G1 X185.065 Y44.154 E2.20113
G1 X186.507 Y45.818 E2.40132
G1 X187.422 Y47.821 E2.60151
G1 X187.735 Y50.000 E2.80170
G1 X187.422 Y52.179 E3.00189
G1 X186.507 Y54.182 E3.20208
G1 X185.065 Y55.846 E3.40227
G1 X183.213 Y57.036 E3.60246
G1 X181.101 Y57.656 E3.80265
G1 X178.899 Y57.656 E4.00284
G1 X176.787 Y57.036 E4.20303
G1 X174.935 Y55.846 E4.40322
G1 X173.493 Y54.182 E4.60341
G1 X172.578 Y52.179 E4.80360
G1 X172.265 Y50.000 E5.00379
G1 X172.578 Y47.821 E5.20398
G1 X173.454 Y45.903 E5.39564
G1 X174.024 Y46.159 F7800.000
G1 X175.348 Y44.631 E5.57949 F378.000
G1 X176.936 Y43.611 E5.75112
G1 X177.049 Y43.538 E5.76334
G1 X178.989 Y42.969 E5.94719
G1 X181.011 Y42.969 E6.13104
G1 X182.822 Y43.500 E6.30267
G1 X182.951 Y43.538 E6.31489
G1 X184.652 Y44.631 E6.49874
G1 X185.976 Y46.159 E6.68259
G1 X186.816 Y47.999 E6.86644
G1 X187.104 Y50.000 E7.05029
G1 X186.816 Y52.001 E7.23414
G1 X185.976 Y53.841 E7.41799
G1 X184.652 Y55.369 E7.60184
G1 X182.951 Y56.462 E7.78569
G1 X181.011 Y57.031 E7.96954
G1 X178.989 Y57.031 E8.15339
G1 X177.049 Y56.462 E8.33724
G1 X175.348 Y55.369 E8.52109
G1 X174.024 Y53.840 E8.70494
G1 X173.184 Y52.001 E8.88879
G1 X172.896 Y50.000 E9.07264
G1 X173.184 Y47.999 E9.25649
G1 X173.985 Y46.245 E9.43182
G1 X173.764 Y45.591 F7800.000
G1 X168.975 Y38.975 F7800.000
G1 X191.025 Y38.975 E11.43684 F540.000
G1 X191.025 Y61.025 E13.44186
G1 X168.975 Y61.025 E15.44687
G1 X168.975 Y39.069 E17.44337
G1 X168.350 Y38.350 F7800.000
G1 X191.650 Y38.350 E19.56203 F378.000
G1 X191.650 Y61.650 E21.68069
G1 X168.350 Y61.650 E23.79934
G1 X168.350 Y38.444 E25.90948
G1 X168.891 Y38.662 F7800.000
G1 X182.731 Y42.383 F7800.000
G1 X179.743 Y39.396 E26.30059 F1080.000
G1 X178.844 Y39.396 E26.38389
G1 X181.457 Y42.009 E26.72603
G1 X180.470 Y41.923 E26.81771
G1 X177.944 Y39.396 E27.14849
G1 X177.044 Y39.396 E27.23179
G1 X179.571 Y41.923 E27.56257
G1 X178.709 Y41.961 E27.64242
G1 X176.144 Y39.396 E27.97819
G1 X175.245 Y39.396 E28.06149
G1 X178.013 Y42.165 E28.42400
G1 X177.318 Y42.369 E28.49111
G1 X174.345 Y39.396 E28.88036
G1 X173.445 Y39.396 E28.96366
G1 X176.622 Y42.573 E29.37965
G1 X176.072 Y42.923 E29.44000
G1 X172.545 Y39.396 E29.90173
G1 X171.645 Y39.396 E29.98503
G1 X175.524 Y43.275 E30.49285
G1 X174.976 Y43.627 E30.55313
G1 X170.746 Y39.396 E31.10704
G1 X169.846 Y39.396 E31.19034
G1 X174.483 Y44.033 E31.79740
G1 X174.065 Y44.515 E31.85645
G1 X169.396 Y39.846 E32.46773
G1 X169.396 Y40.746 E32.55102
G1 X173.647 Y44.997 E33.10761
G1 X173.230 Y45.479 E33.16666
G1 X169.396 Y41.645 E33.66856
G1 X169.396 Y42.545 E33.75186
G1 X172.917 Y46.066 E34.21281
G1 X172.635 Y46.684 E34.27567
G1 X169.396 Y43.445 E34.69969
G1 X169.396 Y44.345 E34.78299
G1 X172.353 Y47.301 E35.17007
G1 X172.130 Y47.979 E35.23607
G1 X169.396 Y45.244 E35.59403
G1 X169.396 Y46.144 E35.67733
G1 X172.017 Y48.765 E36.02048
G1 X171.904 Y49.552 E36.09406
G1 X169.396 Y47.044 E36.42240
G1 X169.396 Y47.944 E36.50570
G1 X171.905 Y50.452 E36.83412
G1 X172.056 Y51.503 E36.93241
G1 X169.396 Y48.843 E37.28061
G1 X169.396 Y49.743 E37.36391
G1 X172.353 Y52.701 E37.75110
G1 X173.110 Y54.357 F7800.000
G1 X169.396 Y50.643 E38.23732 F1080.000
G1 X169.396 Y51.543 E38.32062
G1 X178.457 Y60.604 E39.50695
G1 X177.557 Y60.604 E39.59025
G1 X169.396 Y52.442 E40.65879
G1 X169.396 Y53.342 E40.74209
G1 X176.658 Y60.604 E41.69282
G1 X175.758 Y60.604 E41.77612
G1 X169.396 Y54.242 E42.60905
G1 X169.396 Y55.142 E42.69235
G1 X174.858 Y60.604 E43.40749
G1 X173.958 Y60.604 E43.49078
G1 X169.396 Y56.042 E44.08812
G1 X169.396 Y56.941 E44.17142
G1 X173.059 Y60.604 E44.65095
G1 X172.159 Y60.604 E44.73425
G1 X169.396 Y57.841 E45.09598
G1 X169.396 Y58.741 E45.17928
G1 X171.259 Y60.604 E45.42321
G1 X170.359 Y60.604 E45.50651
G1 X169.396 Y59.641 E45.63264
G1 X169.396 Y60.540 E45.71593
G1 X169.460 Y60.604 E45.72426
G1 X175.396 Y56.643 F7800.000
G1 X179.357 Y60.604 E46.24289 F1080.000
G1 X180.257 Y60.604 E46.32619
G1 X177.270 Y57.617 E46.71729
G1 X178.543 Y57.991 E46.84020
G1 X181.157 Y60.604 E47.18233
G1 X182.056 Y60.604 E47.26563
G1 X179.530 Y58.077 E47.59642
G1 X180.430 Y58.077 E47.67971
G1 X182.956 Y60.604 E48.01050
G1 X183.856 Y60.604 E48.09380
G1 X181.291 Y58.039 E48.42957
G1 X181.987 Y57.835 E48.49668
G1 X184.756 Y60.604 E48.85919
G1 X185.655 Y60.604 E48.94249
G1 X182.682 Y57.631 E49.33174
G1 X183.378 Y57.427 E49.39885
G1 X186.555 Y60.604 E49.81484
G1 X187.455 Y60.604 E49.89814
G1 X183.928 Y57.077 E50.35987
G1 X184.476 Y56.725 E50.42015
G1 X188.355 Y60.604 E50.92797
G1 X189.254 Y60.604 E51.01127
G1 X185.024 Y56.373 E51.56518
G1 X185.517 Y55.967 E51.62436
G1 X190.154 Y60.604 E52.23143
G1 X190.604 Y60.154 E52.29033
G1 X185.935 Y55.485 E52.90160
G1 X186.353 Y55.003 E52.96065
G1 X190.604 Y59.254 E53.51724
G1 X190.604 Y58.355 E53.60054
G1 X186.770 Y54.521 E54.10244
G1 X187.083 Y53.934 E54.16401
G1 X190.604 Y57.455 E54.62496
G1 X190.604 Y56.555 E54.70826
G1 X187.365 Y53.316 E55.13227
G1 X187.647 Y52.699 E55.19514
G1 X190.604 Y55.655 E55.58222
G1 X190.604 Y54.755 E55.66552
G1 X187.870 Y52.021 E56.02348
G1 X187.983 Y51.235 E56.09705
G1 X190.604 Y53.856 E56.44021
G1 X190.604 Y52.956 E56.52350
G1 X188.096 Y50.448 E56.85185
G1 X188.095 Y49.548 E56.93520
G1 X190.604 Y52.056 E57.26362
G1 X190.604 Y51.156 E57.34692
G1 X187.944 Y48.497 E57.69512
G1 X187.646 Y47.299 E57.80937
G1 X190.604 Y50.257 E58.19657
G1 X190.604 Y49.357 E58.27987
G1 X186.890 Y45.643 E58.76609
G1 X184.604 Y43.357 F7800.000
G1 X180.643 Y39.396 E59.28472 F1080.000
G1 X181.543 Y39.396 E59.36802
G1 X190.604 Y48.457 E60.55435
G1 X190.604 Y47.557 E60.63765
G1 X182.443 Y39.396 E61.70618
G1 X183.342 Y39.396 E61.78948
G1 X190.604 Y46.658 E62.74021
G1 X190.604 Y45.758 E62.82351
G1 X184.242 Y39.396 E63.65644
G1 X185.142 Y39.396 E63.73974
G1 X190.604 Y44.858 E64.45487
G1 X190.604 Y43.958 E64.53817
G1 X186.042 Y39.396 E65.13550
G1 X186.941 Y39.396 E65.21880
G1 X190.604 Y43.059 E65.69833
G1 X190.604 Y42.159 E65.78163
G1 X187.841 Y39.396 E66.14336
G1 X188.741 Y39.396 E66.22665
G1 X190.604 Y41.259 E66.47058
G1 X190.604 Y40.359 E66.55388
G1 X189.641 Y39.396 E66.68001
G1 X190.540 Y39.396 E66.76330
G1 X190.604 Y39.460 E66.77163
G1 F1800.000 E65.77163
G92 E0
G1 X182.279 Y44.005 F7800.000
G1 E1.00000 F1800.000
G1 X177.721 Y44.005 E1.41438 F1080.000
G1 X175.651 Y45.255 E1.63426
G1 X184.349 Y45.255 E2.42511
G1 X185.432 Y46.505 E2.57548
G1 X174.568 Y46.505 E3.56328
G1 X173.996 Y47.755 E3.68826
G1 X186.004 Y47.755 E4.78006
G1 X186.316 Y49.004 E4.89721
G1 X173.684 Y49.004 E6.04591
G1 X173.577 Y50.254 E6.15996
G1 X186.396 Y50.254 E7.32562
G1 X186.243 Y51.504 E7.44012
G1 X173.757 Y51.504 E8.57552
G1 X174.229 Y52.754 E8.69699
G1 X185.771 Y52.754 E9.74657
G1 X184.991 Y54.004 E9.88054
G1 X175.009 Y54.004 E10.78822
G1 X176.348 Y55.253 E10.95478
G1 X183.652 Y55.253 E11.61892
M106 S255
M104 S220 ; set temperature
G1 F1800.000 E10.61892
G92 E0
G1 Z0.600 F7800.000
G1 X184.512 Y55.666 F7800.000
G1 E1.00000 F1800.000
G1 X183.024 Y56.622 E1.06434 F1660.636
G1 X181.036 Y57.206 E1.13972
G1 X178.964 Y57.206 E1.21511
G1 X176.976 Y56.622 E1.29049
G1 X175.232 Y55.502 E1.36587
G1 X173.875 Y53.936 E1.44126
G1 X173.015 Y52.051 E1.51664
G1 X172.720 Y50.000 E1.59202
G1 X172.971 Y48.249 E1.65636
G1 X173.015 Y47.949 E1.66741
G1 X173.875 Y46.064 E1.74279
G1 X175.232 Y44.498 E1.81818
G1 X176.976 Y43.378 E1.89356
G1 X178.964 Y42.794 E1.96894
G1 X181.036 Y42.794 E2.04433
G1 X183.024 Y43.378 E2.11971
G1 X184.768 Y44.498 E2.19509
G1 X186.125 Y46.064 E2.27048
G1 X186.985 Y47.949 E2.34586
G1 X187.280 Y50.000 E2.42124
G1 X186.985 Y52.051 E2.49663
G1 X186.125 Y53.936 E2.57201
G1 X184.768 Y55.502 E2.64740
G1 X184.556 Y55.638 E2.65653
G1 X184.323 Y55.372 F7800.000
G1 X182.877 Y56.301 E2.71904 F1162.445
G1 X180.986 Y56.856 E2.79076
G1 X179.014 Y56.856 E2.86248
G1 X177.123 Y56.301 E2.93421
G1 X175.464 Y55.235 E3.00593
G1 X174.173 Y53.745 E3.07765
G1 X173.354 Y51.951 E3.14937
G1 X173.073 Y50.000 E3.22110
G1 X173.318 Y48.299 E3.28360
G1 X173.354 Y48.048 E3.29282
G1 X174.173 Y46.255 E3.36454
G1 X175.464 Y44.765 E3.43626
G1 X177.123 Y43.699 E3.50799
G1 X179.014 Y43.144 E3.57971
G1 X180.986 Y43.144 E3.65143
G1 X182.877 Y43.699 E3.72315
G1 X184.536 Y44.765 E3.79488
G1 X185.827 Y46.255 E3.86660
G1 X186.646 Y48.048 E3.93832
G1 X186.927 Y50.000 E4.01004
G1 X186.646 Y51.951 E4.08176
G1 X185.827 Y53.745 E4.15349
G1 X184.536 Y55.235 E4.22521
G1 X184.367 Y55.343 E4.23251
G1 X184.340 Y55.721 F7800.000
G1 X191.475 Y61.475 F7800.000
G1 X168.525 Y61.475 E5.06740 F1660.636
G1 X168.525 Y38.525 E5.90228
G1 X191.475 Y38.525 E6.73716
G1 X191.475 Y61.422 E7.57013
G1 X191.825 Y61.825 F7800.000
G1 X168.175 Y61.825 E8.43048 F1162.445
G1 X168.175 Y38.175 E9.29082
G1 X191.825 Y38.175 E10.15117
G1 X191.825 Y61.772 E11.00961
G1 X191.522 Y61.650 F7800.000
G1 X191.233 Y61.194 F7800.000
G1 X191.194 Y61.233 E11.01180 F3321.272
G1 X190.647 Y61.233 E11.03379
G1 X191.233 Y60.647 E11.06709
G1 X191.233 Y60.100 E11.08908
G1 X190.100 Y61.233 E11.15348
G1 X189.553 Y61.233 E11.17547
G1 X191.233 Y59.553 E11.27096
G1 X191.233 Y59.006 E11.29295
G1 X189.006 Y61.233 E11.41955
G1 X188.459 Y61.233 E11.44154
G1 X191.233 Y58.459 E11.59923
G1 X191.233 Y57.912 E11.62122
G1 X187.912 Y61.233 E11.81001
G1 X187.365 Y61.233 E11.83200
G1 X191.233 Y57.365 E12.05189
G1 X191.233 Y56.818 E12.07388
G1 X186.818 Y61.233 E12.32487
G1 X186.271 Y61.233 E12.34686
G1 X191.233 Y56.271 E12.62895
G1 X191.233 Y55.724 E12.65094
G1 X185.724 Y61.233 E12.96413
G1 X185.177 Y61.233 E12.98612
G1 X191.233 Y55.177 E13.33040
G1 X191.233 Y54.630 E13.35239
G1 X184.630 Y61.233 E13.72778
G1 X184.083 Y61.233 E13.74977
G1 X191.233 Y54.083 E14.15625
G1 X191.233 Y53.536 E14.17824
G1 X183.536 Y61.233 E14.61582
G1 X182.989 Y61.233 E14.63782
G1 X191.233 Y52.989 E15.10650
G1 X191.233 Y52.442 E15.12849
G1 X182.442 Y61.233 E15.62827
G1 X181.895 Y61.233 E15.65026
G1 X191.233 Y51.895 E16.18113
G1 X191.233 Y51.348 E16.20312
G1 X181.348 Y61.233 E16.76510
G1 X180.801 Y61.233 E16.78709
G1 X191.233 Y50.801 E17.38017
G1 X191.233 Y50.254 E17.40216
G1 X180.254 Y61.233 E18.02633
G1 X179.707 Y61.233 E18.04832
G1 X191.233 Y49.707 E18.70360
G1 X191.233 Y49.160 E18.72559
G1 X186.336 Y54.057 E19.00401
G1 X186.795 Y53.051 F7800.000
G1 X191.233 Y48.613 E19.25629 F3321.272
G1 X191.233 Y48.066 E19.27828
G1 X187.227 Y52.072 E19.50601
G1 X187.319 Y51.433 E19.53196
G1 X191.233 Y47.519 E19.75447
G1 X191.233 Y46.972 E19.77646
G1 X187.411 Y50.794 E19.99374
G1 X187.503 Y50.155 E20.01969
G1 X191.233 Y46.425 E20.23175
G1 X191.233 Y45.878 E20.25374
G1 X187.473 Y49.638 E20.46749
G1 X187.404 Y49.160 E20.48692
G1 X191.233 Y45.331 E20.70458
G1 X191.233 Y44.784 E20.72657
G1 X187.336 Y48.681 E20.94814
G1 X187.267 Y48.203 E20.96756
G1 X191.233 Y44.237 E21.19305
G1 X191.233 Y43.690 E21.21504
G1 X187.165 Y47.758 E21.44632
G1 X186.993 Y47.383 E21.46291
G1 X191.233 Y43.143 E21.70395
G1 X191.233 Y42.596 E21.72594
G1 X186.822 Y47.007 E21.97672
G1 X186.650 Y46.632 E21.99332
G1 X191.233 Y42.049 E22.25385
G1 X191.233 Y41.502 E22.27584
G1 X186.479 Y46.256 E22.54612
G1 X186.296 Y45.892 E22.56251
G1 X191.233 Y40.955 E22.84317
G1 X191.233 Y40.408 E22.86516
G1 X186.042 Y45.599 E23.16027
G1 X185.788 Y45.306 E23.17586
G1 X191.233 Y39.861 E23.48540
G1 X191.233 Y39.314 E23.50739
G1 X185.534 Y45.013 E23.83137
G1 X185.280 Y44.720 E23.84696
G1 X191.213 Y38.787 E24.18428
G1 X190.686 Y38.767 E24.20550
G1 X185.026 Y44.427 E24.52726
G1 X184.724 Y44.182 E24.54289
G1 X190.139 Y38.767 E24.85074
G1 X189.592 Y38.767 E24.87273
G1 X184.391 Y43.968 E25.16840
G1 X184.058 Y43.754 E25.18432
G1 X189.045 Y38.767 E25.46783
G1 X188.498 Y38.767 E25.48982
