; generated by Slic3r 1.0.0RC2 on 2014-01-09 at 21:56:18

; layer_height = 0.25
; perimeters = 2
; top_solid_layers = 3
; bottom_solid_layers = 3
; fill_density = 0.4
; perimeter_speed = 30
; infill_speed = 60
; travel_speed = 130
; nozzle_diameter = 0.35
; filament_diameter = 1.75
; extrusion_multiplier = 1
; perimeters extrusion width = 0.35mm
; infill extrusion width = 0.39mm
; solid infill extrusion width = 0.39mm
; top infill extrusion width = 0.39mm
; support material extrusion width = 0.35mm
; first layer extrusion width = 0.70mm

G21 ; set units to millimeters
M107
M104 S220 ; set temperature
G28 ; home all axes
G1 Z5 F5000 ; lift nozzle

M109 S220 ; wait for temperature to be reached
G90 ; use absolute coordinates
G92 E0
M82 ; use absolute distances for extrusion
G1 F1800.000 E-1.00000
G92 E0
G1 Z0.350 F7800.000
G1 X162.280 Y38.460 F7800.000
G1 E1.00000 F1800.000
G1 X162.720 Y36.990 E1.13953 F540.000
G1 X163.450 Y35.630 E1.27988
G1 X164.430 Y34.430 E1.42076
G1 X165.630 Y33.450 E1.56164
G1 X166.990 Y32.720 E1.70199
G1 X168.460 Y32.280 E1.84152
G1 X170.000 Y32.130 E1.98221
G1 X190.000 Y32.130 E3.80080
G1 X191.540 Y32.280 E3.94150
G1 X193.010 Y32.720 E4.08102
G1 X194.370 Y33.450 E4.22137
G1 X195.570 Y34.430 E4.36225
G1 X196.550 Y35.630 E4.50313
G1 X197.280 Y36.990 E4.64349
G1 X197.720 Y38.460 E4.78301
G1 X197.870 Y40.000 E4.92371
G1 X197.870 Y60.000 E6.74230
G1 X197.720 Y61.540 E6.88299
G1 X197.280 Y63.010 E7.02252
G1 X196.550 Y64.370 E7.16287
G1 X195.570 Y65.570 E7.30375
G1 X194.370 Y66.550 E7.44463
G1 X193.010 Y67.280 E7.58498
G1 X191.540 Y67.720 E7.72451
G1 X190.000 Y67.870 E7.86520
G1 X170.000 Y67.870 E9.68379
G1 X168.460 Y67.720 E9.82449
G1 X166.990 Y67.280 E9.96401
G1 X165.630 Y66.550 E10.10437
G1 X164.430 Y65.570 E10.24525
G1 X163.450 Y64.370 E10.38613
G1 X162.720 Y63.010 E10.52648
G1 X162.280 Y61.540 E10.66600
G1 X162.130 Y60.000 E10.80670
G1 X162.130 Y40.000 E12.62529
G1 X162.271 Y38.553 E12.75746
G1 X162.890 Y38.590 F7800.000
G1 X163.300 Y37.230 E12.88662 F540.000
G1 X163.970 Y35.970 E13.01639
G1 X164.870 Y34.870 E13.14562
G1 X165.970 Y33.970 E13.27486
G1 X167.230 Y33.300 E13.40462
G1 X168.590 Y32.890 E13.53378
G1 X170.000 Y32.750 E13.66262
G1 X190.000 Y32.750 E15.48121
G1 X191.410 Y32.890 E15.61005
G1 X192.770 Y33.300 E15.73921
G1 X194.030 Y33.970 E15.86898
G1 X195.130 Y34.870 E15.99821
G1 X196.030 Y35.970 E16.12745
G1 X196.700 Y37.230 E16.25721
G1 X197.110 Y38.590 E16.38637
G1 X197.250 Y40.000 E16.51521
G1 X197.250 Y60.000 E18.33380
G1 X197.110 Y61.410 E18.46264
G1 X196.700 Y62.770 E18.59181
G1 X196.030 Y64.030 E18.72157
G1 X195.130 Y65.130 E18.85080
G1 X194.030 Y66.030 E18.98004
G1 X192.770 Y66.700 E19.10980
G1 X191.410 Y67.110 E19.23896
G1 X190.000 Y67.250 E19.36780
G1 X170.000 Y67.250 E21.18640
G1 X168.590 Y67.110 E21.31524
G1 X167.230 Y66.700 E21.44440
G1 X165.970 Y66.030 E21.57416
G1 X164.870 Y65.130 E21.70340
G1 X163.970 Y64.030 E21.83263
G1 X163.300 Y62.770 E21.96239
G1 X162.890 Y61.410 E22.09155
G1 X162.750 Y60.000 E22.22040
G1 X162.750 Y40.000 E24.03899
G1 X162.881 Y38.683 E24.15930
G1 X163.500 Y38.710 F7800.000
G1 X163.880 Y37.460 E24.27810 F540.000
G1 X164.490 Y36.320 E24.39567
G1 X165.320 Y35.320 E24.51384
G1 X166.320 Y34.490 E24.63201
G1 X167.460 Y33.880 E24.74958
G1 X168.710 Y33.500 E24.86837
G1 X170.000 Y33.380 E24.98618
G1 X190.000 Y33.380 E26.80477
G1 X191.290 Y33.500 E26.92258
G1 X192.540 Y33.880 E27.04137
G1 X193.680 Y34.490 E27.15894
G1 X194.680 Y35.320 E27.27711
G1 X195.510 Y36.320 E27.39528
G1 X196.120 Y37.460 E27.51285
G1 X196.500 Y38.710 E27.63165
G1 X196.620 Y40.000 E27.74945
G1 X196.620 Y60.000 E29.56804
G1 X196.500 Y61.290 E29.68585
G1 X196.120 Y62.540 E29.80465
G1 X195.510 Y63.680 E29.92221
G1 X194.680 Y64.680 E30.04038
G1 X193.680 Y65.510 E30.15855
G1 X192.540 Y66.120 E30.27612
G1 X191.290 Y66.500 E30.39492
G1 X190.000 Y66.620 E30.51272
G1 X170.000 Y66.620 E32.33132
G1 X168.710 Y66.500 E32.44912
G1 X167.460 Y66.120 E32.56792
G1 X166.320 Y65.510 E32.68549
G1 X165.320 Y64.680 E32.80366
G1 X164.490 Y63.680 E32.92183
G1 X163.880 Y62.540 E33.03939
G1 X163.500 Y61.290 E33.15819
G1 X163.380 Y60.000 E33.27600
G1 X163.380 Y40.000 E35.09459
G1 X163.491 Y38.803 E35.20387
G1 F1800.000 E34.20387
G92 E0
G1 X174.153 Y46.379 F7800.000
G1 E1.00000 F1800.000
G1 X175.855 Y44.512 E1.22982 F540.000
G1 X178.118 Y43.385 E1.45964
G1 X180.635 Y43.152 E1.68946
G1 X183.066 Y43.844 E1.91929
G1 X185.083 Y45.367 E2.14911
G1 X186.413 Y47.516 E2.37893
G1 X186.877 Y50.000 E2.60875
G1 X186.413 Y52.484 E2.83857
G1 X185.083 Y54.633 E3.06840
G1 X183.066 Y56.156 E3.29822
G1 X180.635 Y56.848 E3.52804
G1 X178.118 Y56.615 E3.75786
G1 X175.855 Y55.488 E3.98768
G1 X174.153 Y53.621 E4.21751
G1 X173.240 Y51.264 E4.44733
G1 X173.240 Y48.736 E4.67715
G1 X174.119 Y46.467 E4.89845
G1 X174.693 Y46.714 F7800.000
G1 X176.238 Y45.019 E5.10703 F540.000
G1 X178.292 Y43.997 E5.31561
G1 X180.576 Y43.785 E5.52418
G1 X182.782 Y44.413 E5.73276
G1 X184.613 Y45.795 E5.94134
G1 X185.820 Y47.745 E6.14992
G1 X186.242 Y50.000 E6.35850
G1 X185.820 Y52.255 E6.56708
G1 X184.613 Y54.205 E6.77565
G1 X182.782 Y55.587 E6.98423
G1 X180.576 Y56.215 E7.19281
G1 X178.292 Y56.003 E7.40139
G1 X176.238 Y54.981 E7.60997
G1 X174.693 Y53.286 E7.81855
G1 X173.864 Y51.147 E8.02713
G1 X173.864 Y48.853 E8.23570
G1 X174.659 Y46.802 E8.43576
G1 X175.234 Y47.049 F7800.000
G1 X176.622 Y45.526 E8.62310 F540.000
G1 X178.466 Y44.608 E8.81043
G1 X180.517 Y44.418 E8.99777
G1 X182.499 Y44.982 E9.18510
G1 X184.143 Y46.223 E9.37244
G1 X185.227 Y47.975 E9.55977
G1 X185.606 Y50.000 E9.74711
G1 X185.227 Y52.025 E9.93444
G1 X184.143 Y53.777 E10.12178
G1 X182.499 Y55.018 E10.30911
G1 X180.517 Y55.582 E10.49645
G1 X178.466 Y55.392 E10.68378
G1 X176.622 Y54.474 E10.87112
G1 X175.234 Y52.951 E11.05845
G1 X174.489 Y51.030 E11.24579
G1 X174.489 Y48.970 E11.43312
G1 X175.200 Y47.136 E11.61193
G1 X174.972 Y46.481 F7800.000
G1 F1800.000 E10.61193
G92 E0
G1 X181.029 Y57.386 F7800.000
G1 E1.00000 F1800.000
G1 X183.349 Y56.726 E1.21931 F540.000
G1 X185.552 Y55.062 E1.47038
G1 X187.006 Y52.714 E1.72144
G1 X187.313 Y51.072 E1.87332
G1 X187.775 Y51.115 E1.91557
G1 X187.775 Y57.775 E2.52118
G1 X181.083 Y57.775 E3.12967
G1 X181.042 Y57.478 E3.15693
G1 F1800.000 E2.15693
G92 E0
G1 X187.313 Y48.928 F7800.000
G1 E1.00000 F1800.000
G1 X187.006 Y47.286 E1.15188 F540.000
G1 X185.552 Y44.938 E1.40295
G1 X183.349 Y43.274 E1.65401
G1 X181.029 Y42.614 E1.87332
G1 X181.083 Y42.225 E1.90911
G1 X187.775 Y42.225 E2.51759
G1 X187.775 Y48.885 E3.12321
G1 X187.406 Y48.919 E3.15693
G1 F1800.000 E2.15693
G92 E0
G1 X178.522 Y42.486 F7800.000
G1 E1.00000 F1800.000
G1 X175.472 Y44.004 E1.30977 F540.000
G1 X173.612 Y46.045 E1.56083
G1 X172.547 Y48.794 E1.82887
G1 X172.225 Y48.733 E1.85871
G1 X172.225 Y42.225 E2.45053
G1 X178.460 Y42.225 E3.01754
G1 X178.500 Y42.395 E3.03342
G1 F1800.000 E2.03342
G92 E0
G1 X172.547 Y51.206 F7800.000
G1 E1.00000 F1800.000
G1 X173.612 Y53.955 E1.26804 F540.000
G1 X175.472 Y55.996 E1.51911
G1 X178.522 Y57.514 E1.82887
G1 X178.460 Y57.775 E1.85327
G1 X172.225 Y57.775 E2.42028
G1 X172.225 Y51.267 E3.01210
G1 X172.455 Y51.224 E3.03342
G1 X171.600 Y58.400 F7800.000
G1 X171.600 Y41.600 E4.56108 F540.000
G1 X188.400 Y41.600 E6.08873
G1 X188.400 Y58.400 E7.61639
G1 X171.694 Y58.400 E9.13552
G1 X170.975 Y59.025 F7800.000
G1 X170.975 Y40.975 E10.77682 F540.000
G1 X189.025 Y40.975 E12.41812
G1 X189.025 Y59.025 E14.05942
G1 X171.069 Y59.025 E15.69220
G1 X170.350 Y59.650 F7800.000
G1 X170.350 Y40.350 E17.44714 F378.000
G1 X189.650 Y40.350 E19.20208
G1 X189.650 Y59.650 E20.95702
G1 X170.444 Y59.650 E22.70344
G1 X170.662 Y59.109 F7800.000
G1 X184.216 Y57.043 F7800.000
G1 X184.129 Y56.957 E22.71534 F1080.000
G1 X184.500 Y56.382 E22.78189
G1 X185.161 Y57.043 E22.87286
G1 X186.107 Y57.043 E22.96486
G1 X185.039 Y55.975 E23.11182
G1 X185.577 Y55.568 E23.17750
G1 X187.014 Y57.005 E23.37522
G1 X187.043 Y56.089 E23.46445
G1 X186.035 Y55.080 E23.60325
G1 X186.396 Y54.496 E23.67008
G1 X187.043 Y55.143 E23.75913
G1 X187.043 Y54.197 E23.85113
G1 X186.961 Y54.115 E23.86242
G1 X187.061 Y53.591 F7800.000
G1 X187.000 Y53.530 E23.86944 F360.000
G1 X187.351 Y53.089 E23.91533 F360.000
G1 X187.323 Y53.062 E23.91855 F360.000
G1 X187.517 Y50.466 F7800.000
G1 X187.438 Y50.387 E23.93153 F360.000
G1 X187.778 Y49.594 E24.03218 F360.000
G1 X187.701 Y49.517 E24.04486 F360.000
G1 X187.323 Y46.938 F7800.000
G1 X187.260 Y46.876 E24.05011 F360.000
G1 X187.343 Y46.384 E24.07963 F360.000
G1 X187.306 Y46.347 E24.08271 F360.000
G1 X183.683 Y42.698 F7800.000
G1 X183.635 Y42.650 E24.08801 F360.000
G1 X182.903 Y42.677 E24.14520 F360.000
G1 X182.942 Y42.716 E24.14951 F360.000
G1 X180.457 Y42.310 F7800.000
G1 X180.355 Y42.208 E24.17224 F360.000
G1 X179.160 Y42.544 E24.36771 F360.000
G1 X179.283 Y42.666 E24.39497 F360.000
G1 X178.775 Y42.882 F7800.000
G1 X178.764 Y42.871 E24.39567 F360.000
G1 X177.123 Y42.677 F7800.000
G1 X177.101 Y42.656 E24.39752 F360.000
G1 X176.738 Y42.892 E24.42429 F360.000
G1 X176.501 Y42.656 E24.44494 F360.000
G1 X176.293 Y43.048 E24.47233 F360.000
G1 X176.337 Y43.092 E24.47620 F360.000
G1 X172.941 Y46.525 F7800.000
G1 X172.954 Y46.538 E24.47709 F360.000
G1 X172.941 Y46.525 F7800.000
G1 X172.705 Y46.761 E24.49331 F360.000
G1 X172.822 Y46.878 E24.50136 F360.000
G1 X172.660 Y47.189 E24.51837 F360.000
G1 X172.677 Y47.206 E24.51952 F360.000
G1 X172.514 Y49.410 F7800.000
G1 X172.628 Y49.524 E24.54313 F360.000
G1 X172.212 Y50.535 E24.70384 F360.000
G1 X172.305 Y50.629 E24.72332 F360.000
G1 X172.715 Y53.249 F7800.000
G1 X172.941 Y53.475 E24.73703 F360.000
G1 X176.300 Y56.947 F7800.000
G1 X176.691 Y57.339 E24.76251 F360.000
G1 X177.087 Y57.288 E24.78091 F360.000
G1 X177.123 Y57.323 E24.78320 F360.000
G1 X176.244 Y57.339 F7800.000
G1 X176.215 Y57.310 E24.78509 F360.000
G1 X176.300 Y56.947 E24.80222 F360.000
G1 X178.764 Y57.129 F7800.000
G1 X178.781 Y57.146 E24.80327 F360.000
G1 X179.106 Y57.694 F7800.000
G1 X180.317 Y57.432 E24.99109 F360.000
G1 X180.436 Y57.550 E25.01656 F360.000
G1 X179.202 Y57.790 F7800.000
G1 X179.106 Y57.694 E25.03702 F360.000
G1 X182.903 Y57.323 F7800.000
G1 X183.240 Y57.210 E25.05350 F360.000
G1 X183.369 Y57.339 E25.06191 F360.000
G1 X183.579 Y57.099 E25.07669 F360.000
G1 X183.616 Y57.135 E25.07908 F360.000
G1 X182.919 Y57.339 F7800.000
G1 X182.903 Y57.323 E25.08013 F360.000
G1 X175.807 Y56.684 F7800.000
G1 X175.694 Y56.571 E25.09738 F1080.000
G1 X173.027 Y57.047 F7800.000
G1 X172.953 Y56.973 E25.10868 F1080.000
G1 X172.953 Y55.925 E25.22160
G1 X174.075 Y57.047 E25.39258
G1 X175.122 Y57.047 E25.50550
G1 X172.953 Y54.878 E25.83618
G1 X172.700 Y45.956 F7800.000
G1 X172.646 Y45.902 E25.84307 F1080.000
G1 X173.122 Y45.493 E25.90025
G1 X172.646 Y45.017 E25.96152
G1 X172.646 Y44.132 E26.04215
G1 X173.544 Y45.030 E26.15781
G1 X173.674 Y44.274 E26.22761
G1 X172.646 Y43.247 E26.36002
G1 X172.932 Y42.646 E26.42054
G1 X174.135 Y43.850 E26.57558
G1 X174.726 Y43.556 E26.63572
G1 X173.817 Y42.646 E26.75286
G1 X174.702 Y42.646 E26.83349
G1 X175.317 Y43.261 E26.91272
G1 X175.661 Y42.720 E26.97115
G1 X175.587 Y42.646 E26.98060
G1 X184.301 Y43.478 F7800.000
G1 X184.057 Y43.233 E27.02218 F1080.000
G1 X184.629 Y42.636 E27.12172
G1 X187.051 Y45.058 E27.53387
G1 X187.051 Y43.889 E27.67462
G1 X185.799 Y42.636 E27.88773
G1 X186.969 Y42.636 E28.02847
G1 X187.051 Y42.719 E28.04255
G1 F1800.000 E27.04255
G92 E0
G1 X176.821 Y46.254 F7800.000
G1 E1.00000 F1800.000
G1 X183.126 Y46.254 E1.57336 F1080.000
G1 X184.186 Y47.504 E1.72237
G1 X175.741 Y47.504 E2.49029
G1 X175.257 Y48.754 E2.61216
G1 X184.725 Y48.754 E3.47306
G1 X184.894 Y50.004 E3.58774
G1 X175.127 Y50.004 E4.47585
G1 X175.260 Y51.253 E4.59014
G1 X184.723 Y51.253 E5.45067
G1 X184.182 Y52.503 E5.57451
G1 X175.744 Y52.503 E6.34178
G1 X176.827 Y53.753 E6.49218
G1 X183.117 Y53.753 E7.06409
M106 S255
M104 S220 ; set temperature
G1 F1800.000 E6.06409
G92 E0
G1 Z0.600 F7800.000
G1 X184.189 Y55.609 F7800.000
G1 E1.00000 F1800.000
G1 X182.569 Y56.545 E1.06808 F1183.253
G1 X180.525 Y57.011 E1.14432
G1 X178.435 Y56.855 E1.22056
G1 X176.485 Y56.089 E1.29680
G1 X174.846 Y54.782 E1.37305
G1 X173.665 Y53.051 E1.44929
G1 X173.048 Y51.048 E1.52553
G1 X173.048 Y48.952 E1.60177
G1 X173.599 Y47.164 E1.66985
G1 X173.665 Y46.949 E1.67801
G1 X174.846 Y45.218 E1.75425
G1 X176.485 Y43.911 E1.83050
G1 X178.435 Y43.145 E1.90674
G1 X180.525 Y42.989 E1.98298
G1 X182.569 Y43.455 E2.05922
G1 X184.384 Y44.503 E2.13546
G1 X185.809 Y46.039 E2.21171
G1 X186.719 Y47.928 E2.28795
G1 X187.031 Y50.000 E2.36419
G1 X186.719 Y52.072 E2.44043
G1 X185.809 Y53.961 E2.51667
G1 X184.384 Y55.497 E2.59292
G1 X184.235 Y55.583 E2.59917
G1 X184.014 Y55.306 F7800.000
G1 X182.439 Y56.215 E2.66533 F828.277
G1 X180.499 Y56.658 E2.73773
G1 X178.514 Y56.510 E2.81014
G1 X176.662 Y55.782 E2.88254
G1 X175.105 Y54.541 E2.95494
G1 X173.984 Y52.897 E3.02735
G1 X173.398 Y50.995 E3.09975
G1 X173.398 Y49.005 E3.17216
G1 X173.934 Y47.267 E3.23831
G1 X173.984 Y47.103 E3.24456
G1 X175.105 Y45.459 E3.31696
G1 X176.662 Y44.218 E3.38937
G1 X178.514 Y43.490 E3.46177
G1 X180.499 Y43.342 E3.53418
G1 X182.439 Y43.785 E3.60658
G1 X184.163 Y44.780 E3.67898
G1 X185.517 Y46.239 E3.75139
G1 X186.380 Y48.032 E3.82379
G1 X186.677 Y50.000 E3.89619
G1 X186.380 Y51.968 E3.96860
G1 X185.517 Y53.761 E4.04100
G1 X184.163 Y55.220 E4.11341
G1 X184.060 Y55.280 E4.11774
G1 X184.014 Y55.656 F7800.000
G1 X189.475 Y59.475 F7800.000
G1 X170.525 Y59.475 E4.80711 F1183.253
G1 X170.525 Y40.525 E5.49648
G1 X189.475 Y40.525 E6.18585
G1 X189.475 Y59.422 E6.87330
G1 X189.825 Y59.825 F7800.000
G1 X170.175 Y59.825 E7.58814 F828.277
G1 X170.175 Y40.175 E8.30297
G1 X189.825 Y40.175 E9.01780
G1 X189.825 Y59.773 E9.73073
G1 X189.522 Y59.650 F7800.000
G1 X189.233 Y59.194 F7800.000
G1 X189.194 Y59.233 E9.73295 F2366.505
G1 X188.644 Y59.233 E9.75519
G1 X189.233 Y58.644 E9.78886
G1 X189.233 Y58.094 E9.81110
G1 X188.094 Y59.233 E9.87621
G1 X187.544 Y59.233 E9.89845
G1 X189.233 Y57.544 E9.99502
G1 X189.233 Y56.994 E10.01725
G1 X186.994 Y59.233 E10.14527
G1 X186.444 Y59.233 E10.16751
G1 X189.233 Y56.444 E10.32697
G1 X189.233 Y55.894 E10.34920
G1 X185.894 Y59.233 E10.54011
G1 X185.344 Y59.233 E10.56235
G1 X189.233 Y55.344 E10.78471
G1 X189.233 Y54.794 E10.80694
G1 X184.794 Y59.233 E11.06075
G1 X184.243 Y59.233 E11.08298
G1 X189.233 Y54.243 E11.36824
G1 X189.233 Y53.693 E11.39047
G1 X183.693 Y59.233 E11.70717
G1 X183.143 Y59.233 E11.72941
G1 X189.233 Y53.143 E12.07756
G1 X189.233 Y52.593 E12.09979
G1 X182.593 Y59.233 E12.47939
G1 X182.043 Y59.233 E12.50162
G1 X189.233 Y52.043 E12.91267
G1 X189.233 Y51.493 E12.93490
G1 X181.493 Y59.233 E13.37739
G1 X180.943 Y59.233 E13.39963
G1 X184.421 Y55.755 E13.59846
G1 X185.164 Y55.012 F7800.000
G1 X189.233 Y50.943 E13.83109 F2366.505
G1 X189.233 Y50.393 E13.85333
G1 X186.461 Y53.165 E14.01179
G1 X186.956 Y52.120 F7800.000
G1 X189.233 Y49.843 E14.14194 F2366.505
G1 X189.233 Y49.293 E14.16418
G1 X187.054 Y51.472 E14.28875
G1 X187.152 Y50.824 E14.31523
G1 X189.233 Y48.743 E14.43423
G1 X189.233 Y48.193 E14.45646
G1 X187.249 Y50.177 E14.56987
G1 X187.223 Y49.652 E14.59109
G1 X189.233 Y47.643 E14.70598
G1 X189.233 Y47.093 E14.72822
G1 X187.151 Y49.174 E14.84722
G1 X187.079 Y48.696 E14.86677
G1 X189.233 Y46.543 E14.98989
G1 X189.233 Y45.993 E15.01213
G1 X187.007 Y48.218 E15.13937
G1 X186.909 Y47.766 E15.15808
G1 X189.233 Y45.443 E15.29091
G1 X189.233 Y44.893 E15.31315
G1 X186.731 Y47.395 E15.45620
G1 X186.552 Y47.023 E15.47286
G1 X189.233 Y44.342 E15.62614
G1 X189.233 Y43.792 E15.64837
G1 X186.373 Y46.652 E15.81187
G1 X186.194 Y46.281 E15.82853
G1 X189.233 Y43.242 E16.00225
G1 X189.233 Y42.692 E16.02449
G1 X186.016 Y45.910 E16.20843
G1 X185.753 Y45.622 E16.22417
G1 X189.233 Y42.142 E16.42314
G1 X189.233 Y41.592 E16.44537
G1 X185.488 Y45.337 E16.65948
G1 X185.223 Y45.052 E16.67521
G1 X189.233 Y41.042 E16.90445
G1 X188.958 Y40.767 E16.92017
G1 X184.958 Y44.766 E17.14882
G1 X184.694 Y44.481 E17.16456
G1 X188.408 Y40.767 E17.37690
G1 X187.858 Y40.767 E17.39913
G1 X184.395 Y44.230 E17.59711
G1 X184.046 Y44.029 E17.61338
