; generated by Slic3r 1.0.0RC2 on 2014-01-11 at 17:43:44

; layer_height = 0.25
; perimeters = 1
; top_solid_layers = 5
; bottom_solid_layers = 3
; fill_density = 0.13
; perimeter_speed = 30
; infill_speed = 60
; travel_speed = 130
; nozzle_diameter = 0.35
; filament_diameter = 1.75
; extrusion_multiplier = 1
; perimeters extrusion width = 0.35mm
; infill extrusion width = 0.39mm
; solid infill extrusion width = 0.39mm
; top infill extrusion width = 0.39mm
; first layer extrusion width = 0.70mm

G21 ; set units to millimeters
M107
M104 S220 ; set temperature
G28 ; home all axes
G1 Z5 F5000 ; lift nozzle

M109 S220 ; wait for temperature to be reached
G90 ; use absolute coordinates
G92 E0
M82 ; use absolute distances for extrusion
G1 F1800.000 E-1.00000
G92 E0
G1 Z0.350 F7800.000
G1 X43.144 Y29.744 F7800.000
G1 E1.00000 F1800.000
G1 X44.164 Y28.644 E1.13641 F540.000
G1 X45.384 Y27.774 E1.27266
G1 X55.494 Y22.064 E2.32845
G1 X56.264 Y21.684 E2.40652
G1 X60.054 Y20.384 E2.77086
G1 X60.694 Y20.194 E2.83156
G1 X64.344 Y19.314 E3.17296
G1 X65.484 Y19.134 E3.27791
G1 X69.234 Y18.844 E3.61991
G1 X70.354 Y18.844 E3.72175
G1 X74.094 Y19.134 E4.06285
G1 X75.234 Y19.314 E4.16779
G1 X78.884 Y20.194 E4.50920
G1 X79.944 Y20.544 E4.61070
G1 X83.414 Y21.974 E4.95197
G1 X84.444 Y22.494 E5.05689
G1 X87.644 Y24.454 E5.39810
G1 X93.204 Y27.944 E5.99502
G1 X94.364 Y28.844 E6.12852
G1 X95.324 Y29.964 E6.26265
G1 X96.034 Y31.254 E6.39654
G1 X99.394 Y39.194 E7.18051
G1 X99.644 Y39.894 E7.24810
G1 X101.564 Y46.154 E7.84349
G1 X101.764 Y46.954 E7.91847
G1 X101.864 Y47.774 E7.99359
G1 X101.984 Y49.484 E8.14946
G1 X101.984 Y50.494 E8.24130
G1 X101.744 Y53.954 E8.55667
G1 X101.604 Y54.994 E8.65209
G1 X100.784 Y58.774 E9.00380
G1 X97.754 Y69.934 E10.05531
G1 X97.274 Y71.204 E10.17876
G1 X96.564 Y72.364 E10.30243
G1 X95.664 Y73.374 E10.42544
G1 X94.574 Y74.194 E10.54947
G1 X93.364 Y74.794 E10.67228
G1 X85.634 Y77.764 E11.42526
G1 X79.294 Y79.694 E12.02787
G1 X75.214 Y80.674 E12.40942
G1 X74.114 Y80.854 E12.51077
G1 X70.374 Y81.154 E12.85194
G1 X69.214 Y81.154 E12.95742
G1 X65.464 Y80.854 E13.29949
G1 X64.604 Y80.734 E13.37845
G1 X56.704 Y79.134 E14.11138
G1 X55.894 Y78.914 E14.18770
G1 X55.114 Y78.604 E14.26402
G1 X46.454 Y74.614 E15.13103
G1 X45.174 Y73.864 E15.26593
G1 X44.084 Y72.864 E15.40043
G1 X43.214 Y71.664 E15.53521
G1 X42.604 Y70.314 E15.66991
G1 X39.364 Y60.534 E16.60674
G1 X38.404 Y57.184 E16.92361
G1 X38.194 Y56.184 E17.01652
G1 X38.054 Y55.174 E17.10924
G1 X37.984 Y54.254 E17.19314
G1 X38.034 Y53.324 E17.27782
G1 X38.964 Y45.404 E18.00293
G1 X39.094 Y44.634 E18.07394
G1 X41.884 Y32.464 E19.20926
G1 X42.374 Y31.044 E19.34585
G1 X43.096 Y29.825 E19.47472
G1 X43.644 Y30.124 F7800.000
G1 X44.574 Y29.114 E19.59956 F540.000
G1 X45.694 Y28.314 E19.72471
G1 X55.804 Y22.604 E20.78050
G1 X56.504 Y22.264 E20.85126
G1 X60.254 Y20.974 E21.21186
G1 X60.844 Y20.804 E21.26769
G1 X64.494 Y19.924 E21.60909
G1 X65.534 Y19.754 E21.70491
G1 X69.284 Y19.464 E22.04692
G1 X70.304 Y19.464 E22.13967
G1 X74.044 Y19.754 E22.48076
G1 X75.084 Y19.924 E22.57659
G1 X78.734 Y20.804 E22.91799
G1 X79.704 Y21.114 E23.01058
G1 X83.174 Y22.544 E23.35185
G1 X84.114 Y23.024 E23.44783
G1 X87.314 Y24.984 E23.78904
G1 X92.874 Y28.474 E24.38596
G1 X93.934 Y29.294 E24.50782
G1 X94.804 Y30.324 E24.63041
G1 X95.454 Y31.504 E24.75291
G1 X98.814 Y39.444 E25.53688
G1 X99.044 Y40.084 E25.59872
G1 X100.964 Y46.344 E26.19411
G1 X101.144 Y47.074 E26.26247
G1 X101.244 Y47.824 E26.33127
G1 X101.364 Y49.534 E26.48715
G1 X101.364 Y50.454 E26.57080
G1 X101.124 Y53.914 E26.88617
G1 X100.994 Y54.864 E26.97336
G1 X100.264 Y58.264 E27.28957
G1 X97.144 Y69.774 E28.37394
G1 X96.574 Y71.204 E28.51392
G1 X95.674 Y72.474 E28.65545
G1 X94.514 Y73.494 E28.79591
G1 X93.144 Y74.214 E28.93664
G1 X85.914 Y77.004 E29.64131
G1 X85.454 Y77.164 E29.68560
G1 X79.114 Y79.094 E30.28821
G1 X75.074 Y80.064 E30.66601
G1 X74.064 Y80.224 E30.75899
G1 X70.324 Y80.524 E31.10016
G1 X69.264 Y80.524 E31.19654
G1 X65.514 Y80.224 E31.53862
G1 X64.724 Y80.114 E31.61115
G1 X56.824 Y78.514 E32.34408
G1 X56.084 Y78.324 E32.41355
G1 X55.374 Y78.044 E32.48295
G1 X46.714 Y74.054 E33.34996
G1 X45.544 Y73.364 E33.47347
G1 X44.544 Y72.454 E33.59641
G1 X43.754 Y71.354 E33.71955
G1 X43.194 Y70.124 E33.84244
G1 X39.964 Y60.364 E34.77725
G1 X39.004 Y57.014 E35.09413
G1 X38.814 Y56.094 E35.17955
G1 X38.674 Y55.084 E35.27227
G1 X38.614 Y54.244 E35.34884
G1 X38.654 Y53.404 E35.42531
G1 X39.584 Y45.484 E36.15042
G1 X39.704 Y44.774 E36.21590
G1 X42.494 Y32.604 E37.35122
G1 X42.944 Y31.304 E37.47631
G1 X43.596 Y30.205 E37.59254
G1 F1800.000 E36.59254
G92 E0
G1 X68.417 Y48.998 F7800.000
G1 E1.00000 F1800.000
G1 X70.323 Y48.378 E1.18226 F540.000
G1 X71.501 Y50.000 E1.36451
G1 X70.323 Y51.622 E1.54677
G1 X68.417 Y51.002 E1.72903
G1 X68.417 Y49.092 E1.90277
G1 X69.042 Y49.452 F7800.000
G1 X70.084 Y49.113 E2.00246 F540.000
G1 X70.729 Y50.000 E2.10215
G1 X70.084 Y50.887 E2.20184
G1 X69.042 Y50.548 E2.30153
G1 X69.042 Y49.546 E2.39270
G1 F1800.000 E1.39270
G92 E0
G1 X49.936 Y38.624 F7800.000
G1 E1.00000 F1800.000
G1 X49.936 Y38.027 E1.05426 F540.000
G1 X53.570 Y33.773 E1.56298
G1 X56.308 Y31.435 E1.89042
G1 X59.235 Y29.641 E2.20261
G1 X59.293 Y29.558 E2.21177
G1 X59.559 Y29.340 E2.24305
G1 X59.717 Y29.413 E2.25890
G1 X62.705 Y28.175 E2.55295
G1 X66.206 Y27.334 E2.88039
G1 X69.796 Y27.052 E3.20782
G1 X73.386 Y27.334 E3.53526
G1 X76.888 Y28.175 E3.86269
G1 X80.214 Y29.553 E4.19013
G1 X83.285 Y31.435 E4.51756
G1 X86.023 Y33.773 E4.84500
G1 X87.128 Y35.066 E4.99964
G1 X88.383 Y35.066 E5.11379
G1 X88.383 Y36.546 E5.24834
G1 X90.243 Y39.582 E5.57207
G1 X91.196 Y41.883 E5.79856
G1 X91.588 Y42.095 E5.83909
G1 X91.775 Y42.229 E5.85999
G1 X91.711 Y42.602 E5.89441
G1 X91.679 Y43.150 E5.94432
G1 X92.462 Y46.410 E6.24917
G1 X92.556 Y47.607 E6.35836
G1 X92.984 Y48.137 E6.42023
G1 X93.217 Y48.363 E6.44980
G1 X93.697 Y48.775 E6.50731
G1 X93.793 Y50.153 E6.63289
G1 X93.461 Y50.292 E6.66567
G1 X93.206 Y50.458 E6.69338
G1 X92.982 Y50.675 E6.72167
G1 X92.796 Y50.944 E6.75147
G1 X92.638 Y51.357 E6.79168
G1 X92.493 Y53.193 E6.95913
G1 X93.527 Y53.445 E7.05585
G1 X92.853 Y56.612 E7.35024
G1 X91.709 Y59.756 E7.65452
G1 X90.999 Y61.091 E7.79194
G1 X89.786 Y61.554 E7.91008
G1 X89.786 Y67.065 E8.41114
G1 X88.756 Y67.065 E8.50475
G1 X88.756 Y64.812 E8.70957
G1 X86.736 Y66.904 E8.97400
G1 X86.390 Y66.806 E9.00673
G1 X86.125 Y66.140 E9.07195
G1 X83.518 Y68.366 E9.38371
G1 X83.671 Y68.578 E9.40747
G1 X83.530 Y68.822 E9.43312
G1 X83.414 Y69.310 E9.47872
G1 X82.748 Y68.894 E9.55011
G1 X80.214 Y70.447 E9.82032
G1 X76.888 Y71.825 E10.14776
G1 X73.386 Y72.666 E10.47520
G1 X69.796 Y72.948 E10.80263
G1 X66.206 Y72.666 E11.13007
G1 X62.705 Y71.825 E11.45750
G1 X60.077 Y70.737 E11.71612
G1 X59.996 Y70.755 E11.72370
G1 X59.864 Y70.648 E11.73914
G1 X59.378 Y70.447 E11.78698
G1 X56.308 Y68.565 E12.11441
G1 X53.751 Y66.382 E12.42015
G1 X53.596 Y67.612 E12.53289
G1 X52.989 Y67.065 E12.60728
G1 X50.467 Y67.065 E12.83653
G1 X50.467 Y64.221 E13.09506
G1 X48.617 Y61.261 E13.41248
G1 X47.256 Y58.204 E13.71677
G1 X46.334 Y54.987 E14.02106
G1 X46.291 Y54.680 E14.04928
G1 X47.181 Y54.228 E14.14003
G1 X46.848 Y50.000 E14.52571
G1 X47.131 Y46.410 E14.85315
G1 X47.971 Y42.909 E15.18058
G1 X49.349 Y39.582 E15.50802
G1 X49.887 Y38.704 E15.60161
G1 X49.311 Y38.448 F7800.000
G1 X49.311 Y34.442 E15.96592 F378.000
G1 X50.788 Y34.442 E16.10023
G1 X50.788 Y36.068 E16.24808
G1 X53.126 Y33.330 E16.57543
G1 X55.939 Y30.927 E16.91181
G1 X58.799 Y29.175 E17.21676
G1 X58.834 Y29.125 E17.22239
G1 X59.096 Y28.916 E17.25284
G1 X59.255 Y28.726 E17.27535
G1 X59.390 Y28.722 E17.28759
G1 X59.615 Y28.678 E17.30844
G1 X59.730 Y28.731 E17.31997
G1 X62.511 Y27.579 E17.59368
G1 X66.108 Y26.715 E17.93006
G1 X69.796 Y26.425 E18.26644
G1 X73.484 Y26.715 E18.60282
G1 X77.081 Y27.579 E18.93920
G1 X80.499 Y28.995 E19.27558
G1 X83.653 Y30.927 E19.61196
G1 X86.466 Y33.330 E19.94834
G1 X87.416 Y34.442 E20.08125
G1 X89.008 Y34.442 E20.22603
G1 X89.008 Y36.370 E20.40138
G1 X90.802 Y39.297 E20.71356
G1 X91.689 Y41.439 E20.92435
G1 X91.921 Y41.564 E20.94832
G1 X92.101 Y41.694 E20.96853
G1 X92.218 Y41.825 E20.98448
G1 X92.402 Y42.174 E21.02040
G1 X92.398 Y42.301 E21.03191
G1 X92.330 Y42.687 E21.06758
G1 X92.306 Y43.083 E21.10367
G1 X93.081 Y46.312 E21.40563
G1 X93.164 Y47.373 E21.50236
G1 X93.437 Y47.706 E21.54152
G1 X93.642 Y47.905 E21.56749
G1 X94.302 Y48.464 E21.64609
G1 X94.409 Y50.000 E21.78614
G1 X94.359 Y50.714 E21.85122
G1 X93.985 Y50.750 E21.88542
G1 X93.755 Y50.846 E21.90813
G1 X93.597 Y50.949 E21.92525
G1 X93.461 Y51.080 E21.94241
G1 X93.353 Y51.238 E21.95977
G1 X93.253 Y51.497 E21.98500
G1 X93.158 Y52.712 E22.09584
G1 X94.202 Y52.966 E22.19354
G1 X94.170 Y53.425 E22.23541
G1 X93.456 Y56.784 E22.54765
G1 X92.281 Y60.011 E22.85988
G1 X91.387 Y61.692 E23.03300
G1 X91.075 Y61.731 E23.06162
G1 X90.411 Y61.984 E23.12629
G1 X90.411 Y67.689 E23.64506
G1 X88.131 Y67.689 E23.85230
G1 X88.131 Y66.359 E23.97331
G1 X86.823 Y67.713 E24.14454
G1 X86.561 Y67.504 E24.17508
G1 X86.349 Y67.444 E24.19506
G1 X85.989 Y67.490 E24.22808
G1 X85.867 Y67.182 E24.25825
G1 X84.362 Y68.467 E24.43818
G1 X84.449 Y68.587 E24.45166
G1 X84.217 Y68.882 E24.48577
G1 X84.117 Y69.056 E24.50399
G1 X84.066 Y69.270 E24.52401
G1 X84.111 Y69.482 E24.54372
G1 X84.279 Y69.843 E24.57993
G1 X83.611 Y70.365 E24.65703
G1 X83.358 Y70.074 E24.69208
G1 X82.978 Y69.774 E24.73612
G1 X82.745 Y69.629 E24.76104
G1 X80.499 Y71.005 E25.00057
G1 X77.081 Y72.421 E25.33695
G1 X73.484 Y73.285 E25.67333
G1 X69.796 Y73.575 E26.00971
G1 X66.108 Y73.285 E26.34609
G1 X62.511 Y72.421 E26.68246
G1 X60.022 Y71.390 E26.92744
G1 X59.952 Y71.406 E26.93402
G1 X59.801 Y71.397 E26.94778
G1 X59.541 Y71.191 E26.97793
G1 X59.093 Y71.005 E27.02199
G1 X55.939 Y69.073 E27.35837
G1 X54.227 Y67.610 E27.56317
G1 X54.067 Y68.877 E27.67930
G1 X52.749 Y67.689 E27.84067
G1 X49.842 Y67.689 E28.10493
G1 X49.842 Y64.401 E28.40398
G1 X48.064 Y61.555 E28.70909
G1 X46.668 Y58.418 E29.02133
G1 X45.721 Y55.117 E29.33356
G1 X45.613 Y54.348 E29.40420
G1 X46.525 Y53.860 E29.49825
G1 X46.221 Y50.000 E29.85035
G1 X46.512 Y46.312 E30.18673
G1 X47.375 Y42.715 E30.52311
G1 X48.791 Y39.297 E30.85949
G1 X49.262 Y38.528 E30.94152
G1 X54.537 Y69.454 F7800.000
G1 X54.801 Y69.393 E30.96617 F378.000
G1 X54.593 Y68.741 E31.02840
G1 X54.801 Y69.393 F7800.000
G1 X55.204 Y69.643 E31.07158 F378.000
G1 X55.380 Y69.307 E31.10607
G1 X55.204 Y69.643 F7800.000
G1 X55.692 Y69.921 E31.15708 F378.000
G1 X55.851 Y69.463 E31.20117
G1 X55.692 Y69.921 F7800.000
G1 X56.115 Y70.201 E31.24733 F378.000
G1 X56.435 Y69.986 E31.28238
G1 X56.714 Y70.129 F7800.000
G1 X56.688 Y70.563 E31.32190 F378.000
G1 X56.115 Y70.201 E31.38351
G1 X56.361 Y70.832 F7800.000
G1 X57.662 Y71.248 E31.50772 F378.000
G1 X58.343 Y71.312 E31.56994
G1 X58.378 Y71.295 F7800.000
G1 X58.455 Y71.470 E31.58730 F378.000
G1 X57.910 Y71.325 F7800.000
G1 X57.734 Y71.209 E31.60652 F378.000
G1 X57.710 Y71.234 F7800.000
G1 X56.688 Y70.563 E31.71772 F378.000
G1 F1800.000 E30.71772
G92 E0
G1 X93.659 Y52.318 F7800.000
G1 E1.00000 F1800.000
G1 X94.017 Y52.246 E1.03318 F378.000
G1 X94.016 Y52.245 F7800.000
G1 X94.284 Y52.244 E1.05758 F378.000
G1 X94.172 Y52.315 F7800.000
G1 X94.427 Y52.529 E1.08788 F378.000
G1 X92.861 Y53.717 F7800.000
G1 X93.007 Y53.863 E1.10666 F1080.000
G1 X92.852 Y54.592 E1.17452
G1 X66.062 Y27.803 E4.62222
G1 X65.349 Y27.974 E4.68897
G1 X92.697 Y55.321 E8.20851
G1 X92.541 Y56.051 E8.27637
G1 X64.636 Y28.145 E11.86775
G1 X63.923 Y28.316 E11.93450
G1 X92.355 Y56.749 E15.59364
G1 X92.119 Y57.397 E15.65644
G1 X63.209 Y28.488 E19.37699
G1 X62.538 Y28.701 E19.44110
G1 X91.883 Y58.045 E23.21769
G1 X91.647 Y58.694 E23.28049
G1 X61.913 Y28.960 E27.10719
G1 X61.287 Y29.219 E27.16879
G1 X91.411 Y59.342 E31.04561
G1 X91.130 Y59.946 E31.10621
G1 X60.662 Y29.478 E35.02741
G1 X60.036 Y29.737 E35.08901
G1 X90.713 Y60.414 E39.03705
G1 X90.073 Y60.658 E39.09939
G1 X59.431 Y30.016 E43.04304
G1 X58.882 Y30.352 E43.10157
G1 X89.433 Y60.903 E47.03343
G1 X89.052 Y61.405 E47.09087
G1 X58.334 Y30.688 E51.04416
G1 X57.785 Y31.024 E51.10269
G1 X89.052 Y62.290 E55.12655
G1 X89.052 Y63.174 E55.20704
G1 X57.237 Y31.360 E59.30148
G1 X56.689 Y31.696 E59.36001
G1 X88.752 Y63.759 E63.48652
G1 X88.318 Y64.209 E63.54344
G1 X56.194 Y32.086 E67.67763
G1 X55.717 Y32.493 E67.73472
G1 X87.883 Y64.659 E71.87439
G1 X87.442 Y65.103 E71.93130
G1 X71.180 Y48.841 E74.02417
G1 X70.287 Y47.947 F7800.000
G1 X55.240 Y32.901 E75.96056 F1080.000
G1 X54.763 Y33.308 E76.01765
G1 X69.619 Y48.164 E77.92952
G1 X68.951 Y48.381 E77.99340
G1 X54.286 Y33.716 E79.88075
G1 X53.836 Y34.150 E79.93767
G1 X68.284 Y48.598 E81.79709
G1 X67.995 Y49.193 E81.85733
G1 X53.411 Y34.609 E83.73431
G1 X53.003 Y35.086 E83.79140
G1 X67.995 Y50.078 E85.72082
G1 F1800.000 E84.72082
G92 E0
G1 X71.784 Y50.329 F7800.000
G1 E1.00000 F1800.000
G1 X87.000 Y65.545 E2.95828 F1080.000
G1 X86.558 Y65.987 E3.01519
G1 X71.412 Y50.841 E4.96445
G1 X71.039 Y51.353 E5.02207
G1 X85.665 Y65.978 E6.90428
G1 X85.188 Y66.386 E6.96137
G1 X70.667 Y51.865 E8.83008
G1 X69.819 Y51.901 E8.90739
G1 X84.710 Y66.793 E10.82395
G1 X84.233 Y67.200 E10.88104
G1 X52.596 Y35.563 E14.95273
G1 X52.188 Y36.040 E15.00981
G1 X83.756 Y67.608 E19.07255
G1 X83.279 Y68.015 E19.12963
G1 X51.781 Y36.517 E23.18341
G1 X51.374 Y36.994 E23.24050
G1 X82.802 Y68.423 E27.28531
G1 X82.219 Y68.724 E27.34505
G1 X50.966 Y37.471 E31.36723
G1 X50.559 Y37.948 E31.42432
G1 X81.671 Y69.060 E35.42836
G1 X81.122 Y69.396 E35.48689
G1 X50.358 Y38.631 E39.44620
G1 X50.064 Y39.222 E39.50624
G1 X80.574 Y69.732 E43.43276
G1 X80.026 Y70.068 E43.49129
G1 X49.728 Y39.771 E47.39048
G1 X49.469 Y40.396 E47.45206
G1 X79.401 Y70.328 E51.30421
G1 X78.775 Y70.587 E51.36581
G1 X49.210 Y41.021 E55.17082
G1 X48.951 Y41.646 E55.23242
G1 X78.150 Y70.846 E58.99027
G1 X77.524 Y71.105 E59.05188
G1 X48.692 Y42.272 E62.76259
G1 X48.433 Y42.897 E62.82419
G1 X76.899 Y71.364 E66.48775
G1 X76.206 Y71.555 E66.55320
G1 X48.241 Y43.590 E70.15215
G1 X48.070 Y44.304 E70.21890
G1 X75.493 Y71.726 E73.74809
G1 X74.779 Y71.897 E73.81484
G1 X47.899 Y45.017 E77.27428
G1 X47.728 Y45.730 E77.34103
G1 X74.066 Y72.069 E80.73072
G1 X73.353 Y72.240 E80.79746
G1 X47.556 Y46.443 E84.11740
G1 X47.487 Y47.258 E84.19183
G1 X72.538 Y72.309 E87.41582
G1 X71.718 Y72.374 E87.49066
G1 X47.422 Y48.078 E90.61743
G1 X47.358 Y48.898 E90.69228
G1 X70.898 Y72.438 E93.72184
G1 X70.078 Y72.503 E93.79668
G1 X47.293 Y49.718 E96.72902
G1 X47.321 Y50.630 E96.81204
G1 X69.166 Y72.475 E99.62351
G1 X68.206 Y72.400 E99.71114
G1 X47.396 Y51.590 E102.38934
G1 X47.472 Y52.550 E102.47698
G1 X67.246 Y72.324 E105.02190
G1 X66.286 Y72.249 E105.10953
G1 X47.547 Y53.510 E107.52118
G1 X47.623 Y54.470 E107.60882
G1 X65.125 Y71.972 E109.86134
G1 X63.962 Y71.693 E109.97026
G1 X47.041 Y54.772 E112.14790
G1 X46.934 Y55.550 E112.21932
G1 X62.787 Y71.402 E114.25950
G1 X61.277 Y70.777 F7800.000
G1 X47.290 Y56.790 E116.05960 F1080.000
G1 X47.645 Y58.030 E116.17700
G1 X59.767 Y70.152 E117.73703
G1 X57.584 Y68.853 F7800.000
G1 X48.347 Y59.616 E118.92583 F1080.000
G1 X49.127 Y61.280 F7800.000
G1 X53.426 Y65.580 E119.47917 F1080.000
G1 X53.328 Y66.366 E119.55125
G1 X50.600 Y63.638 E119.90230
G1 X50.889 Y64.811 E120.01229
G1 X52.721 Y66.643 E120.24798
G1 X51.836 Y66.643 E120.32847
G1 X50.889 Y65.696 E120.45034
G1 X50.889 Y66.580 E120.53083
G1 X50.952 Y66.643 E120.53888
G1 X92.090 Y52.946 F7800.000
G1 X66.851 Y27.707 E123.78704 F1080.000
G1 X67.671 Y27.642 E123.86188
G1 X92.154 Y52.126 E127.01283
G1 X92.219 Y51.306 E127.08767
G1 X68.491 Y27.578 E130.14140
G1 X69.310 Y27.513 E130.21625
G1 X92.471 Y50.673 E133.19689
G1 X92.874 Y50.192 E133.25402
G1 X70.187 Y27.506 E136.17371
G1 X71.147 Y27.581 E136.26134
G1 X93.344 Y49.778 E139.11803
G1 X92.139 Y47.689 F7800.000
G1 X72.107 Y27.657 E141.69609 F1080.000
G1 X73.067 Y27.732 E141.78372
G1 X92.064 Y46.729 E144.22850
G1 X91.838 Y45.619 E144.33160
G1 X74.178 Y27.958 E146.60444
G1 X75.342 Y28.238 E146.71336
G1 X91.559 Y44.455 E148.80045
G1 X91.279 Y43.291 E148.90937
