; generated by Slic3r 1.0.0RC2 on 2014-01-13 at 14:27:14

; layer_height = 0.25
; perimeters = 1
; top_solid_layers = 5
; bottom_solid_layers = 3
; fill_density = 0.12
; perimeter_speed = 30
; infill_speed = 60
; travel_speed = 130
; nozzle_diameter = 0.35
; filament_diameter = 1.75
; extrusion_multiplier = 1
; perimeters extrusion width = 0.35mm
; infill extrusion width = 0.39mm
; solid infill extrusion width = 0.39mm
; top infill extrusion width = 0.39mm
; first layer extrusion width = 0.70mm

G21 ; set units to millimeters
M107
M104 S220 ; set temperature
G28 ; home all axes
G1 Z5 F5000 ; lift nozzle

M109 S220 ; wait for temperature to be reached
G90 ; use absolute coordinates
G92 E0
M82 ; use absolute distances for extrusion
G1 F1800.000 E-1.00000
G92 E0
G1 Z0.350 F7800.000
G1 X186.884 Y62.464 F7800.000
G1 E1.00000 F1800.000
G1 X187.374 Y61.044 E1.13659 F540.000
G1 X188.144 Y59.744 E1.27398
G1 X189.164 Y58.644 E1.41039
G1 X190.384 Y57.774 E1.54664
G1 X200.494 Y52.064 E2.60242
G1 X201.264 Y51.684 E2.68050
G1 X205.054 Y50.384 E3.04483
G1 X205.694 Y50.194 E3.10554
G1 X209.344 Y49.314 E3.44694
G1 X210.484 Y49.134 E3.55189
G1 X214.234 Y48.844 E3.89389
G1 X215.354 Y48.844 E3.99573
G1 X219.094 Y49.134 E4.33683
G1 X220.234 Y49.314 E4.44177
G1 X223.884 Y50.194 E4.78318
G1 X224.944 Y50.544 E4.88468
G1 X228.414 Y51.974 E5.22595
G1 X229.444 Y52.494 E5.33086
G1 X232.644 Y54.454 E5.67208
G1 X238.204 Y57.944 E6.26900
G1 X239.364 Y58.844 E6.40250
G1 X240.324 Y59.964 E6.53663
G1 X241.034 Y61.254 E6.67052
G1 X244.394 Y69.194 E7.45449
G1 X244.644 Y69.894 E7.52208
G1 X246.564 Y76.154 E8.11747
G1 X246.764 Y76.954 E8.19245
G1 X246.864 Y77.774 E8.26756
G1 X246.984 Y79.484 E8.42344
G1 X246.984 Y80.494 E8.51528
G1 X246.744 Y83.954 E8.83065
G1 X246.604 Y84.994 E8.92607
G1 X245.874 Y88.394 E9.24227
G1 X242.754 Y99.934 E10.32928
G1 X242.274 Y101.204 E10.45273
G1 X241.564 Y102.364 E10.57640
G1 X240.664 Y103.374 E10.69941
G1 X239.574 Y104.194 E10.82344
G1 X238.364 Y104.794 E10.94624
G1 X230.634 Y107.764 E11.69923
G1 X224.294 Y109.694 E12.30184
G1 X220.214 Y110.674 E12.68338
G1 X219.114 Y110.854 E12.78474
G1 X215.374 Y111.154 E13.12591
G1 X214.214 Y111.154 E13.23138
G1 X210.464 Y110.854 E13.57346
G1 X209.604 Y110.734 E13.65242
G1 X201.704 Y109.134 E14.38535
G1 X200.894 Y108.914 E14.46167
G1 X200.114 Y108.604 E14.53799
G1 X191.454 Y104.614 E15.40500
G1 X190.174 Y103.864 E15.53990
G1 X189.084 Y102.864 E15.67440
G1 X188.214 Y101.664 E15.80918
G1 X187.604 Y100.314 E15.94388
G1 X184.364 Y90.534 E16.88070
G1 X183.404 Y87.184 E17.19758
G1 X183.194 Y86.184 E17.29049
G1 X183.054 Y85.174 E17.38321
G1 X182.984 Y84.254 E17.46711
G1 X183.034 Y83.324 E17.55179
G1 X183.964 Y75.404 E18.27690
G1 X184.094 Y74.634 E18.34791
G1 X186.863 Y62.555 E19.47471
G1 X187.494 Y62.604 F7800.000
G1 X187.944 Y61.304 E19.59980 F540.000
G1 X188.644 Y60.124 E19.72455
G1 X189.574 Y59.114 E19.84939
G1 X190.694 Y58.314 E19.97455
G1 X200.804 Y52.604 E21.03033
G1 X201.504 Y52.264 E21.10110
G1 X201.994 Y52.084 E21.14856
G1 X205.254 Y50.974 E21.46171
G1 X205.844 Y50.804 E21.51754
G1 X209.494 Y49.924 E21.85894
G1 X210.534 Y49.754 E21.95476
G1 X214.284 Y49.464 E22.29676
G1 X215.304 Y49.464 E22.38951
G1 X219.044 Y49.754 E22.73061
G1 X220.084 Y49.924 E22.82643
G1 X223.734 Y50.804 E23.16784
G1 X224.704 Y51.114 E23.26043
G1 X228.174 Y52.544 E23.60170
G1 X229.114 Y53.024 E23.69767
G1 X232.314 Y54.984 E24.03889
G1 X237.874 Y58.474 E24.63580
G1 X238.934 Y59.294 E24.75766
G1 X239.804 Y60.324 E24.88026
G1 X240.454 Y61.504 E25.00276
G1 X243.814 Y69.444 E25.78672
G1 X244.044 Y70.084 E25.84856
G1 X245.964 Y76.344 E26.44395
G1 X246.144 Y77.074 E26.51232
G1 X246.244 Y77.824 E26.58112
G1 X246.364 Y79.534 E26.73699
G1 X246.364 Y80.454 E26.82065
G1 X246.124 Y83.914 E27.13602
G1 X245.994 Y84.864 E27.22321
G1 X245.264 Y88.264 E27.53941
G1 X242.144 Y99.774 E28.62378
G1 X241.574 Y101.204 E28.76376
G1 X240.674 Y102.474 E28.90530
G1 X239.514 Y103.494 E29.04576
G1 X238.144 Y104.214 E29.18649
G1 X230.914 Y107.004 E29.89116
G1 X230.454 Y107.164 E29.93544
G1 X224.114 Y109.094 E30.53806
G1 X220.074 Y110.064 E30.91585
G1 X219.064 Y110.224 E31.00884
G1 X215.324 Y110.524 E31.35001
G1 X214.264 Y110.524 E31.44639
G1 X210.514 Y110.224 E31.78847
G1 X209.724 Y110.114 E31.86099
G1 X201.824 Y108.514 E32.59392
G1 X201.084 Y108.324 E32.66339
G1 X200.374 Y108.044 E32.73279
G1 X191.714 Y104.054 E33.59980
G1 X190.544 Y103.364 E33.72331
G1 X189.544 Y102.454 E33.84626
G1 X188.754 Y101.354 E33.96940
G1 X188.194 Y100.124 E34.09229
G1 X184.964 Y90.364 E35.02710
G1 X184.004 Y87.014 E35.34398
G1 X183.814 Y86.094 E35.42940
G1 X183.674 Y85.084 E35.52211
G1 X183.614 Y84.244 E35.59869
G1 X183.654 Y83.404 E35.67516
G1 X184.584 Y75.484 E36.40027
G1 X184.704 Y74.774 E36.46574
G1 X187.473 Y62.695 E37.59254
G1 F1800.000 E36.59254
G92 E0
G1 X213.417 Y78.998 F7800.000
G1 E1.00000 F1800.000
G1 X215.323 Y78.378 E1.18226 F540.000
G1 X216.501 Y80.000 E1.36451
G1 X215.323 Y81.622 E1.54677
G1 X213.417 Y81.002 E1.72903
G1 X213.417 Y79.092 E1.90277
G1 X214.042 Y79.452 F7800.000
G1 X215.084 Y79.113 E2.00246 F540.000
G1 X215.729 Y80.000 E2.10215
G1 X215.084 Y80.887 E2.20184
G1 X214.042 Y80.548 E2.30153
G1 X214.042 Y79.546 E2.39270
G1 F1800.000 E1.39270
G92 E0
G1 X194.936 Y68.624 F7800.000
G1 E1.00000 F1800.000
G1 X194.936 Y68.027 E1.05426 F540.000
G1 X198.570 Y63.773 E1.56298
G1 X201.308 Y61.435 E1.89042
G1 X204.235 Y59.641 E2.20261
G1 X204.293 Y59.558 E2.21177
G1 X204.559 Y59.340 E2.24305
G1 X204.717 Y59.413 E2.25890
G1 X207.705 Y58.175 E2.55295
G1 X211.206 Y57.334 E2.88039
G1 X214.796 Y57.052 E3.20782
G1 X218.386 Y57.334 E3.53526
G1 X221.888 Y58.175 E3.86269
G1 X225.214 Y59.553 E4.19013
G1 X228.285 Y61.435 E4.51756
G1 X231.023 Y63.773 E4.84500
G1 X232.128 Y65.066 E4.99964
G1 X233.383 Y65.066 E5.11379
G1 X233.383 Y66.546 E5.24834
G1 X235.243 Y69.582 E5.57207
G1 X236.196 Y71.883 E5.79856
G1 X236.588 Y72.095 E5.83909
G1 X236.775 Y72.229 E5.85999
G1 X236.711 Y72.602 E5.89441
G1 X236.679 Y73.150 E5.94432
G1 X237.462 Y76.410 E6.24917
G1 X237.556 Y77.607 E6.35836
G1 X237.984 Y78.137 E6.42023
G1 X238.217 Y78.363 E6.44980
G1 X238.697 Y78.775 E6.50731
G1 X238.793 Y80.153 E6.63289
G1 X238.461 Y80.292 E6.66567
G1 X238.206 Y80.458 E6.69338
G1 X237.982 Y80.675 E6.72167
G1 X237.796 Y80.944 E6.75147
G1 X237.638 Y81.357 E6.79168
G1 X237.493 Y83.193 E6.95913
G1 X238.527 Y83.445 E7.05585
G1 X237.853 Y86.612 E7.35024
G1 X236.709 Y89.756 E7.65452
G1 X235.999 Y91.091 E7.79194
G1 X234.786 Y91.554 E7.91008
G1 X234.786 Y97.065 E8.41114
G1 X233.756 Y97.065 E8.50475
G1 X233.756 Y94.812 E8.70957
G1 X231.736 Y96.904 E8.97400
G1 X231.390 Y96.806 E9.00673
G1 X231.125 Y96.140 E9.07195
G1 X228.518 Y98.366 E9.38371
G1 X228.671 Y98.578 E9.40747
G1 X228.530 Y98.822 E9.43312
G1 X228.414 Y99.310 E9.47872
G1 X227.748 Y98.894 E9.55011
G1 X225.214 Y100.447 E9.82032
G1 X221.888 Y101.825 E10.14776
G1 X218.386 Y102.666 E10.47520
G1 X214.796 Y102.948 E10.80263
G1 X211.206 Y102.666 E11.13007
G1 X207.705 Y101.825 E11.45750
G1 X205.077 Y100.737 E11.71612
G1 X204.996 Y100.755 E11.72370
G1 X204.864 Y100.648 E11.73914
G1 X204.378 Y100.447 E11.78698
G1 X201.308 Y98.565 E12.11441
G1 X198.751 Y96.382 E12.42015
G1 X198.596 Y97.612 E12.53289
G1 X197.989 Y97.065 E12.60728
G1 X195.467 Y97.065 E12.83653
G1 X195.467 Y94.221 E13.09506
G1 X193.617 Y91.261 E13.41248
G1 X192.256 Y88.204 E13.71677
G1 X191.334 Y84.987 E14.02106
G1 X191.291 Y84.680 E14.04928
G1 X192.181 Y84.228 E14.14003
G1 X191.848 Y80.000 E14.52571
G1 X192.131 Y76.410 E14.85315
G1 X192.971 Y72.909 E15.18058
G1 X194.349 Y69.582 E15.50802
G1 X194.887 Y68.704 E15.60161
G1 X194.311 Y68.448 F7800.000
G1 X194.311 Y64.442 E15.96592 F378.000
G1 X195.788 Y64.442 E16.10023
G1 X195.788 Y66.068 E16.24808
G1 X198.126 Y63.330 E16.57543
G1 X200.939 Y60.927 E16.91181
G1 X203.799 Y59.175 E17.21676
G1 X203.834 Y59.125 E17.22239
G1 X204.096 Y58.916 E17.25284
G1 X204.255 Y58.726 E17.27535
G1 X204.390 Y58.722 E17.28759
G1 X204.615 Y58.678 E17.30844
G1 X204.730 Y58.731 E17.31997
G1 X207.511 Y57.579 E17.59368
G1 X211.108 Y56.715 E17.93006
G1 X214.796 Y56.425 E18.26644
G1 X218.484 Y56.715 E18.60282
G1 X222.081 Y57.579 E18.93920
G1 X225.499 Y58.995 E19.27558
G1 X228.653 Y60.927 E19.61196
G1 X231.466 Y63.330 E19.94834
G1 X232.416 Y64.442 E20.08125
G1 X234.008 Y64.442 E20.22603
G1 X234.008 Y66.370 E20.40138
G1 X235.802 Y69.297 E20.71356
G1 X236.689 Y71.439 E20.92435
G1 X236.921 Y71.564 E20.94832
G1 X237.101 Y71.694 E20.96853
G1 X237.218 Y71.825 E20.98448
G1 X237.402 Y72.174 E21.02040
G1 X237.398 Y72.301 E21.03191
G1 X237.330 Y72.687 E21.06758
G1 X237.306 Y73.083 E21.10367
G1 X238.081 Y76.312 E21.40563
G1 X238.164 Y77.373 E21.50236
G1 X238.437 Y77.706 E21.54152
G1 X238.642 Y77.905 E21.56749
G1 X239.302 Y78.464 E21.64609
G1 X239.409 Y80.000 E21.78614
G1 X239.359 Y80.714 E21.85122
G1 X238.985 Y80.750 E21.88542
G1 X238.755 Y80.846 E21.90813
G1 X238.597 Y80.949 E21.92525
G1 X238.461 Y81.080 E21.94241
G1 X238.353 Y81.238 E21.95977
G1 X238.253 Y81.497 E21.98500
G1 X238.158 Y82.712 E22.09584
G1 X239.202 Y82.966 E22.19354
G1 X239.170 Y83.425 E22.23541
G1 X238.456 Y86.784 E22.54765
G1 X237.281 Y90.011 E22.85988
G1 X236.387 Y91.692 E23.03300
G1 X236.075 Y91.731 E23.06162
G1 X235.411 Y91.984 E23.12629
G1 X235.411 Y97.689 E23.64506
G1 X233.131 Y97.689 E23.85230
G1 X233.131 Y96.359 E23.97331
G1 X231.823 Y97.713 E24.14454
G1 X231.561 Y97.504 E24.17508
G1 X231.349 Y97.444 E24.19506
G1 X230.989 Y97.490 E24.22808
G1 X230.867 Y97.182 E24.25825
G1 X229.362 Y98.467 E24.43818
G1 X229.449 Y98.587 E24.45166
G1 X229.217 Y98.882 E24.48577
G1 X229.117 Y99.056 E24.50399
G1 X229.066 Y99.270 E24.52401
G1 X229.111 Y99.482 E24.54372
G1 X229.279 Y99.843 E24.57993
G1 X228.611 Y100.365 E24.65703
G1 X228.358 Y100.074 E24.69208
G1 X227.978 Y99.774 E24.73612
G1 X227.745 Y99.629 E24.76104
G1 X225.499 Y101.005 E25.00057
G1 X222.081 Y102.421 E25.33695
G1 X218.484 Y103.285 E25.67333
G1 X214.796 Y103.575 E26.00971
G1 X211.108 Y103.285 E26.34609
G1 X207.511 Y102.421 E26.68246
G1 X205.022 Y101.390 E26.92744
G1 X204.952 Y101.406 E26.93402
G1 X204.801 Y101.397 E26.94778
G1 X204.541 Y101.191 E26.97793
G1 X204.093 Y101.005 E27.02199
G1 X200.939 Y99.073 E27.35837
G1 X199.227 Y97.610 E27.56317
G1 X199.067 Y98.877 E27.67930
G1 X197.749 Y97.689 E27.84067
G1 X194.842 Y97.689 E28.10493
G1 X194.842 Y94.401 E28.40398
G1 X193.064 Y91.555 E28.70909
G1 X191.668 Y88.418 E29.02133
G1 X190.721 Y85.117 E29.33356
G1 X190.613 Y84.348 E29.40420
G1 X191.525 Y83.860 E29.49825
G1 X191.221 Y80.000 E29.85035
G1 X191.512 Y76.312 E30.18673
G1 X192.375 Y72.715 E30.52311
G1 X193.791 Y69.297 E30.85949
G1 X194.262 Y68.528 E30.94152
G1 X199.537 Y99.454 F7800.000
G1 X199.801 Y99.393 E30.96617 F378.000
G1 X199.593 Y98.741 E31.02840
G1 X199.801 Y99.393 F7800.000
G1 X200.204 Y99.643 E31.07158 F378.000
G1 X200.380 Y99.307 E31.10607
G1 X200.204 Y99.643 F7800.000
G1 X200.692 Y99.921 E31.15708 F378.000
G1 X200.851 Y99.463 E31.20117
G1 X200.692 Y99.921 F7800.000
G1 X201.115 Y100.201 E31.24733 F378.000
G1 X201.435 Y99.986 E31.28238
G1 X201.714 Y100.129 F7800.000
G1 X201.688 Y100.563 E31.32190 F378.000
G1 X201.115 Y100.201 E31.38351
G1 X201.361 Y100.832 F7800.000
G1 X202.662 Y101.248 E31.50772 F378.000
G1 X203.343 Y101.312 E31.56994
G1 X203.378 Y101.295 F7800.000
G1 X203.455 Y101.470 E31.58730 F378.000
G1 X202.910 Y101.325 F7800.000
G1 X202.734 Y101.209 E31.60652 F378.000
G1 X202.710 Y101.234 F7800.000
G1 X201.688 Y100.563 E31.71772 F378.000
G1 F1800.000 E30.71772
G92 E0
G1 X238.659 Y82.318 F7800.000
G1 E1.00000 F1800.000
G1 X239.017 Y82.246 E1.03318 F378.000
G1 X239.016 Y82.245 F7800.000
G1 X239.284 Y82.244 E1.05758 F378.000
G1 X239.172 Y82.315 F7800.000
G1 X239.427 Y82.529 E1.08788 F378.000
G1 X237.861 Y83.717 F7800.000
G1 X238.007 Y83.863 E1.10666 F1080.000
G1 X237.852 Y84.592 E1.17452
G1 X211.062 Y57.803 E4.62222
G1 X210.349 Y57.974 E4.68897
G1 X237.697 Y85.321 E8.20851
G1 X237.541 Y86.051 E8.27637
G1 X209.636 Y58.145 E11.86775
G1 X208.923 Y58.316 E11.93450
G1 X237.355 Y86.749 E15.59364
G1 X237.119 Y87.397 E15.65644
G1 X208.209 Y58.488 E19.37699
G1 X207.538 Y58.701 E19.44110
G1 X236.883 Y88.045 E23.21769
G1 X236.647 Y88.694 E23.28049
G1 X206.913 Y58.960 E27.10719
G1 X206.287 Y59.219 E27.16879
G1 X236.411 Y89.342 E31.04561
G1 X236.130 Y89.946 E31.10621
G1 X205.662 Y59.478 E35.02741
G1 X205.036 Y59.737 E35.08901
G1 X235.713 Y90.414 E39.03705
G1 X235.073 Y90.658 E39.09939
G1 X204.431 Y60.016 E43.04304
G1 X203.882 Y60.352 E43.10157
G1 X234.433 Y90.903 E47.03343
G1 X234.052 Y91.405 E47.09087
G1 X203.334 Y60.688 E51.04416
G1 X202.785 Y61.024 E51.10269
G1 X234.052 Y92.290 E55.12655
G1 X234.052 Y93.174 E55.20704
G1 X202.237 Y61.360 E59.30148
G1 X201.689 Y61.696 E59.36001
G1 X233.752 Y93.759 E63.48652
G1 X233.318 Y94.209 E63.54344
G1 X201.194 Y62.086 E67.67763
G1 X200.717 Y62.493 E67.73472
G1 X232.883 Y94.659 E71.87439
G1 X232.442 Y95.103 E71.93130
G1 X216.180 Y78.841 E74.02417
G1 X215.287 Y77.947 F7800.000
G1 X200.240 Y62.901 E75.96056 F1080.000
G1 X199.763 Y63.308 E76.01765
G1 X214.619 Y78.164 E77.92952
G1 X213.951 Y78.381 E77.99340
G1 X199.286 Y63.716 E79.88075
G1 X198.836 Y64.150 E79.93767
G1 X213.284 Y78.598 E81.79709
G1 X212.995 Y79.193 E81.85733
G1 X198.411 Y64.609 E83.73431
G1 X198.003 Y65.086 E83.79140
G1 X212.995 Y80.078 E85.72082
G1 F1800.000 E84.72082
G92 E0
G1 X216.784 Y80.329 F7800.000
G1 E1.00000 F1800.000
G1 X232.000 Y95.545 E2.95828 F1080.000
G1 X231.558 Y95.987 E3.01519
G1 X216.412 Y80.841 E4.96445
G1 X216.039 Y81.353 E5.02207
G1 X230.665 Y95.978 E6.90428
G1 X230.188 Y96.386 E6.96137
G1 X215.667 Y81.865 E8.83008
G1 X214.819 Y81.901 E8.90739
G1 X229.710 Y96.793 E10.82395
G1 X229.233 Y97.200 E10.88104
G1 X197.596 Y65.563 E14.95273
G1 X197.188 Y66.040 E15.00981
G1 X228.756 Y97.608 E19.07255
G1 X228.279 Y98.015 E19.12963
G1 X196.781 Y66.517 E23.18341
G1 X196.374 Y66.994 E23.24050
G1 X227.802 Y98.423 E27.28531
G1 X227.219 Y98.724 E27.34505
G1 X195.966 Y67.471 E31.36723
G1 X195.559 Y67.948 E31.42432
G1 X226.671 Y99.060 E35.42836
G1 X226.122 Y99.396 E35.48689
G1 X195.358 Y68.631 E39.44620
G1 X195.064 Y69.222 E39.50624
G1 X225.574 Y99.732 E43.43276
G1 X225.026 Y100.068 E43.49129
G1 X194.728 Y69.771 E47.39048
G1 X194.469 Y70.396 E47.45206
G1 X224.401 Y100.328 E51.30421
G1 X223.775 Y100.587 E51.36581
G1 X194.210 Y71.021 E55.17082
G1 X193.951 Y71.646 E55.23242
G1 X223.150 Y100.846 E58.99027
G1 X222.524 Y101.105 E59.05188
G1 X193.692 Y72.272 E62.76259
G1 X193.433 Y72.897 E62.82419
G1 X221.899 Y101.364 E66.48775
G1 X221.206 Y101.555 E66.55320
G1 X193.241 Y73.590 E70.15215
G1 X193.070 Y74.304 E70.21890
G1 X220.493 Y101.726 E73.74809
G1 X219.779 Y101.897 E73.81484
G1 X192.899 Y75.017 E77.27428
G1 X192.728 Y75.730 E77.34103
G1 X219.066 Y102.069 E80.73072
G1 X218.353 Y102.240 E80.79746
G1 X192.556 Y76.443 E84.11740
G1 X192.487 Y77.258 E84.19183
G1 X217.538 Y102.309 E87.41582
G1 X216.718 Y102.374 E87.49066
G1 X192.422 Y78.078 E90.61743
G1 X192.358 Y78.898 E90.69228
G1 X215.898 Y102.438 E93.72184
G1 X215.078 Y102.503 E93.79668
G1 X192.293 Y79.718 E96.72902
G1 X192.321 Y80.630 E96.81204
G1 X214.166 Y102.475 E99.62351
G1 X213.206 Y102.400 E99.71114
G1 X192.396 Y81.590 E102.38934
G1 X192.472 Y82.550 E102.47698
G1 X212.246 Y102.324 E105.02190
G1 X211.286 Y102.249 E105.10953
G1 X192.547 Y83.510 E107.52118
G1 X192.623 Y84.470 E107.60882
G1 X210.125 Y101.972 E109.86134
G1 X208.962 Y101.693 E109.97026
G1 X192.041 Y84.772 E112.14790
G1 X191.934 Y85.550 E112.21932
G1 X207.787 Y101.402 E114.25950
G1 X206.277 Y100.777 F7800.000
G1 X192.290 Y86.790 E116.05960 F1080.000
G1 X192.645 Y88.030 E116.17700
G1 X204.767 Y100.152 E117.73703
G1 X202.584 Y98.853 F7800.000
G1 X193.347 Y89.616 E118.92583 F1080.000
G1 X194.127 Y91.280 F7800.000
G1 X198.426 Y95.580 E119.47917 F1080.000
G1 X198.328 Y96.366 E119.55125
G1 X195.600 Y93.638 E119.90230
G1 X195.889 Y94.811 E120.01229
G1 X197.721 Y96.643 E120.24798
G1 X196.836 Y96.643 E120.32847
G1 X195.889 Y95.696 E120.45034
G1 X195.889 Y96.580 E120.53083
G1 X195.952 Y96.643 E120.53888
G1 X237.090 Y82.946 F7800.000
