; generated by Slic3r 1.0.0RC2 on 2014-01-11 at 13:09:05

; layer_height = 0.25
; perimeters = 1
; top_solid_layers = 5
; bottom_solid_layers = 3
; fill_density = 0.15
; perimeter_speed = 30
; infill_speed = 60
; travel_speed = 130
; nozzle_diameter = 0.35
; filament_diameter = 1.75
; extrusion_multiplier = 1
; perimeters extrusion width = 0.35mm
; infill extrusion width = 0.39mm
; solid infill extrusion width = 0.39mm
; top infill extrusion width = 0.39mm
; first layer extrusion width = 0.70mm

G21 ; set units to millimeters
M107
M104 S220 ; set temperature
G28 ; home all axes
G1 Z5 F5000 ; lift nozzle

M109 S220 ; wait for temperature to be reached
G90 ; use absolute coordinates
G92 E0
M82 ; use absolute distances for extrusion
G1 F1800.000 E-1.00000
G92 E0
G1 Z0.350 F7800.000
G1 X44.454 Y32.144 F7800.000
G1 E1.00000 F1800.000
G1 X45.114 Y31.224 E1.10296 F540.000
G1 X47.554 Y28.364 E1.44480
G1 X48.364 Y27.554 E1.54896
G1 X51.224 Y25.114 E1.89080
G1 X52.144 Y24.454 E1.99376
G1 X55.344 Y22.494 E2.33497
G1 X56.374 Y21.974 E2.43989
G1 X59.844 Y20.544 E2.78116
G1 X60.904 Y20.194 E2.88266
G1 X64.554 Y19.314 E3.22406
G1 X65.674 Y19.134 E3.32721
G1 X69.454 Y18.844 E3.67194
G1 X70.554 Y18.844 E3.77196
G1 X74.294 Y19.134 E4.11306
G1 X75.434 Y19.314 E4.21800
G1 X79.084 Y20.194 E4.55940
G1 X80.144 Y20.544 E4.66091
G1 X83.614 Y21.974 E5.00217
G1 X84.644 Y22.494 E5.10709
G1 X87.844 Y24.454 E5.44831
G1 X88.764 Y25.114 E5.55126
G1 X91.624 Y27.554 E5.89311
G1 X92.434 Y28.364 E5.99727
G1 X94.874 Y31.224 E6.33911
G1 X95.534 Y32.144 E6.44206
G1 X97.494 Y35.344 E6.78328
G1 X98.014 Y36.354 E6.88658
G1 X99.454 Y39.824 E7.22819
G1 X99.804 Y40.924 E7.33316
G1 X100.674 Y44.574 E7.67435
G1 X100.854 Y45.674 E7.77570
G1 X101.154 Y49.414 E8.11687
G1 X101.154 Y50.574 E8.22235
G1 X100.854 Y54.314 E8.56352
G1 X100.674 Y55.414 E8.66487
G1 X99.804 Y59.064 E9.00606
G1 X99.454 Y60.164 E9.11102
G1 X98.014 Y63.634 E9.45264
G1 X97.494 Y64.644 E9.55594
G1 X95.534 Y67.844 E9.89715
G1 X94.874 Y68.764 E10.00011
G1 X92.434 Y71.624 E10.34195
G1 X91.624 Y72.434 E10.44611
G1 X88.764 Y74.874 E10.78795
G1 X87.844 Y75.534 E10.89091
G1 X84.644 Y77.494 E11.23213
G1 X83.634 Y78.014 E11.33542
G1 X80.164 Y79.454 E11.67704
G1 X79.064 Y79.804 E11.78200
G1 X75.414 Y80.674 E12.12319
G1 X74.314 Y80.854 E12.22455
G1 X70.574 Y81.154 E12.56572
G1 X69.414 Y81.154 E12.67119
G1 X65.674 Y80.854 E13.01236
G1 X64.574 Y80.674 E13.11372
G1 X60.924 Y79.804 E13.45491
G1 X59.824 Y79.454 E13.55987
G1 X56.354 Y78.014 E13.90149
G1 X55.344 Y77.494 E14.00478
G1 X52.144 Y75.534 E14.34600
G1 X51.224 Y74.874 E14.44895
G1 X48.364 Y72.434 E14.79080
G1 X47.554 Y71.624 E14.89496
G1 X45.114 Y68.764 E15.23680
G1 X44.454 Y67.844 E15.33976
G1 X42.494 Y64.644 E15.68097
G1 X41.974 Y63.614 E15.78589
G1 X40.544 Y60.144 E16.12716
G1 X40.194 Y59.084 E16.22866
G1 X39.314 Y55.434 E16.57006
G1 X39.134 Y54.294 E16.67501
G1 X38.844 Y50.554 E17.01610
G1 X38.844 Y49.434 E17.11795
G1 X39.134 Y45.694 E17.45904
G1 X39.314 Y44.554 E17.56399
G1 X40.194 Y40.904 E17.90539
G1 X40.544 Y39.844 E18.00689
G1 X41.974 Y36.374 E18.34816
G1 X42.494 Y35.344 E18.45308
G1 X44.405 Y32.224 E18.78577
G1 X44.984 Y32.474 F7800.000
G1 X45.594 Y31.634 E18.88017 F540.000
G1 X48.034 Y28.774 E19.22201
G1 X48.774 Y28.034 E19.31717
G1 X51.634 Y25.594 E19.65901
G1 X52.474 Y24.984 E19.75341
G1 X55.674 Y23.024 E20.09463
G1 X56.614 Y22.544 E20.19060
G1 X60.084 Y21.114 E20.53187
G1 X61.054 Y20.804 E20.62446
G1 X64.704 Y19.924 E20.96587
G1 X65.724 Y19.764 E21.05975
G1 X69.494 Y19.464 E21.40364
G1 X70.504 Y19.464 E21.49548
G1 X74.244 Y19.754 E21.83657
G1 X75.284 Y19.924 E21.93239
G1 X78.934 Y20.804 E22.27380
G1 X79.904 Y21.114 E22.36639
G1 X83.374 Y22.544 E22.70766
G1 X84.314 Y23.024 E22.80364
G1 X87.514 Y24.984 E23.14485
G1 X88.354 Y25.594 E23.23925
G1 X91.214 Y28.034 E23.58109
G1 X91.954 Y28.774 E23.67625
G1 X94.394 Y31.634 E24.01809
G1 X95.004 Y32.474 E24.11249
G1 X96.964 Y35.674 E24.45371
G1 X97.434 Y36.594 E24.54765
G1 X98.874 Y40.064 E24.88926
G1 X99.194 Y41.064 E24.98473
G1 X100.064 Y44.714 E25.32592
G1 X100.224 Y45.724 E25.41891
G1 X100.524 Y49.464 E25.76008
G1 X100.524 Y50.524 E25.85646
G1 X100.224 Y54.264 E26.19763
G1 X100.064 Y55.274 E26.29062
G1 X99.194 Y58.924 E26.63181
G1 X98.874 Y59.924 E26.72728
G1 X97.434 Y63.394 E27.06889
G1 X96.964 Y64.314 E27.16283
G1 X95.004 Y67.514 E27.50405
G1 X94.394 Y68.354 E27.59845
G1 X91.954 Y71.214 E27.94029
G1 X91.214 Y71.954 E28.03545
G1 X88.354 Y74.394 E28.37729
G1 X87.514 Y75.004 E28.47169
G1 X84.314 Y76.964 E28.81290
G1 X83.394 Y77.434 E28.90684
G1 X79.924 Y78.874 E29.24846
G1 X78.924 Y79.194 E29.34393
G1 X75.274 Y80.064 E29.68512
G1 X74.264 Y80.224 E29.77811
G1 X70.524 Y80.524 E30.11927
G1 X69.464 Y80.524 E30.21566
G1 X65.724 Y80.224 E30.55683
G1 X64.714 Y80.064 E30.64981
G1 X61.064 Y79.194 E30.99100
G1 X60.064 Y78.874 E31.08648
G1 X56.594 Y77.434 E31.42809
G1 X55.674 Y76.964 E31.52203
G1 X52.474 Y75.004 E31.86325
G1 X51.634 Y74.394 E31.95764
G1 X48.774 Y71.954 E32.29949
G1 X48.034 Y71.214 E32.39465
G1 X45.594 Y68.354 E32.73649
G1 X44.984 Y67.514 E32.83088
G1 X43.024 Y64.314 E33.17210
G1 X42.544 Y63.374 E33.26807
G1 X41.114 Y59.904 E33.60934
G1 X40.804 Y58.934 E33.70194
G1 X39.924 Y55.284 E34.04334
G1 X39.754 Y54.244 E34.13916
G1 X39.464 Y50.504 E34.48026
G1 X39.464 Y49.484 E34.57301
G1 X39.754 Y45.744 E34.91411
G1 X39.924 Y44.704 E35.00993
G1 X40.804 Y41.054 E35.35133
G1 X41.114 Y40.084 E35.44393
G1 X42.544 Y36.614 E35.78520
G1 X43.024 Y35.674 E35.88117
G1 X44.935 Y32.554 E36.21386
G1 F1800.000 E35.21386
G92 E0
G1 X68.621 Y48.998 F7800.000
G1 E1.00000 F1800.000
G1 X70.527 Y48.378 E1.18226 F540.000
G1 X71.705 Y50.000 E1.36451
G1 X70.527 Y51.622 E1.54677
G1 X68.621 Y51.002 E1.72903
G1 X68.621 Y49.092 E1.90277
G1 X69.245 Y49.452 F7800.000
G1 X70.288 Y49.113 E2.00246 F540.000
G1 X70.933 Y50.000 E2.10215
G1 X70.288 Y50.887 E2.20184
G1 X69.245 Y50.548 E2.30153
G1 X69.245 Y49.546 E2.39270
G1 F1800.000 E1.39270
G92 E0
G1 X50.433 Y38.146 F7800.000
G1 E1.00000 F1800.000
G1 X51.435 Y36.511 E1.17432 F540.000
G1 X53.773 Y33.773 E1.50175
G1 X56.511 Y31.435 E1.82919
G1 X59.582 Y29.553 E2.15662
G1 X62.909 Y28.175 E2.48406
G1 X66.410 Y27.334 E2.81149
G1 X70.000 Y27.052 E3.13893
G1 X73.590 Y27.334 E3.46636
G1 X77.091 Y28.175 E3.79380
G1 X80.418 Y29.553 E4.12124
G1 X83.489 Y31.435 E4.44867
G1 X86.227 Y33.773 E4.77610
G1 X88.565 Y36.511 E5.10354
G1 X90.447 Y39.582 E5.43097
G1 X91.825 Y42.909 E5.75841
G1 X92.666 Y46.410 E6.08585
G1 X92.948 Y50.000 E6.41328
G1 X92.666 Y53.590 E6.74072
G1 X91.825 Y57.091 E7.06815
G1 X90.447 Y60.418 E7.39559
G1 X88.565 Y63.489 E7.72302
G1 X86.227 Y66.227 E8.05046
G1 X83.489 Y68.565 E8.37789
G1 X80.418 Y70.447 E8.70532
G1 X77.091 Y71.825 E9.03276
G1 X73.590 Y72.666 E9.36020
G1 X70.000 Y72.948 E9.68763
G1 X66.410 Y72.666 E10.01507
G1 X62.909 Y71.825 E10.34250
G1 X59.582 Y70.447 E10.66994
G1 X56.511 Y68.565 E10.99737
G1 X53.773 Y66.227 E11.32481
G1 X51.435 Y63.489 E11.65224
G1 X49.553 Y60.418 E11.97968
G1 X48.175 Y57.091 E12.30711
G1 X47.334 Y53.590 E12.63455
G1 X47.052 Y50.000 E12.96198
G1 X47.334 Y46.410 E13.28942
G1 X48.175 Y42.909 E13.61685
G1 X49.553 Y39.582 E13.94429
G1 X50.384 Y38.226 E14.08888
G1 X49.900 Y37.820 F7800.000
G1 X50.927 Y36.143 E14.26767 F378.000
G1 X53.330 Y33.330 E14.60405
G1 X56.143 Y30.927 E14.94043
G1 X59.297 Y28.995 E15.27681
G1 X62.715 Y27.579 E15.61319
G1 X66.312 Y26.715 E15.94957
G1 X70.000 Y26.425 E16.28595
G1 X73.688 Y26.715 E16.62233
G1 X77.285 Y27.579 E16.95871
G1 X80.703 Y28.995 E17.29509
G1 X83.857 Y30.927 E17.63146
G1 X86.670 Y33.330 E17.96784
G1 X89.073 Y36.143 E18.30422
G1 X91.005 Y39.297 E18.64060
G1 X92.421 Y42.715 E18.97698
G1 X93.285 Y46.312 E19.31336
G1 X93.575 Y50.000 E19.64974
G1 X93.285 Y53.688 E19.98612
G1 X92.421 Y57.285 E20.32249
G1 X91.005 Y60.703 E20.65888
G1 X89.073 Y63.857 E20.99525
G1 X86.670 Y66.670 E21.33163
G1 X83.857 Y69.073 E21.66801
G1 X80.703 Y71.005 E22.00439
G1 X77.285 Y72.421 E22.34077
G1 X73.688 Y73.285 E22.67715
G1 X70.000 Y73.575 E23.01353
G1 X66.312 Y73.285 E23.34991
G1 X62.715 Y72.421 E23.68628
G1 X59.297 Y71.005 E24.02267
G1 X56.143 Y69.073 E24.35904
G1 X53.330 Y66.670 E24.69542
G1 X50.927 Y63.857 E25.03180
G1 X48.995 Y60.703 E25.36818
G1 X47.579 Y57.285 E25.70456
G1 X46.715 Y53.688 E26.04094
G1 X46.425 Y50.000 E26.37732
G1 X46.715 Y46.312 E26.71369
G1 X47.579 Y42.715 E27.05007
G1 X48.995 Y39.297 E27.38646
G1 X49.851 Y37.899 E27.53552
G1 X49.099 Y58.222 F7800.000
G1 X61.778 Y70.901 E29.18869 F1080.000
G1 X63.246 Y71.473 F7800.000
G1 X48.527 Y56.754 E31.10791 F1080.000
G1 X48.244 Y55.575 E31.21971
G1 X64.425 Y71.756 E33.32959
G1 X65.605 Y72.039 E33.44140
G1 X47.961 Y54.395 E35.74193
G1 X47.732 Y53.270 E35.84782
G1 X66.730 Y72.268 E38.32497
G1 X67.702 Y72.345 E38.41493
G1 X47.655 Y52.298 E41.02889
G1 X47.579 Y51.325 E41.11884
G1 X68.675 Y72.421 E43.86961
G1 X69.648 Y72.498 E43.95956
G1 X47.502 Y50.352 E46.84713
G1 X47.516 Y49.470 E46.92848
G1 X70.530 Y72.484 E49.92924
G1 X71.361 Y72.418 E50.00607
G1 X47.582 Y48.639 E53.10663
G1 X47.647 Y47.809 E53.18346
G1 X72.191 Y72.353 E56.38380
G1 X73.022 Y72.288 E56.46063
G1 X47.712 Y46.978 E59.76077
G1 X47.821 Y46.190 E59.83410
G1 X73.810 Y72.179 E63.22286
G1 X74.532 Y72.006 E63.29138
G1 X47.994 Y45.468 E66.75175
G1 X48.168 Y44.745 E66.82027
G1 X75.255 Y71.832 E70.35224
G1 X75.978 Y71.659 E70.42076
G1 X48.341 Y44.022 E74.02434
G1 X48.514 Y43.300 E74.09286
G1 X76.700 Y71.486 E77.76803
G1 X77.366 Y71.255 E77.83298
G1 X48.745 Y42.634 E81.56492
G1 X49.007 Y42.000 E81.62816
G1 X78.000 Y70.993 E85.40849
G1 X78.633 Y70.730 E85.47173
G1 X49.270 Y41.367 E89.30046
G1 X49.532 Y40.733 E89.36369
G1 X79.267 Y70.468 E93.24082
G1 X79.900 Y70.205 E93.30405
G1 X49.795 Y40.100 E97.22958
G1 X50.095 Y39.504 E97.29109
G1 X80.496 Y69.905 E101.25513
G1 X81.052 Y69.565 E101.31521
G1 X50.435 Y38.948 E105.30731
G1 X50.776 Y38.393 E105.36739
G1 X81.607 Y69.224 E109.38754
G1 X82.163 Y68.884 E109.44762
G1 X51.116 Y37.837 E113.49582
G1 X51.457 Y37.281 E113.55590
G1 X82.719 Y68.543 E117.63216
G1 X83.270 Y68.198 E117.69211
G1 X51.802 Y36.730 E121.79526
G1 X52.215 Y36.247 E121.85386
G1 X83.753 Y67.785 E125.96621
G1 X84.236 Y67.373 E126.02481
G1 X52.627 Y35.764 E130.14635
G1 X53.040 Y35.280 E130.20495
G1 X68.199 Y50.439 E132.18156
G1 X68.199 Y49.543 E132.26418
G1 X53.453 Y34.797 E134.18697
G1 X53.871 Y34.319 E134.24553
G1 X68.233 Y48.681 E136.11823
G1 X68.909 Y48.461 E136.18379
G1 X54.319 Y33.871 E138.08626
G1 X54.797 Y33.453 E138.14482
G1 X69.585 Y48.241 E140.07309
G1 X70.262 Y48.022 E140.13865
G1 X55.280 Y33.040 E142.09210
G1 X55.764 Y32.627 E142.15070
G1 X87.373 Y64.236 E146.27224
G1 X87.785 Y63.753 E146.33084
G1 X56.247 Y32.215 E150.44318
G1 X56.730 Y31.802 E150.50178
G1 X88.198 Y63.270 E154.60494
G1 X88.543 Y62.719 E154.66488
G1 X57.281 Y31.457 E158.74114
G1 X57.837 Y31.116 E158.80122
G1 X88.884 Y62.163 E162.84942
G1 X89.224 Y61.607 E162.90950
G1 X58.393 Y30.776 E166.92965
G1 X58.948 Y30.435 E166.98973
G1 X89.565 Y61.052 E170.98183
G1 X89.905 Y60.496 E171.04191
G1 X59.504 Y30.095 E175.00595
G1 X60.100 Y29.795 E175.06746
G1 X90.205 Y59.900 E178.99298
G1 X90.468 Y59.267 E179.05622
G1 X60.733 Y29.532 E182.93334
G1 X61.367 Y29.270 E182.99658
G1 X90.730 Y58.633 E186.82531
G1 X90.993 Y58.000 E186.88854
G1 X62.000 Y29.007 E190.66887
G1 X62.634 Y28.745 E190.73211
G1 X91.255 Y57.366 E194.46405
G1 X91.486 Y56.700 E194.52900
G1 X63.300 Y28.514 E198.20417
G1 X64.022 Y28.341 E198.27269
G1 X91.659 Y55.978 E201.87626
G1 X91.832 Y55.255 E201.94478
G1 X64.745 Y28.168 E205.47675
G1 X65.468 Y27.994 E205.54527
G1 X92.006 Y54.532 E209.00564
G1 X92.179 Y53.810 E209.07415
G1 X66.190 Y27.821 E212.46292
G1 X66.978 Y27.712 E212.53625
G1 X92.288 Y53.022 E215.83638
G1 X92.353 Y52.191 E215.91321
G1 X67.809 Y27.647 E219.11355
G1 X68.640 Y27.582 E219.19038
G1 X92.418 Y51.360 E222.29093
G1 X92.484 Y50.530 E222.36776
G1 X69.470 Y27.516 E225.36852
G1 X70.352 Y27.502 E225.44986
G1 X92.498 Y49.648 E228.33743
G1 X92.421 Y48.675 E228.42739
G1 X71.325 Y27.579 E231.17815
G1 X72.298 Y27.655 E231.26810
G1 X92.345 Y47.702 E233.88206
G1 X92.268 Y46.730 E233.97201
G1 X73.270 Y27.732 E236.44916
G1 X74.396 Y27.961 E236.55505
G1 X92.039 Y45.604 E238.85557
G1 X91.756 Y44.425 E238.96738
G1 X75.575 Y28.244 E241.07725
G1 X76.754 Y28.527 E241.18905
G1 X91.473 Y43.246 E243.10826
G1 X90.901 Y41.778 F7800.000
G1 X78.222 Y29.099 E244.76142 F1080.000
G1 X79.752 Y29.733 F7800.000
G1 X90.267 Y40.248 E246.13250 F1080.000
G1 X89.092 Y38.177 F7800.000
G1 X81.823 Y30.908 E247.08041 F1080.000
G1 X85.620 Y33.809 F7800.000
G1 X86.191 Y34.380 E247.15484 F1080.000
G1 F1800.000 E246.15484
G92 E0
G1 X72.188 Y49.947 F7800.000
G1 E1.00000 F1800.000
G1 X86.960 Y64.720 E2.92617 F1080.000
G1 X86.547 Y65.203 E2.98477
G1 X71.855 Y50.511 E4.90051
G1 X71.478 Y51.030 E4.95966
G1 X86.129 Y65.681 E6.87011
G1 X85.681 Y66.129 E6.92853
G1 X71.101 Y51.549 E8.82973
G1 X70.724 Y52.068 E8.88888
G1 X85.203 Y66.547 E10.77686
G1 X84.720 Y66.960 E10.83546
G1 X69.486 Y51.727 E12.82175
G1 F1800.000 E11.82175
G92 E0
G1 X60.248 Y70.267 F7800.000
G1 E1.00000 F1800.000
G1 X49.733 Y59.752 E2.37109 F1080.000
G1 X50.908 Y61.822 F7800.000
G1 X58.178 Y69.092 E3.31902 F1080.000
G1 X54.380 Y66.191 F7800.000
G1 X53.809 Y65.620 E3.39351 F1080.000
M104 S220 ; set temperature
G1 F1800.000 E2.39351
G92 E0
G1 Z0.600 F7800.000
G1 X64.846 Y54.782 F7800.000
G1 E1.00000 F1800.000
G1 X63.665 Y53.051 E1.07624 F1800
G1 X63.048 Y51.048 E1.15248
G1 X63.048 Y48.952 E1.22873
G1 X63.585 Y47.210 E1.29504
G1 X63.665 Y46.949 E1.30497
G1 X64.846 Y45.218 E1.38121
G1 X66.485 Y43.911 E1.45745
G1 X68.435 Y43.145 E1.53369
G1 X70.525 Y42.989 E1.60994
G1 X72.569 Y43.455 E1.68618
G1 X74.384 Y44.503 E1.76242
G1 X75.809 Y46.039 E1.83866
G1 X76.719 Y47.928 E1.91490
G1 X77.031 Y50.000 E1.99115
G1 X76.719 Y52.072 E2.06739
G1 X75.809 Y53.961 E2.14363
G1 X74.384 Y55.497 E2.21987
G1 X72.569 Y56.545 E2.29611
G1 X70.525 Y57.011 E2.37236
G1 X68.435 Y56.855 E2.44860
G1 X66.485 Y56.089 E2.52484
G1 X64.887 Y54.815 E2.59917
G1 X65.105 Y54.541 F7800.000
G1 X63.984 Y52.897 E2.67158 F1260
G1 X63.398 Y50.995 E2.74398
G1 X63.398 Y49.005 E2.81638
G1 X63.919 Y47.313 E2.88078
G1 X63.984 Y47.103 E2.88879
G1 X65.105 Y45.459 E2.96119
G1 X66.662 Y44.218 E3.03359
G1 X68.514 Y43.490 E3.10600
G1 X70.499 Y43.342 E3.17840
G1 X72.439 Y43.785 E3.25081
G1 X74.163 Y44.780 E3.32321
G1 X75.517 Y46.239 E3.39561
G1 X76.380 Y48.032 E3.46802
G1 X76.677 Y50.000 E3.54042
G1 X76.380 Y51.968 E3.61282
G1 X75.517 Y53.761 E3.68523
G1 X74.163 Y55.220 E3.75763
G1 X72.439 Y56.215 E3.83004
G1 X70.499 Y56.658 E3.90244
G1 X68.514 Y56.510 E3.97484
G1 X66.662 Y55.782 E4.04725
G1 X65.146 Y54.574 E4.11774
G1 X54.138 Y66.957 F7800.000
G1 X53.547 Y66.453 E4.14601 F1800
G1 X51.176 Y63.676 E4.27883
G1 X49.268 Y60.563 E4.41165
G1 X47.871 Y57.190 E4.54447
G1 X47.019 Y53.640 E4.67730
G1 X46.732 Y50.000 E4.81012
G1 X47.019 Y46.360 E4.94294
G1 X47.871 Y42.810 E5.07576
G1 X49.268 Y39.437 E5.20858
G1 X51.176 Y36.324 E5.34141
G1 X53.547 Y33.547 E5.47423
G1 X56.324 Y31.176 E5.60705
G1 X59.437 Y29.268 E5.73987
G1 X62.810 Y27.871 E5.87269
G1 X66.360 Y27.019 E6.00551
G1 X70.000 Y26.732 E6.13834
G1 X73.640 Y27.019 E6.27116
G1 X77.190 Y27.871 E6.40398
G1 X80.563 Y29.268 E6.53680
G1 X83.676 Y31.176 E6.66962
G1 X86.453 Y33.547 E6.80245
G1 X88.824 Y36.324 E6.93527
G1 X90.732 Y39.437 E7.06809
G1 X92.129 Y42.810 E7.20091
G1 X92.981 Y46.360 E7.33373
G1 X93.268 Y50.000 E7.46655
G1 X92.981 Y53.640 E7.59938
G1 X92.129 Y57.190 E7.73220
G1 X90.732 Y60.563 E7.86502
G1 X88.824 Y63.676 E7.99784
G1 X86.453 Y66.453 E8.13066
G1 X83.676 Y68.824 E8.26348
G1 X80.563 Y70.732 E8.39631
G1 X77.190 Y72.129 E8.52913
G1 X73.640 Y72.981 E8.66195
G1 X70.000 Y73.268 E8.79477
G1 X66.360 Y72.981 E8.92759
G1 X62.810 Y72.129 E9.06042
G1 X59.437 Y70.732 E9.19324
G1 X56.324 Y68.824 E9.32606
G1 X54.178 Y66.991 E9.42870
G1 X53.911 Y67.224 F7800.000
G1 X53.299 Y66.701 E9.45797 F1260
G1 X50.892 Y63.883 E9.59280
G1 X48.956 Y60.723 E9.72762
G1 X47.537 Y57.299 E9.86245
G1 X46.672 Y53.695 E9.99728
G1 X46.381 Y50.000 E10.13210
