; generated by Slic3r 1.0.0RC2 on 2014-01-11 at 17:02:31

; layer_height = 0.25
; perimeters = 1
; top_solid_layers = 5
; bottom_solid_layers = 3
; fill_density = 0.13
; perimeter_speed = 30
; infill_speed = 60
; travel_speed = 130
; nozzle_diameter = 0.35
; filament_diameter = 1.75
; extrusion_multiplier = 1
; perimeters extrusion width = 0.35mm
; infill extrusion width = 0.39mm
; solid infill extrusion width = 0.39mm
; top infill extrusion width = 0.39mm
; first layer extrusion width = 0.70mm

G21 ; set units to millimeters
M107
M104 S220 ; set temperature
G28 ; home all axes
G1 Z5 F5000 ; lift nozzle

M109 S220 ; wait for temperature to be reached
G90 ; use absolute coordinates
G92 E0
M82 ; use absolute distances for extrusion
G1 F1800.000 E-1.00000
G92 E0
G1 Z0.350 F7800.000
G1 X43.144 Y29.744 F7800.000
G1 E1.00000 F1800.000
G1 X44.164 Y28.644 E1.13641 F540.000
G1 X45.384 Y27.774 E1.27266
G1 X55.494 Y22.064 E2.32845
G1 X56.264 Y21.684 E2.40652
G1 X60.054 Y20.384 E2.77086
G1 X60.694 Y20.194 E2.83156
G1 X64.344 Y19.314 E3.17296
G1 X65.484 Y19.134 E3.27791
G1 X69.234 Y18.844 E3.61991
G1 X70.354 Y18.844 E3.72175
G1 X74.094 Y19.134 E4.06285
G1 X75.234 Y19.314 E4.16779
G1 X78.884 Y20.194 E4.50920
G1 X79.944 Y20.544 E4.61070
G1 X83.414 Y21.974 E4.95197
G1 X84.444 Y22.494 E5.05689
G1 X87.644 Y24.454 E5.39810
G1 X93.204 Y27.944 E5.99502
G1 X94.364 Y28.844 E6.12852
G1 X95.324 Y29.964 E6.26265
G1 X96.034 Y31.254 E6.39654
G1 X99.394 Y39.194 E7.18051
G1 X99.644 Y39.894 E7.24810
G1 X101.564 Y46.154 E7.84349
G1 X101.764 Y46.954 E7.91847
G1 X101.864 Y47.774 E7.99359
G1 X101.984 Y49.484 E8.14946
G1 X101.984 Y50.494 E8.24130
G1 X101.904 Y51.664 E8.34793
G1 X101.744 Y53.954 E8.55667
G1 X101.604 Y54.994 E8.65209
G1 X100.864 Y58.454 E8.97382
G1 X98.374 Y69.614 E10.01355
G1 X97.914 Y70.994 E10.14582
G1 X97.184 Y72.254 E10.27823
G1 X96.224 Y73.354 E10.41098
G1 X95.054 Y74.234 E10.54411
G1 X93.744 Y74.854 E10.67589
G1 X85.634 Y77.764 E11.45937
G1 X79.294 Y79.694 E12.06198
G1 X75.214 Y80.674 E12.44352
G1 X74.114 Y80.854 E12.54488
G1 X70.374 Y81.154 E12.88605
G1 X69.214 Y81.154 E12.99152
G1 X65.464 Y80.854 E13.33360
G1 X64.604 Y80.734 E13.41256
G1 X56.704 Y79.134 E14.14548
G1 X55.894 Y78.914 E14.22181
G1 X55.114 Y78.614 E14.29780
G1 X46.424 Y74.624 E15.16729
G1 X45.144 Y73.864 E15.30265
G1 X44.044 Y72.864 E15.43782
G1 X43.174 Y71.654 E15.57333
G1 X42.564 Y70.294 E15.70887
G1 X39.444 Y60.794 E16.61809
G1 X38.404 Y57.184 E16.95970
G1 X38.194 Y56.184 E17.05261
G1 X38.054 Y55.174 E17.14533
G1 X37.984 Y54.254 E17.22923
G1 X38.034 Y53.324 E17.31391
G1 X38.964 Y45.404 E18.03902
G1 X39.094 Y44.634 E18.11003
G1 X41.884 Y32.464 E19.24535
G1 X42.374 Y31.044 E19.38194
G1 X43.096 Y29.825 E19.51081
G1 X43.644 Y30.124 F7800.000
G1 X44.574 Y29.114 E19.63565 F540.000
G1 X45.694 Y28.314 E19.76080
G1 X55.804 Y22.604 E20.81659
G1 X56.504 Y22.264 E20.88735
G1 X60.254 Y20.974 E21.24795
G1 X60.844 Y20.804 E21.30378
G1 X64.494 Y19.924 E21.64518
G1 X65.534 Y19.754 E21.74100
G1 X69.284 Y19.464 E22.08301
G1 X70.304 Y19.464 E22.17575
G1 X74.044 Y19.754 E22.51685
G1 X75.084 Y19.924 E22.61267
G1 X78.734 Y20.804 E22.95408
G1 X79.704 Y21.114 E23.04667
G1 X83.174 Y22.544 E23.38794
G1 X84.114 Y23.024 E23.48391
G1 X87.314 Y24.984 E23.82513
G1 X92.874 Y28.474 E24.42205
G1 X93.934 Y29.294 E24.54391
G1 X94.804 Y30.324 E24.66650
G1 X95.454 Y31.504 E24.78900
G1 X98.814 Y39.444 E25.57297
G1 X99.044 Y40.084 E25.63480
G1 X100.964 Y46.344 E26.23020
G1 X101.144 Y47.074 E26.29856
G1 X101.244 Y47.824 E26.36736
G1 X101.364 Y49.534 E26.52323
G1 X101.364 Y50.454 E26.60689
G1 X101.284 Y51.614 E26.71262
G1 X101.124 Y53.914 E26.92226
G1 X100.994 Y54.864 E27.00945
G1 X100.254 Y58.314 E27.33029
G1 X97.764 Y69.474 E28.37002
G1 X97.344 Y70.744 E28.49165
G1 X96.674 Y71.894 E28.61267
G1 X95.794 Y72.894 E28.73380
G1 X94.734 Y73.694 E28.85455
G1 X93.534 Y74.274 E28.97574
G1 X85.764 Y77.064 E29.72643
G1 X79.114 Y79.094 E30.35866
G1 X75.074 Y80.064 E30.73646
G1 X74.064 Y80.224 E30.82944
G1 X70.324 Y80.524 E31.17061
G1 X69.264 Y80.524 E31.26700
G1 X65.514 Y80.224 E31.60907
G1 X64.724 Y80.114 E31.68160
G1 X56.824 Y78.514 E32.41453
G1 X56.094 Y78.324 E32.48312
G1 X55.384 Y78.044 E32.55252
G1 X46.694 Y74.054 E33.42201
G1 X45.514 Y73.364 E33.54630
G1 X44.514 Y72.444 E33.66986
G1 X43.714 Y71.344 E33.79353
G1 X43.164 Y70.104 E33.91688
G1 X39.964 Y60.364 E34.84911
G1 X39.004 Y57.014 E35.16598
G1 X38.814 Y56.094 E35.25140
G1 X38.674 Y55.084 E35.34412
G1 X38.614 Y54.244 E35.42070
G1 X38.654 Y53.404 E35.49716
G1 X39.584 Y45.484 E36.22227
G1 X39.704 Y44.774 E36.28775
G1 X42.494 Y32.604 E37.42307
G1 X42.944 Y31.304 E37.54816
G1 X43.596 Y30.205 E37.66439
G1 F1800.000 E36.66439
G92 E0
G1 X68.417 Y48.998 F7800.000
G1 E1.00000 F1800.000
G1 X70.323 Y48.378 E1.18226 F540.000
G1 X71.501 Y50.000 E1.36451
G1 X70.323 Y51.622 E1.54677
G1 X68.417 Y51.002 E1.72903
G1 X68.417 Y49.092 E1.90277
G1 X69.042 Y49.452 F7800.000
G1 X70.084 Y49.113 E2.00246 F540.000
G1 X70.729 Y50.000 E2.10215
G1 X70.084 Y50.887 E2.20184
G1 X69.042 Y50.548 E2.30153
G1 X69.042 Y49.546 E2.39270
G1 F1800.000 E1.39270
G92 E0
G1 X49.936 Y38.624 F7800.000
G1 E1.00000 F1800.000
G1 X49.936 Y38.027 E1.05426 F540.000
G1 X53.570 Y33.773 E1.56298
G1 X56.308 Y31.435 E1.89042
G1 X59.235 Y29.641 E2.20261
G1 X59.293 Y29.558 E2.21177
G1 X59.559 Y29.340 E2.24305
G1 X59.717 Y29.413 E2.25890
G1 X62.705 Y28.175 E2.55295
G1 X66.206 Y27.334 E2.88039
G1 X69.796 Y27.052 E3.20782
G1 X73.386 Y27.334 E3.53526
G1 X76.888 Y28.175 E3.86269
G1 X80.214 Y29.553 E4.19013
G1 X83.285 Y31.435 E4.51756
G1 X86.023 Y33.773 E4.84500
G1 X87.128 Y35.066 E4.99964
G1 X88.383 Y35.066 E5.11379
G1 X88.383 Y36.546 E5.24834
G1 X90.243 Y39.582 E5.57207
G1 X91.196 Y41.883 E5.79856
G1 X91.588 Y42.095 E5.83909
G1 X91.775 Y42.229 E5.85999
G1 X91.711 Y42.602 E5.89441
G1 X91.679 Y43.150 E5.94432
G1 X92.462 Y46.410 E6.24917
G1 X92.556 Y47.607 E6.35836
G1 X92.984 Y48.137 E6.42023
G1 X93.217 Y48.363 E6.44980
G1 X93.697 Y48.775 E6.50731
G1 X93.793 Y50.153 E6.63289
G1 X93.461 Y50.292 E6.66567
G1 X93.206 Y50.458 E6.69338
G1 X92.982 Y50.675 E6.72167
G1 X92.796 Y50.944 E6.75147
G1 X92.638 Y51.357 E6.79168
G1 X92.493 Y53.193 E6.95913
G1 X93.527 Y53.445 E7.05585
G1 X92.853 Y56.612 E7.35024
G1 X91.709 Y59.756 E7.65452
G1 X90.999 Y61.091 E7.79194
G1 X90.078 Y61.442 E7.88161
G1 X89.559 Y61.535 E7.92955
G1 X88.362 Y63.488 E8.13792
G1 X86.611 Y65.537 E8.38299
G1 X88.161 Y65.296 E8.52565
G1 X89.414 Y67.065 E8.72271
G1 X87.895 Y67.065 E8.86079
G1 X87.377 Y66.240 E8.94931
G1 X86.736 Y66.904 E9.03319
G1 X86.390 Y66.806 E9.06592
G1 X86.125 Y66.140 E9.13113
G1 X83.518 Y68.366 E9.44290
G1 X83.671 Y68.578 E9.46666
G1 X83.530 Y68.822 E9.49231
G1 X83.414 Y69.310 E9.53790
G1 X82.748 Y68.894 E9.60930
G1 X80.214 Y70.447 E9.87951
G1 X76.888 Y71.825 E10.20695
G1 X73.386 Y72.666 E10.53438
G1 X69.796 Y72.948 E10.86182
G1 X66.206 Y72.666 E11.18925
G1 X62.705 Y71.825 E11.51669
G1 X60.077 Y70.737 E11.77531
G1 X59.996 Y70.755 E11.78289
G1 X59.864 Y70.648 E11.79833
G1 X59.378 Y70.447 E11.84616
G1 X56.308 Y68.565 E12.17360
G1 X53.751 Y66.382 E12.47933
G1 X53.596 Y67.612 E12.59207
G1 X51.446 Y65.676 E12.85523
G1 X51.446 Y67.065 E12.98154
G1 X50.429 Y67.065 E13.07401
G1 X50.429 Y64.160 E13.33815
G1 X48.617 Y61.261 E13.64895
G1 X47.256 Y58.204 E13.95324
G1 X46.334 Y54.987 E14.25753
G1 X46.291 Y54.680 E14.28575
G1 X47.181 Y54.228 E14.37650
G1 X46.848 Y50.000 E14.76218
G1 X47.131 Y46.410 E15.08962
G1 X47.971 Y42.909 E15.41705
G1 X49.349 Y39.582 E15.74449
G1 X49.887 Y38.704 E15.83808
G1 X49.311 Y38.448 F7800.000
G1 X49.311 Y34.442 E16.20239 F378.000
G1 X50.788 Y34.442 E16.33670
G1 X50.788 Y36.068 E16.48455
G1 X53.126 Y33.330 E16.81190
G1 X55.939 Y30.927 E17.14828
G1 X58.799 Y29.175 E17.45323
G1 X58.834 Y29.125 E17.45886
G1 X59.096 Y28.916 E17.48931
G1 X59.255 Y28.726 E17.51182
G1 X59.390 Y28.722 E17.52406
G1 X59.615 Y28.678 E17.54491
G1 X59.730 Y28.731 E17.55644
G1 X62.511 Y27.579 E17.83015
G1 X66.108 Y26.715 E18.16653
G1 X69.796 Y26.425 E18.50291
G1 X73.484 Y26.715 E18.83929
G1 X77.081 Y27.579 E19.17567
G1 X80.499 Y28.995 E19.51205
G1 X83.653 Y30.927 E19.84843
G1 X86.466 Y33.330 E20.18480
G1 X87.416 Y34.442 E20.31772
G1 X89.008 Y34.442 E20.46250
G1 X89.008 Y36.370 E20.63785
G1 X90.802 Y39.297 E20.95003
G1 X91.689 Y41.439 E21.16082
G1 X91.921 Y41.564 E21.18479
G1 X92.101 Y41.694 E21.20500
G1 X92.218 Y41.825 E21.22095
G1 X92.402 Y42.174 E21.25687
G1 X92.398 Y42.301 E21.26838
G1 X92.330 Y42.687 E21.30405
G1 X92.306 Y43.083 E21.34014
G1 X93.081 Y46.312 E21.64210
G1 X93.164 Y47.373 E21.73883
G1 X93.437 Y47.706 E21.77799
G1 X93.642 Y47.905 E21.80396
G1 X94.302 Y48.464 E21.88256
G1 X94.409 Y50.000 E22.02261
G1 X94.359 Y50.714 E22.08769
G1 X93.985 Y50.750 E22.12189
G1 X93.755 Y50.846 E22.14460
G1 X93.597 Y50.949 E22.16172
G1 X93.461 Y51.080 E22.17888
G1 X93.353 Y51.238 E22.19624
G1 X93.253 Y51.497 E22.22146
G1 X93.158 Y52.712 E22.33231
G1 X94.202 Y52.966 E22.43001
G1 X94.170 Y53.425 E22.47188
G1 X93.456 Y56.784 E22.78411
G1 X92.281 Y60.011 E23.09635
G1 X91.387 Y61.692 E23.26947
G1 X91.075 Y61.731 E23.29809
G1 X90.245 Y62.047 E23.37882
G1 X89.945 Y62.100 E23.40655
G1 X88.869 Y63.857 E23.59388
G1 X88.182 Y64.660 E23.68998
G1 X89.661 Y64.430 E23.82607
G1 X88.979 Y65.369 E23.93161
G1 X90.622 Y67.689 E24.19012
G1 X87.550 Y67.689 E24.46946
G1 X87.272 Y67.248 E24.51685
G1 X86.823 Y67.713 E24.57564
G1 X86.561 Y67.504 E24.60617
G1 X86.349 Y67.444 E24.62615
G1 X85.989 Y67.490 E24.65917
G1 X85.867 Y67.182 E24.68935
G1 X84.362 Y68.467 E24.86928
G1 X84.449 Y68.587 E24.88275
G1 X84.217 Y68.882 E24.91687
G1 X84.117 Y69.056 E24.93508
G1 X84.066 Y69.270 E24.95510
G1 X84.111 Y69.482 E24.97481
G1 X84.279 Y69.843 E25.01102
G1 X83.611 Y70.365 E25.08813
G1 X83.358 Y70.074 E25.12318
G1 X82.978 Y69.774 E25.16722
G1 X82.745 Y69.629 E25.19213
G1 X80.499 Y71.005 E25.43166
G1 X77.081 Y72.421 E25.76804
G1 X73.484 Y73.285 E26.10442
G1 X69.796 Y73.575 E26.44080
G1 X66.108 Y73.285 E26.77718
G1 X62.511 Y72.421 E27.11356
G1 X60.022 Y71.390 E27.35853
G1 X59.952 Y71.406 E27.36512
G1 X59.801 Y71.397 E27.37887
G1 X59.541 Y71.191 E27.40902
G1 X59.093 Y71.005 E27.45309
G1 X55.939 Y69.073 E27.78947
G1 X54.227 Y67.610 E27.99427
G1 X54.067 Y68.877 E28.11039
G1 X52.071 Y67.079 E28.35473
G1 X52.071 Y67.689 E28.41024
G1 X49.804 Y67.689 E28.61635
G1 X49.804 Y64.339 E28.92103
G1 X48.064 Y61.555 E29.21951
G1 X46.668 Y58.418 E29.53175
G1 X45.721 Y55.117 E29.84398
G1 X45.613 Y54.348 E29.91462
G1 X46.525 Y53.860 E30.00866
G1 X46.221 Y50.000 E30.36077
G1 X46.512 Y46.312 E30.69715
G1 X47.375 Y42.715 E31.03353
G1 X48.791 Y39.297 E31.36991
G1 X49.262 Y38.528 E31.45194
G1 X54.447 Y69.443 F7800.000
G1 X54.801 Y69.393 E31.48439 F378.000
G1 X54.593 Y68.741 E31.54662
G1 X54.801 Y69.393 F7800.000
G1 X55.204 Y69.643 E31.58980 F378.000
G1 X55.380 Y69.307 E31.62429
G1 X55.204 Y69.643 F7800.000
G1 X55.692 Y69.921 E31.67530 F378.000
G1 X55.851 Y69.463 E31.71939
G1 X55.692 Y69.921 F7800.000
G1 X56.115 Y70.201 E31.76555 F378.000
G1 X56.435 Y69.986 E31.80059
G1 X56.714 Y70.129 F7800.000
G1 X56.688 Y70.563 E31.84012 F378.000
G1 X56.115 Y70.201 E31.90173
G1 X56.688 Y70.563 F7800.000
G1 X57.710 Y71.234 E32.01293 F378.000
G1 X57.734 Y71.209 F7800.000
G1 X58.004 Y71.356 E32.04091 F378.000
G1 X57.990 Y71.768 E32.07839
G1 X58.184 Y71.297 F7800.000
G1 X58.343 Y71.312 E32.09290 F378.000
G1 X58.378 Y71.295 F7800.000
G1 X58.455 Y71.470 E32.11026 F378.000
G1 F1800.000 E31.11026
G92 E0
G1 X93.659 Y52.318 F7800.000
G1 E1.00000 F1800.000
G1 X94.017 Y52.246 E1.03318 F378.000
G1 X94.016 Y52.245 F7800.000
G1 X94.284 Y52.244 E1.05758 F378.000
G1 X94.172 Y52.315 F7800.000
G1 X94.427 Y52.529 E1.08788 F378.000
G1 F1800.000 E0.08788
G92 E0
G1 X93.350 Y49.861 F7800.000
G1 E1.00000 F1800.000
G1 X71.064 Y27.574 E3.89313 F1080.000
G1 X70.095 Y27.498 E3.98229
G1 X92.831 Y50.234 E6.93373
G1 X92.433 Y50.728 E6.99197
G1 X69.225 Y27.520 E10.00477
G1 X68.398 Y27.585 E10.08092
G1 X92.212 Y51.399 E13.17231
G1 X92.146 Y52.226 E13.24846
G1 X67.571 Y27.650 E16.43876
G1 X66.744 Y27.715 E16.51491
G1 X92.987 Y53.958 E19.92164
G1 X92.830 Y54.694 E19.99068
G1 X65.963 Y27.826 E23.47846
G1 X65.244 Y27.999 E23.54637
G1 X92.674 Y55.429 E27.10724
G1 X92.517 Y56.165 E27.17628
G1 X64.524 Y28.172 E30.81023
G1 X63.805 Y28.344 E30.87815
G1 X92.316 Y56.856 E34.57935
G1 X92.078 Y57.510 E34.64324
G1 X63.085 Y28.517 E38.40692
G1 X62.424 Y28.748 E38.47123
G1 X91.840 Y58.164 E42.28990
G1 X91.602 Y58.818 E42.35379
G1 X61.793 Y29.009 E46.22344
G1 X61.162 Y29.270 E46.28612
G1 X91.364 Y59.472 E50.20675
G1 X91.066 Y60.067 E50.26779
G1 X60.531 Y29.532 E54.23171
G1 X59.900 Y29.793 E54.29439
G1 X90.757 Y60.649 E58.30000
G1 X90.171 Y60.955 E58.36068
G1 X59.307 Y30.091 E62.36733
G1 X58.753 Y30.430 E62.42688
G1 X89.449 Y61.126 E66.41167
G1 X89.027 Y61.596 E66.46965
G1 X58.200 Y30.769 E70.47144
G1 X57.647 Y31.108 E70.53099
G1 X88.688 Y62.149 E74.56059
G1 X88.349 Y62.702 E74.62014
G1 X57.094 Y31.447 E78.67754
G1 X56.543 Y31.788 E78.73703
G1 X88.008 Y63.253 E82.82172
G1 X87.597 Y63.734 E82.87980
G1 X56.062 Y32.199 E86.97358
G1 X55.581 Y32.610 E87.03167
G1 X87.186 Y64.215 E91.13454
G1 X86.775 Y64.696 E91.19263
G1 X71.873 Y49.794 E93.12714
G1 X71.671 Y50.484 E93.19313
G1 X86.364 Y65.177 E95.10055
G1 X85.841 Y65.547 E95.15930
G1 X71.295 Y51.001 E97.04758
G1 X70.920 Y51.518 E97.10621
G1 X85.504 Y66.102 E98.99950
G1 X85.030 Y66.520 E99.05752
G1 X70.544 Y52.034 E100.93802
G1 X69.374 Y51.756 E101.04840
G1 X84.549 Y66.931 E103.01831
G1 X84.068 Y67.342 E103.07639
G1 X52.454 Y35.728 E107.18036
G1 X52.043 Y36.209 E107.23844
G1 X83.587 Y67.753 E111.33329
G1 X83.106 Y68.164 E111.39137
G1 X51.632 Y36.691 E115.47711
G1 X51.221 Y37.172 E115.53519
G1 X82.563 Y68.513 E119.60382
G1 X82.010 Y68.852 E119.66337
G1 X50.810 Y37.653 E123.71354
G1 X50.399 Y38.134 E123.77162
G1 X81.457 Y69.191 E127.80333
G1 X80.903 Y69.530 E127.86288
G1 X50.266 Y38.893 E131.84011
G1 X49.927 Y39.446 E131.89966
G1 X80.350 Y69.869 E135.84908
G1 X79.765 Y70.177 E135.90972
G1 X49.620 Y40.031 E139.82311
G1 X49.358 Y40.662 E139.88579
G1 X79.135 Y70.438 E143.75121
G1 X78.504 Y70.699 E143.81389
G1 X49.097 Y41.292 E147.63134
G1 X48.836 Y41.923 E147.69402
G1 X77.873 Y70.961 E151.46350
G1 X77.242 Y71.222 E151.52618
G1 X48.574 Y42.554 E155.24769
G1 X48.334 Y43.205 E155.31143
G1 X76.591 Y71.463 E158.97967
G1 X75.872 Y71.635 E159.04758
G1 X48.161 Y43.925 E162.64485
G1 X47.988 Y44.644 E162.71276
G1 X75.152 Y71.808 E166.23906
G1 X74.433 Y71.981 E166.30697
G1 X47.815 Y45.364 E169.76229
G1 X47.643 Y46.083 E169.83021
G1 X73.713 Y72.154 E173.21456
G1 X72.945 Y72.277 E173.28599
G1 X47.519 Y46.851 E176.58670
G1 X47.454 Y47.678 E176.66285
G1 X72.118 Y72.343 E179.86466
G1 X71.291 Y72.408 E179.94081
G1 X47.389 Y48.505 E183.04371
G1 X47.323 Y49.332 E183.11986
G1 X70.464 Y72.473 E186.12384
G1 X69.610 Y72.511 E186.20233
G1 X47.286 Y50.186 E189.10034
G1 X47.362 Y51.155 E189.18950
G1 X68.641 Y72.434 E191.95192
G1 X67.673 Y72.358 E192.04108
G1 X47.438 Y52.123 E194.66789
G1 X47.514 Y53.091 E194.75705
G1 X66.705 Y72.282 E197.24827
G1 X65.623 Y72.092 E197.34913
G1 X47.590 Y54.060 E199.68997
G1 X47.286 Y54.648 E199.75073
G1 X64.449 Y71.810 E201.97867
G1 X63.275 Y71.528 E202.08949
G1 X46.788 Y55.042 E204.22971
G1 X47.147 Y56.292 E204.34915
G1 X61.882 Y71.028 E206.26205
G1 X60.359 Y70.397 F7800.000
G1 X47.505 Y57.543 E207.93069 F1080.000
G1 X48.074 Y59.004 F7800.000
G1 X58.460 Y69.390 E209.27899 F1080.000
G1 X55.495 Y67.317 F7800.000
G1 X48.790 Y60.612 E210.14944 F1080.000
G1 X50.060 Y62.774 F7800.000
G1 X53.364 Y66.078 E210.57837 F1080.000
G1 X52.012 Y65.618 F7800.000
G1 X51.555 Y65.161 E210.63773 F1080.000
G1 F1800.000 E209.63773
G92 E0
G1 X67.995 Y50.377 F7800.000
G1 E1.00000 F1800.000
G1 X52.865 Y35.247 E2.96415 F1080.000
G1 X53.276 Y34.766 E3.02223
G1 X67.995 Y49.485 E4.93303
G1 X68.070 Y48.667 E5.00842
G1 X53.694 Y34.292 E6.87461
G1 X54.140 Y33.846 E6.93252
G1 X68.743 Y48.449 E8.82822
G1 X69.416 Y48.230 E8.89321
G1 X54.618 Y33.432 E10.81422
G1 X55.099 Y33.021 E10.87230
G1 X70.090 Y48.011 E12.81826
G1 F1800.000 E11.81826
G92 E0
