; generated by Slic3r 1.0.0RC2 on 2014-01-11 at 16:02:50

; layer_height = 0.25
; perimeters = 1
; top_solid_layers = 5
; bottom_solid_layers = 3
; fill_density = 0.15
; perimeter_speed = 30
; infill_speed = 60
; travel_speed = 130
; nozzle_diameter = 0.35
; filament_diameter = 1.75
; extrusion_multiplier = 1
; perimeters extrusion width = 0.35mm
; infill extrusion width = 0.39mm
; solid infill extrusion width = 0.39mm
; top infill extrusion width = 0.39mm
; first layer extrusion width = 0.70mm

G21 ; set units to millimeters
M107
M104 S220 ; set temperature
G28 ; home all axes
G1 Z5 F5000 ; lift nozzle

M109 S220 ; wait for temperature to be reached
G90 ; use absolute coordinates
G92 E0
M82 ; use absolute distances for extrusion
G1 F1800.000 E-1.00000
G92 E0
G1 Z0.350 F7800.000
G1 X42.950 Y30.295 F7800.000
G1 E1.00000 F1800.000
G1 X43.870 Y29.095 E1.13749 F540.000
G1 X45.020 Y28.115 E1.27488
G1 X50.490 Y24.355 E1.87844
G1 X53.420 Y22.375 E2.19999
G1 X54.310 Y21.855 E2.29372
G1 X57.440 Y20.335 E2.61012
G1 X58.370 Y19.965 E2.70113
G1 X61.690 Y18.885 E3.01858
G1 X62.680 Y18.635 E3.11143
G1 X66.110 Y18.035 E3.42806
G1 X67.110 Y17.925 E3.51953
G1 X70.480 Y17.805 E3.82616
G1 X71.610 Y17.835 E3.92895
G1 X75.070 Y18.205 E4.24536
G1 X76.050 Y18.375 E4.33580
G1 X79.430 Y19.215 E4.65249
G1 X80.400 Y19.535 E4.74537
G1 X83.630 Y20.845 E5.06231
G1 X84.540 Y21.285 E5.15422
G1 X87.550 Y23.025 E5.47036
G1 X88.370 Y23.585 E5.56065
G1 X91.120 Y25.725 E5.87749
G1 X91.590 Y26.115 E5.93303
G1 X94.450 Y28.755 E6.28694
G1 X95.160 Y29.515 E6.38152
G1 X95.750 Y30.365 E6.47560
G1 X97.530 Y33.355 E6.79201
G1 X99.170 Y36.435 E7.10930
G1 X99.580 Y37.365 E7.20172
G1 X100.770 Y40.635 E7.51814
G1 X101.050 Y41.615 E7.61081
G1 X101.770 Y45.025 E7.92772
G1 X101.910 Y46.025 E8.01954
G1 X102.150 Y49.495 E8.33581
G1 X102.150 Y50.495 E8.42674
G1 X101.910 Y53.965 E8.74302
G1 X101.770 Y54.965 E8.83484
G1 X101.040 Y58.455 E9.15905
G1 X98.550 Y69.615 E10.19878
G1 X98.120 Y70.935 E10.32501
G1 X97.440 Y72.145 E10.45122
G1 X96.550 Y73.205 E10.57708
G1 X95.480 Y74.075 E10.70247
G1 X94.250 Y74.725 E10.82897
G1 X83.630 Y79.145 E11.87494
G1 X80.400 Y80.455 E12.19188
G1 X79.430 Y80.765 E12.28448
G1 X76.030 Y81.615 E12.60315
G1 X75.050 Y81.785 E12.69360
G1 X71.590 Y82.145 E13.00991
G1 X70.590 Y82.185 E13.10091
G1 X67.110 Y82.065 E13.41754
G1 X66.110 Y81.955 E13.50901
G1 X62.680 Y81.355 E13.82564
G1 X61.690 Y81.105 E13.91848
G1 X58.370 Y80.025 E14.23594
G1 X57.560 Y79.715 E14.31481
G1 X46.570 Y74.615 E15.41648
G1 X45.290 Y73.855 E15.55184
G1 X44.200 Y72.845 E15.68696
G1 X43.330 Y71.645 E15.82174
G1 X42.730 Y70.295 E15.95607
G1 X39.620 Y60.795 E16.86501
G1 X38.580 Y57.185 E17.20662
G1 X38.370 Y56.205 E17.29775
G1 X37.880 Y52.755 E17.61461
G1 X37.810 Y51.735 E17.70757
G1 X37.810 Y48.255 E18.02401
G1 X37.880 Y47.235 E18.11697
G1 X38.370 Y43.785 E18.43383
G1 X38.580 Y42.805 E18.52496
G1 X39.540 Y39.455 E18.84184
G1 X39.680 Y39.025 E18.88296
G1 X42.300 Y31.655 E19.59420
G1 X42.910 Y30.380 E19.72274
G1 X43.480 Y30.615 F7800.000
G1 X44.330 Y29.525 E19.84842 F540.000
G1 X45.380 Y28.625 E19.97417
G1 X50.890 Y24.835 E20.58227
G1 X53.770 Y22.885 E20.89853
G1 X54.590 Y22.415 E20.98447
G1 X57.720 Y20.895 E21.30087
G1 X58.560 Y20.555 E21.38327
G1 X61.880 Y19.475 E21.70073
G1 X62.790 Y19.245 E21.78607
G1 X66.220 Y18.645 E22.10270
G1 X67.130 Y18.555 E22.18585
G1 X70.510 Y18.425 E22.49342
G1 X71.540 Y18.455 E22.58711
G1 X75.000 Y18.825 E22.90353
G1 X75.900 Y18.985 E22.98664
G1 X79.280 Y19.825 E23.30334
G1 X80.170 Y20.115 E23.38845
G1 X83.400 Y21.425 E23.70539
G1 X84.230 Y21.825 E23.78917
G1 X87.240 Y23.565 E24.10531
G1 X87.990 Y24.075 E24.18778
G1 X90.740 Y26.215 E24.50463
G1 X91.160 Y26.575 E24.55493
G1 X94.020 Y29.215 E24.90884
G1 X94.670 Y29.915 E24.99570
G1 X95.220 Y30.685 E25.08174
G1 X96.980 Y33.655 E25.39566
G1 X98.620 Y36.735 E25.71295
G1 X99.000 Y37.575 E25.79679
G1 X100.190 Y40.845 E26.11320
G1 X100.440 Y41.745 E26.19814
G1 X101.160 Y45.155 E26.51504
G1 X101.290 Y46.065 E26.59863
G1 X101.530 Y49.535 E26.91491
G1 X101.530 Y50.455 E26.99857
G1 X101.290 Y53.925 E27.31484
G1 X101.160 Y54.835 E27.39843
G1 X100.430 Y58.315 E27.72175
G1 X97.940 Y69.475 E28.76148
G1 X97.540 Y70.685 E28.87736
G1 X96.930 Y71.785 E28.99173
G1 X96.110 Y72.755 E29.10723
G1 X95.130 Y73.555 E29.22226
G1 X94.010 Y74.155 E29.33779
G1 X83.450 Y78.545 E30.37768
G1 X80.170 Y79.875 E30.69951
G1 X79.280 Y80.165 E30.78463
G1 X76.470 Y80.865 E31.04795
G1 X75.880 Y81.005 E31.10309
G1 X74.990 Y81.165 E31.18531
G1 X71.530 Y81.525 E31.50163
G1 X70.610 Y81.555 E31.58533
G1 X67.130 Y81.435 E31.90195
G1 X66.220 Y81.345 E31.98510
G1 X62.790 Y80.745 E32.30172
G1 X61.880 Y80.515 E32.38707
G1 X58.560 Y79.435 E32.70453
G1 X57.820 Y79.145 E32.77680
G1 X46.830 Y74.045 E33.87848
G1 X45.670 Y73.355 E34.00120
G1 X44.670 Y72.435 E34.12476
G1 X43.880 Y71.335 E34.24791
G1 X43.320 Y70.095 E34.37162
G1 X40.210 Y60.595 E35.28056
G1 X39.180 Y57.015 E35.61930
G1 X38.990 Y56.115 E35.70294
G1 X38.500 Y52.665 E36.01979
G1 X38.440 Y51.735 E36.10453
G1 X38.440 Y48.255 E36.42097
G1 X38.500 Y47.325 E36.50571
G1 X38.990 Y43.875 E36.82256
G1 X39.180 Y42.975 E36.90620
G1 X40.140 Y39.625 E37.22308
G1 X40.270 Y39.235 E37.26046
G1 X42.890 Y31.865 E37.97170
G1 X43.440 Y30.700 E38.08886
G1 F1800.000 E37.08886
G92 E0
G1 X68.590 Y48.998 F7800.000
G1 E1.00000 F1800.000
G1 X70.496 Y48.378 E1.18226 F540.000
G1 X71.675 Y50.000 E1.36452
G1 X70.496 Y51.622 E1.54677
G1 X68.590 Y51.002 E1.72903
G1 X68.590 Y49.092 E1.90277
G1 X69.215 Y49.452 F7800.000
G1 X70.258 Y49.113 E2.00246 F540.000
G1 X70.902 Y50.000 E2.10215
G1 X70.258 Y50.887 E2.20184
G1 X69.215 Y50.548 E2.30153
G1 X69.215 Y49.546 E2.39270
G1 F1800.000 E1.39270
G92 E0
G1 X49.784 Y37.156 F7800.000
G1 E1.00000 F1800.000
G1 X50.109 Y36.636 E1.05579 F540.000
G1 X50.109 Y35.066 E1.19849
G1 X51.269 Y35.066 E1.30395
G1 X52.718 Y33.340 E1.50886
G1 X55.204 Y31.101 E1.81311
G1 X57.978 Y29.230 E2.11735
G1 X60.515 Y27.993 E2.37395
G1 X60.985 Y27.764 E2.42159
G1 X64.168 Y26.730 E2.72583
G1 X67.463 Y26.149 E3.03008
G1 X70.807 Y26.032 E3.33432
G1 X74.134 Y26.382 E3.63856
G1 X77.381 Y27.191 E3.94281
G1 X80.483 Y28.444 E4.24705
G1 X83.381 Y30.117 E4.55129
G1 X86.017 Y32.177 E4.85554
G1 X88.341 Y34.584 E5.15977
G1 X90.308 Y37.291 E5.46401
G1 X91.879 Y40.245 E5.76826
G1 X93.023 Y43.389 E6.07250
G1 X93.719 Y46.662 E6.37674
G1 X93.952 Y50.000 E6.68099
G1 X93.719 Y53.338 E6.98523
G1 X93.023 Y56.611 E7.28947
G1 X91.879 Y59.755 E7.59372
G1 X90.308 Y62.709 E7.89796
G1 X88.381 Y65.362 E8.19612
G1 X89.587 Y67.065 E8.38586
G1 X88.068 Y67.065 E8.52395
G1 X87.548 Y66.237 E8.61281
G1 X86.017 Y67.823 E8.81322
G1 X83.381 Y69.883 E9.11746
G1 X80.483 Y71.556 E9.42171
G1 X77.381 Y72.809 E9.72595
G1 X74.642 Y73.492 E9.98255
G1 X74.134 Y73.618 E10.03019
G1 X70.807 Y73.968 E10.33443
G1 X67.463 Y73.851 E10.63868
G1 X64.168 Y73.270 E10.94292
G1 X60.985 Y72.236 E11.24716
G1 X57.978 Y70.770 E11.55141
G1 X55.204 Y68.899 E11.85564
G1 X51.619 Y65.671 E12.29433
G1 X51.619 Y67.065 E12.42107
G1 X50.602 Y67.065 E12.51354
G1 X50.602 Y64.153 E12.77831
G1 X48.794 Y61.259 E13.08856
G1 X47.433 Y58.203 E13.39281
G1 X46.511 Y54.986 E13.69705
G1 X46.045 Y51.673 E14.00129
G1 X46.045 Y48.327 E14.30553
G1 X46.511 Y45.014 E14.60978
G1 X47.433 Y41.797 E14.91402
G1 X48.794 Y38.741 E15.21826
G1 X49.735 Y37.236 E15.37965
G1 X49.254 Y36.825 F7800.000
G1 X49.484 Y36.456 E15.41915 F378.000
G1 X49.484 Y34.442 E15.60238
G1 X50.978 Y34.442 E15.73817
G1 X52.267 Y32.905 E15.92056
G1 X54.819 Y30.608 E16.23275
G1 X57.665 Y28.688 E16.54493
G1 X60.751 Y27.183 E16.85712
G1 X64.016 Y26.122 E17.16931
G1 X67.397 Y25.526 E17.48150
G1 X70.828 Y25.406 E17.79369
G1 X74.243 Y25.765 E18.10588
G1 X77.574 Y26.595 E18.41807
G1 X80.758 Y27.881 E18.73026
G1 X83.731 Y29.598 E19.04245
G1 X86.436 Y31.712 E19.35464
G1 X88.821 Y34.181 E19.66682
G1 X89.010 Y34.442 E19.69605
G1 X89.181 Y34.442 E19.71159
G1 X89.181 Y34.677 E19.73297
G1 X90.839 Y36.959 E19.98950
G1 X92.451 Y39.991 E20.30170
G1 X93.625 Y43.217 E20.61388
G1 X94.339 Y46.575 E20.92607
G1 X94.579 Y50.000 E21.23826
G1 X94.339 Y53.425 E21.55045
G1 X93.625 Y56.783 E21.86264
G1 X92.451 Y60.009 E22.17483
G1 X90.839 Y63.041 E22.48702
G1 X89.150 Y65.366 E22.74838
G1 X90.795 Y67.689 E23.00723
G1 X87.723 Y67.689 E23.28658
G1 X87.444 Y67.245 E23.33430
G1 X86.436 Y68.288 E23.46616
G1 X83.731 Y70.402 E23.77835
G1 X80.758 Y72.119 E24.09054
G1 X77.574 Y73.405 E24.40273
G1 X74.794 Y74.098 E24.66331
G1 X74.243 Y74.235 E24.71492
G1 X70.828 Y74.594 E25.02711
G1 X67.397 Y74.474 E25.33930
G1 X64.016 Y73.878 E25.65149
G1 X60.751 Y72.817 E25.96368
G1 X57.665 Y71.312 E26.27587
G1 X54.819 Y69.392 E26.58805
G1 X52.244 Y67.074 E26.90309
G1 X52.244 Y67.689 E26.95905
G1 X49.977 Y67.689 E27.16516
G1 X49.977 Y64.332 E27.47045
G1 X48.241 Y61.553 E27.76838
G1 X46.844 Y58.417 E28.08057
G1 X45.898 Y55.117 E28.39276
G1 X45.420 Y51.717 E28.70495
G1 X45.420 Y48.283 E29.01714
G1 X45.898 Y44.883 E29.32933
G1 X46.844 Y41.583 E29.64152
G1 X48.241 Y38.447 E29.95371
G1 X49.205 Y36.904 E30.11908
G1 X48.260 Y59.023 F7800.000
G1 X61.022 Y71.785 E31.76887 F1080.000
G1 X62.368 Y72.242 F7800.000
G1 X47.688 Y57.563 E33.66642 F1080.000
G1 X47.331 Y56.317 E33.78486
G1 X63.684 Y72.670 E35.89869
G1 X64.868 Y72.966 E36.01027
G1 X46.974 Y55.072 E38.32336
G1 X46.799 Y54.009 E38.42184
G1 X65.946 Y73.156 E40.89694
G1 X67.025 Y73.346 E40.99705
G1 X46.654 Y52.975 E43.63034
G1 X46.509 Y51.942 E43.72575
G1 X68.016 Y73.449 E46.50594
G1 X68.936 Y73.481 E46.59014
G1 X46.467 Y51.011 E49.49474
G1 X46.467 Y50.123 E49.57594
G1 X69.691 Y73.347 E52.57810
G1 X70.495 Y73.263 E52.65198
G1 X46.467 Y49.235 E55.75806
G1 X46.468 Y48.348 E55.83914
G1 X71.299 Y73.178 E59.04897
G1 X72.103 Y73.094 E59.12285
G1 X46.577 Y47.569 E62.42244
G1 X46.687 Y46.790 E62.49433
G1 X72.907 Y73.009 E65.88368
G1 X73.710 Y72.925 E65.95757
G1 X46.796 Y46.011 E69.43668
G1 X46.906 Y45.232 E69.50857
G1 X74.456 Y72.782 E73.06987
G1 X75.167 Y72.604 E73.13686
G1 X47.089 Y44.527 E76.76639
G1 X47.287 Y43.836 E76.83204
G1 X75.878 Y72.427 E80.52791
G1 X76.589 Y72.250 E80.59489
G1 X47.485 Y43.146 E84.35708
G1 X47.683 Y42.456 E84.42273
G1 X77.284 Y72.056 E88.24916
G1 X77.917 Y71.801 E88.31154
G1 X47.900 Y41.785 E92.19166
G1 X48.174 Y41.170 E92.25316
G1 X78.549 Y71.545 E96.17970
G1 X79.182 Y71.290 E96.24208
G1 X48.448 Y40.555 E100.21503
G1 X48.721 Y39.941 E100.27653
G1 X79.815 Y71.034 E104.29590
G1 X80.416 Y70.747 E104.35680
G1 X48.995 Y39.326 E108.41850
G1 X49.294 Y38.736 E108.47892
G1 X80.979 Y70.422 E112.57479
G1 X81.542 Y70.096 E112.63423
G1 X49.635 Y38.190 E116.75874
G1 X49.977 Y37.643 E116.81767
G1 X82.105 Y69.771 E120.97081
G1 X82.669 Y69.446 E121.03026
G1 X50.319 Y37.096 E125.21204
G1 X50.531 Y36.420 E125.27682
G1 X83.202 Y69.091 E129.50009
G1 X83.700 Y68.701 E129.55794
G1 X50.541 Y35.541 E133.84444
G1 X51.376 Y35.488 E133.92093
G1 X84.199 Y68.312 E138.16395
G1 X84.698 Y67.922 E138.22180
G1 X51.830 Y35.054 E142.47055
G1 X52.235 Y34.571 E142.52819
G1 X68.169 Y50.504 E144.58783
G1 X68.169 Y49.616 E144.66904
G1 X52.641 Y34.088 E146.67629
G1 X53.050 Y33.609 E146.73389
G1 X68.169 Y48.727 E148.68827
G1 X68.812 Y48.482 E148.75119
G1 X53.517 Y33.188 E150.72831
G1 X53.985 Y32.767 E150.78581
G1 X69.482 Y48.265 E152.78917
G1 X70.153 Y48.047 E152.85361
G1 X54.452 Y32.346 E154.88322
G1 X54.919 Y31.925 E154.94072
G1 X87.845 Y64.850 E159.19691
G1 X87.420 Y65.314 E159.25438
G1 X72.158 Y50.052 E161.22722
G1 X71.784 Y50.566 E161.28536
G1 X86.983 Y65.766 E163.25011
G1 X86.543 Y66.213 E163.30753
G1 X71.410 Y51.081 E165.26366
G1 X71.037 Y51.595 E165.32180
G1 X86.099 Y66.658 E167.26884
G1 X85.654 Y67.102 E167.32625
G1 X70.663 Y52.110 E169.26420
G1 X69.360 Y51.696 E169.38916
G1 X85.197 Y67.532 E171.43632
G1 X88.219 Y64.336 F7800.000
G1 X55.387 Y31.504 E175.68040 F1080.000
G1 X55.907 Y31.136 E175.73865
G1 X88.593 Y63.821 E179.96383
G1 X88.966 Y63.307 E180.02197
G1 X56.438 Y30.778 E184.22689
G1 X56.968 Y30.420 E184.28539
G1 X89.340 Y62.792 E188.47006
G1 X89.709 Y62.273 E188.52830
G1 X57.499 Y30.062 E192.69204
G1 X58.029 Y29.704 E192.75053
G1 X90.017 Y61.693 E196.88555
G1 X90.326 Y61.113 E196.94559
G1 X58.606 Y29.393 E201.04589
G1 X59.203 Y29.102 E201.10662
G1 X90.634 Y60.533 E205.16959
G1 X90.942 Y59.953 E205.22963
G1 X59.800 Y28.811 E209.25528
G1 X60.397 Y28.519 E209.31601
G1 X91.484 Y59.606 E213.33452
G1 X91.721 Y58.955 E213.39788
G1 X60.995 Y28.228 E217.36985
G1 X61.647 Y27.992 E217.43325
G1 X91.958 Y58.304 E221.35157
G1 X92.195 Y57.652 E221.41492
G1 X62.317 Y27.774 E225.27720
G1 X62.988 Y27.556 E225.34165
G1 X92.432 Y57.001 E229.14790
G1 X92.652 Y56.332 E229.21227
G1 X63.658 Y27.338 E232.96017
G1 X64.336 Y27.128 E233.02505
G1 X92.807 Y55.599 E236.70544
G1 X92.963 Y54.866 E236.77390
G1 X65.091 Y26.995 E240.37680
G1 X65.847 Y26.862 E240.44689
G1 X93.119 Y54.134 E243.97230
G1 X93.274 Y53.401 E244.04076
G1 X66.602 Y26.728 E247.48868
G1 X67.357 Y26.595 E247.55877
G1 X93.349 Y52.587 E250.91867
G1 X93.407 Y51.757 E250.99475
G1 X68.195 Y26.545 E254.25385
G1 X69.053 Y26.515 E254.33235
G1 X93.465 Y50.927 E257.48800
G1 X93.523 Y50.096 E257.56407
G1 X69.912 Y26.485 E260.61626
G1 X70.770 Y26.455 E260.69477
G1 X93.471 Y49.156 E263.62924
G1 X93.404 Y48.200 E263.71676
G1 X71.759 Y26.556 E266.51471
G1 X72.752 Y26.660 E266.60595
G1 X93.337 Y47.245 E269.26694
G1 X93.192 Y46.212 E269.36230
G1 X73.745 Y26.765 E271.87625
G1 X74.867 Y26.999 E271.98109
G1 X92.952 Y45.084 E274.31891
G1 X92.713 Y43.956 E274.42433
G1 X76.051 Y27.294 E276.57817
G1 X77.234 Y27.589 E276.68966
G1 X92.311 Y42.666 E278.63865
G1 X91.803 Y41.269 F7800.000
G1 X78.721 Y28.187 E280.32978 F1080.000
G1 X80.211 Y28.789 F7800.000
G1 X91.100 Y39.678 E281.73731 F1080.000
G1 X90.091 Y37.781 F7800.000
G1 X82.278 Y29.967 E282.74732 F1080.000
G1 X85.531 Y32.333 F7800.000
G1 X86.984 Y33.786 E282.93515 F1080.000
G1 F1800.000 E281.93515
G92 E0
G1 X59.288 Y70.940 F7800.000
G1 E1.00000 F1800.000
G1 X48.973 Y60.624 E2.33346 F1080.000
G1 X50.243 Y62.783 F7800.000
G1 X57.189 Y69.729 E3.23136 F1080.000
G1 X52.184 Y65.612 F7800.000
G1 X51.728 Y65.156 E3.29025 F1080.000
G1 X51.181 Y65.046 F7800.000
G1 X51.060 Y64.925 E3.29773 F360.000
G1 X51.181 Y65.046 F7800.000
G1 X51.040 Y65.328 E3.31145 F360.000
G1 X51.181 Y65.469 E3.32019 F360.000
G1 X51.040 Y65.751 E3.33391 F360.000
G1 X51.181 Y65.893 E3.34266 F360.000
G1 X51.040 Y66.174 E3.35638 F360.000
G1 X51.181 Y66.316 E3.36512 F360.000
G1 X51.040 Y66.597 E3.37884 F360.000
G1 X51.069 Y66.627 E3.38068 F360.000
G1 X87.965 Y65.558 F7800.000
G1 X88.069 Y65.662 E3.39133 F360.000
G1 X88.239 Y66.533 E3.45540 F360.000
G1 X88.343 Y66.637 E3.46597 F360.000
M104 S220 ; set temperature
G1 F1800.000 E2.46597
G92 E0
G1 Z0.600 F7800.000
G1 X75.593 Y54.161 F7800.000
G1 E1.00000 F1800.000
G1 X74.353 Y55.497 E1.06631 F1800
G1 X72.538 Y56.545 E1.14256
G1 X70.495 Y57.011 E1.21880
G1 X68.405 Y56.855 E1.29504
G1 X66.454 Y56.089 E1.37128
G1 X64.816 Y54.782 E1.44752
G1 X63.635 Y53.051 E1.52377
G1 X63.017 Y51.048 E1.60001
G1 X63.017 Y48.952 E1.67625
G1 X63.554 Y47.210 E1.74257
G1 X63.635 Y46.949 E1.75249
G1 X64.816 Y45.218 E1.82873
G1 X66.454 Y43.911 E1.90498
G1 X68.405 Y43.145 E1.98122
G1 X70.495 Y42.989 E2.05746
G1 X72.538 Y43.455 E2.13370
G1 X74.353 Y44.503 E2.20994
G1 X75.779 Y46.039 E2.28619
G1 X76.688 Y47.928 E2.36243
G1 X77.000 Y50.000 E2.43867
G1 X76.688 Y52.072 E2.51491
G1 X75.779 Y53.961 E2.59115
G1 X75.629 Y54.122 E2.59917
G1 X75.337 Y53.923 F7800.000
G1 X74.133 Y55.220 E2.66357 F1260
G1 X72.409 Y56.215 E2.73597
G1 X70.469 Y56.658 E2.80838
G1 X68.484 Y56.510 E2.88078
G1 X66.631 Y55.782 E2.95318
G1 X65.075 Y54.541 E3.02559
G1 X63.954 Y52.897 E3.09799
G1 X63.367 Y50.995 E3.17039
G1 X63.367 Y49.005 E3.24280
G1 X63.889 Y47.313 E3.30719
G1 X63.954 Y47.103 E3.31520
G1 X65.075 Y45.459 E3.38761
G1 X66.631 Y44.218 E3.46001
G1 X68.484 Y43.490 E3.53241
G1 X70.469 Y43.342 E3.60482
G1 X72.409 Y43.785 E3.67722
G1 X74.133 Y44.780 E3.74962
G1 X75.486 Y46.239 E3.82203
G1 X76.350 Y48.032 E3.89443
G1 X76.647 Y50.000 E3.96684
G1 X76.350 Y51.968 E4.03924
G1 X75.486 Y53.761 E4.11164
G1 X75.372 Y53.884 E4.11774
