; generated by Slic3r 1.0.0RC2 on 2014-01-11 at 16:41:18

; layer_height = 0.25
; perimeters = 1
; top_solid_layers = 5
; bottom_solid_layers = 3
; fill_density = 0.15
; perimeter_speed = 30
; infill_speed = 60
; travel_speed = 130
; nozzle_diameter = 0.35
; filament_diameter = 1.75
; extrusion_multiplier = 1
; perimeters extrusion width = 0.35mm
; infill extrusion width = 0.39mm
; solid infill extrusion width = 0.39mm
; top infill extrusion width = 0.39mm
; first layer extrusion width = 0.70mm

G21 ; set units to millimeters
M107
M104 S220 ; set temperature
G28 ; home all axes
G1 Z5 F5000 ; lift nozzle

M109 S220 ; wait for temperature to be reached
G90 ; use absolute coordinates
G92 E0
M82 ; use absolute distances for extrusion
G1 F1800.000 E-1.00000
G92 E0
G1 Z0.350 F7800.000
G1 X43.144 Y29.744 F7800.000
G1 E1.00000 F1800.000
G1 X44.164 Y28.644 E1.13641 F540.000
G1 X45.384 Y27.774 E1.27266
G1 X55.494 Y22.064 E2.32845
G1 X56.264 Y21.684 E2.40652
G1 X60.054 Y20.384 E2.77086
G1 X60.694 Y20.194 E2.83156
G1 X64.344 Y19.314 E3.17296
G1 X65.484 Y19.134 E3.27791
G1 X69.234 Y18.844 E3.61991
G1 X70.354 Y18.844 E3.72175
G1 X74.094 Y19.134 E4.06285
G1 X75.234 Y19.314 E4.16779
G1 X78.884 Y20.194 E4.50920
G1 X79.944 Y20.544 E4.61070
G1 X83.414 Y21.974 E4.95197
G1 X84.444 Y22.494 E5.05689
G1 X87.644 Y24.454 E5.39810
G1 X93.204 Y27.944 E5.99502
G1 X94.364 Y28.844 E6.12852
G1 X95.324 Y29.964 E6.26265
G1 X96.034 Y31.254 E6.39654
G1 X99.394 Y39.194 E7.18051
G1 X99.644 Y39.894 E7.24810
G1 X101.564 Y46.154 E7.84349
G1 X101.764 Y46.954 E7.91847
G1 X101.864 Y47.774 E7.99359
G1 X101.984 Y49.484 E8.14946
G1 X101.984 Y50.494 E8.24130
G1 X101.734 Y54.004 E8.56127
G1 X101.594 Y54.964 E8.64948
G1 X100.864 Y58.454 E8.97370
G1 X98.374 Y69.614 E10.01342
G1 X97.914 Y70.994 E10.14569
G1 X97.184 Y72.264 E10.27889
G1 X96.224 Y73.354 E10.41096
G1 X95.054 Y74.234 E10.54409
G1 X93.744 Y74.854 E10.67587
G1 X85.964 Y77.644 E11.42742
G1 X79.294 Y79.684 E12.06165
G1 X78.864 Y79.804 E12.10224
G1 X75.214 Y80.674 E12.44343
G1 X74.114 Y80.854 E12.54479
G1 X70.374 Y81.154 E12.88596
G1 X69.214 Y81.154 E12.99143
G1 X65.464 Y80.854 E13.33351
G1 X64.594 Y80.724 E13.41350
G1 X56.694 Y79.114 E14.14661
G1 X55.894 Y78.904 E14.22181
G1 X55.124 Y78.604 E14.29696
G1 X46.434 Y74.624 E15.16607
G1 X45.154 Y73.864 E15.30143
G1 X44.044 Y72.864 E15.43728
G1 X43.174 Y71.654 E15.57279
G1 X42.564 Y70.294 E15.70832
G1 X39.444 Y60.794 E16.61755
G1 X38.404 Y57.184 E16.95915
G1 X38.194 Y56.184 E17.05207
G1 X38.054 Y55.174 E17.14478
G1 X37.984 Y54.254 E17.22868
G1 X38.034 Y53.324 E17.31337
G1 X38.964 Y45.404 E18.03848
G1 X39.094 Y44.634 E18.10948
G1 X41.884 Y32.464 E19.24481
G1 X42.374 Y31.044 E19.38140
G1 X43.096 Y29.825 E19.51026
G1 X43.644 Y30.124 F7800.000
G1 X44.574 Y29.114 E19.63510 F540.000
G1 X45.694 Y28.314 E19.76026
G1 X55.804 Y22.604 E20.81604
G1 X56.504 Y22.264 E20.88680
G1 X60.254 Y20.974 E21.24740
G1 X60.844 Y20.804 E21.30323
G1 X64.494 Y19.924 E21.64464
G1 X65.534 Y19.754 E21.74046
G1 X69.284 Y19.464 E22.08246
G1 X70.304 Y19.464 E22.17521
G1 X74.044 Y19.754 E22.51631
G1 X75.084 Y19.924 E22.61213
G1 X78.734 Y20.804 E22.95353
G1 X79.704 Y21.114 E23.04613
G1 X83.174 Y22.544 E23.38740
G1 X84.114 Y23.024 E23.48337
G1 X87.314 Y24.984 E23.82459
G1 X92.874 Y28.474 E24.42150
G1 X93.934 Y29.294 E24.54336
G1 X94.804 Y30.324 E24.66596
G1 X95.454 Y31.504 E24.78846
G1 X98.814 Y39.444 E25.57242
G1 X99.044 Y40.084 E25.63426
G1 X100.964 Y46.344 E26.22965
G1 X101.144 Y47.074 E26.29802
G1 X101.244 Y47.824 E26.36682
G1 X101.364 Y49.534 E26.52269
G1 X101.364 Y50.454 E26.60635
G1 X101.214 Y52.614 E26.80323
G1 X101.114 Y53.954 E26.92541
G1 X100.984 Y54.834 E27.00630
G1 X100.254 Y58.314 E27.32962
G1 X97.764 Y69.474 E28.36934
G1 X97.344 Y70.744 E28.49098
G1 X96.674 Y71.894 E28.61200
G1 X95.794 Y72.894 E28.73312
G1 X94.734 Y73.694 E28.85388
G1 X93.534 Y74.274 E28.97507
G1 X85.754 Y77.064 E29.72662
G1 X79.114 Y79.094 E30.35797
G1 X75.074 Y80.064 E30.73577
G1 X74.064 Y80.224 E30.82875
G1 X70.324 Y80.524 E31.16992
G1 X69.264 Y80.524 E31.26631
G1 X65.514 Y80.224 E31.60838
G1 X64.724 Y80.114 E31.68091
G1 X56.824 Y78.504 E32.41402
G1 X56.094 Y78.314 E32.48261
G1 X55.384 Y78.034 E32.55201
G1 X46.694 Y74.054 E33.42112
G1 X45.524 Y73.364 E33.54463
G1 X44.514 Y72.444 E33.66886
G1 X43.714 Y71.344 E33.79254
G1 X43.164 Y70.104 E33.91588
G1 X39.964 Y60.364 E34.84811
G1 X39.004 Y57.014 E35.16499
G1 X38.814 Y56.094 E35.25041
G1 X38.674 Y55.084 E35.34312
G1 X38.614 Y54.244 E35.41970
G1 X38.654 Y53.404 E35.49617
G1 X39.584 Y45.484 E36.22128
G1 X39.704 Y44.774 E36.28675
G1 X42.494 Y32.604 E37.42207
G1 X42.944 Y31.304 E37.54716
G1 X43.596 Y30.205 E37.66340
G1 F1800.000 E36.66340
G92 E0
G1 X68.417 Y48.998 F7800.000
G1 E1.00000 F1800.000
G1 X70.323 Y48.378 E1.18226 F540.000
G1 X71.501 Y50.000 E1.36451
G1 X70.323 Y51.622 E1.54677
G1 X68.417 Y51.002 E1.72903
G1 X68.417 Y49.092 E1.90277
G1 X69.042 Y49.452 F7800.000
G1 X70.084 Y49.113 E2.00246 F540.000
G1 X70.729 Y50.000 E2.10215
G1 X70.084 Y50.887 E2.20184
G1 X69.042 Y50.548 E2.30153
G1 X69.042 Y49.546 E2.39270
G1 F1800.000 E1.39270
G92 E0
G1 X49.936 Y38.624 F7800.000
G1 E1.00000 F1800.000
G1 X49.936 Y38.027 E1.05426 F540.000
G1 X53.570 Y33.773 E1.56298
G1 X56.308 Y31.435 E1.89042
G1 X59.235 Y29.641 E2.20261
G1 X59.293 Y29.558 E2.21176
G1 X59.559 Y29.340 E2.24305
G1 X59.717 Y29.413 E2.25890
G1 X62.705 Y28.175 E2.55295
G1 X66.206 Y27.334 E2.88039
G1 X69.796 Y27.052 E3.20782
G1 X73.386 Y27.334 E3.53526
G1 X76.888 Y28.175 E3.86269
G1 X80.214 Y29.553 E4.19013
G1 X83.285 Y31.435 E4.51756
G1 X86.023 Y33.773 E4.84500
G1 X87.128 Y35.066 E4.99964
G1 X88.383 Y35.066 E5.11379
G1 X88.383 Y36.546 E5.24834
G1 X90.243 Y39.582 E5.57207
G1 X91.196 Y41.883 E5.79856
G1 X91.588 Y42.095 E5.83909
G1 X91.775 Y42.229 E5.85999
G1 X91.711 Y42.602 E5.89441
G1 X91.679 Y43.150 E5.94432
G1 X92.462 Y46.410 E6.24917
G1 X92.556 Y47.607 E6.35836
G1 X92.984 Y48.137 E6.42023
G1 X93.217 Y48.363 E6.44980
G1 X93.693 Y48.772 E6.50686
G1 X93.790 Y50.154 E6.63286
G1 X93.461 Y50.292 E6.66530
G1 X93.206 Y50.458 E6.69300
G1 X92.982 Y50.675 E6.72129
G1 X92.796 Y50.944 E6.75110
G1 X92.638 Y51.357 E6.79130
G1 X92.493 Y53.193 E6.95875
G1 X93.523 Y53.444 E7.05515
G1 X92.850 Y56.611 E7.34952
G1 X91.706 Y59.755 E7.65376
G1 X90.994 Y61.092 E7.79153
G1 X90.078 Y61.442 E7.88070
G1 X89.559 Y61.535 E7.92863
G1 X88.362 Y63.488 E8.13701
G1 X86.611 Y65.537 E8.38209
G1 X88.161 Y65.296 E8.52476
G1 X89.414 Y67.065 E8.72181
G1 X87.895 Y67.065 E8.85990
G1 X87.375 Y66.237 E8.94876
G1 X86.732 Y66.903 E9.03289
G1 X86.390 Y66.806 E9.06525
G1 X86.125 Y66.140 E9.13046
G1 X83.518 Y68.366 E9.44222
G1 X83.671 Y68.578 E9.46599
G1 X83.530 Y68.822 E9.49164
G1 X83.414 Y69.310 E9.53723
G1 X82.748 Y68.894 E9.60863
G1 X80.214 Y70.447 E9.87884
G1 X76.888 Y71.825 E10.20628
G1 X73.386 Y72.666 E10.53371
G1 X69.796 Y72.948 E10.86115
G1 X66.206 Y72.666 E11.18858
G1 X62.705 Y71.825 E11.51602
G1 X60.077 Y70.737 E11.77464
G1 X59.996 Y70.755 E11.78222
G1 X59.864 Y70.648 E11.79766
G1 X59.378 Y70.447 E11.84549
G1 X56.308 Y68.565 E12.17292
G1 X53.751 Y66.382 E12.47866
G1 X53.597 Y67.608 E12.59100
G1 X51.446 Y65.671 E12.85423
G1 X51.446 Y67.065 E12.98098
G1 X50.429 Y67.065 E13.07345
G1 X50.429 Y64.153 E13.33821
G1 X48.621 Y61.259 E13.64847
G1 X47.260 Y58.203 E13.95271
G1 X46.338 Y54.986 E14.25695
G1 X46.294 Y54.678 E14.28526
G1 X47.181 Y54.228 E14.37566
G1 X46.848 Y50.000 E14.76134
G1 X47.131 Y46.410 E15.08878
G1 X47.971 Y42.909 E15.41621
G1 X49.349 Y39.582 E15.74366
G1 X49.887 Y38.704 E15.83724
G1 X49.311 Y38.448 F7800.000
G1 X49.311 Y34.442 E16.20155 F378.000
G1 X50.788 Y34.442 E16.33586
G1 X50.788 Y36.068 E16.48371
G1 X53.126 Y33.330 E16.81106
G1 X55.939 Y30.927 E17.14744
G1 X58.799 Y29.175 E17.45239
G1 X58.834 Y29.125 E17.45802
G1 X59.096 Y28.916 E17.48847
G1 X59.255 Y28.726 E17.51098
G1 X59.390 Y28.722 E17.52322
G1 X59.615 Y28.678 E17.54407
G1 X59.730 Y28.731 E17.55560
G1 X62.511 Y27.579 E17.82931
G1 X66.108 Y26.715 E18.16569
G1 X69.796 Y26.425 E18.50207
G1 X73.484 Y26.715 E18.83845
G1 X77.081 Y27.579 E19.17483
G1 X80.499 Y28.995 E19.51121
G1 X83.653 Y30.927 E19.84759
G1 X86.466 Y33.330 E20.18397
G1 X87.416 Y34.442 E20.31688
G1 X89.008 Y34.442 E20.46166
G1 X89.008 Y36.370 E20.63701
G1 X90.802 Y39.297 E20.94919
G1 X91.689 Y41.439 E21.15998
G1 X91.921 Y41.564 E21.18395
G1 X92.101 Y41.694 E21.20416
G1 X92.218 Y41.825 E21.22012
G1 X92.402 Y42.174 E21.25603
G1 X92.398 Y42.301 E21.26754
G1 X92.330 Y42.687 E21.30321
G1 X92.306 Y43.083 E21.33930
G1 X93.081 Y46.312 E21.64126
G1 X93.164 Y47.373 E21.73799
G1 X93.437 Y47.706 E21.77715
G1 X93.642 Y47.905 E21.80312
G1 X94.298 Y48.460 E21.88127
G1 X94.405 Y50.000 E22.02161
G1 X94.356 Y50.714 E22.08672
G1 X93.985 Y50.750 E22.12058
G1 X93.755 Y50.846 E22.14329
G1 X93.597 Y50.949 E22.16042
G1 X93.461 Y51.080 E22.17758
G1 X93.353 Y51.238 E22.19493
G1 X93.253 Y51.497 E22.22016
G1 X93.158 Y52.712 E22.33100
G1 X94.198 Y52.965 E22.42836
G1 X94.166 Y53.425 E22.47027
G1 X93.452 Y56.783 E22.78246
G1 X92.278 Y60.009 E23.09465
G1 X91.383 Y61.693 E23.26797
G1 X91.075 Y61.731 E23.29620
G1 X90.245 Y62.047 E23.37692
G1 X89.945 Y62.100 E23.40466
G1 X88.869 Y63.857 E23.59198
G1 X88.182 Y64.661 E23.68809
G1 X89.656 Y64.431 E23.82372
G1 X88.977 Y65.366 E23.92882
G1 X90.622 Y67.689 E24.18768
G1 X87.550 Y67.689 E24.46702
G1 X87.270 Y67.245 E24.51475
G1 X86.820 Y67.711 E24.57365
G1 X86.561 Y67.504 E24.60385
G1 X86.349 Y67.444 E24.62383
G1 X85.989 Y67.490 E24.65685
G1 X85.867 Y67.182 E24.68703
G1 X84.362 Y68.467 E24.86696
G1 X84.449 Y68.587 E24.88043
G1 X84.217 Y68.882 E24.91454
G1 X84.117 Y69.056 E24.93276
G1 X84.066 Y69.270 E24.95278
G1 X84.111 Y69.482 E24.97249
G1 X84.278 Y69.839 E25.00837
G1 X83.609 Y70.362 E25.08556
G1 X83.358 Y70.074 E25.12028
G1 X82.978 Y69.774 E25.16433
G1 X82.745 Y69.629 E25.18924
G1 X80.499 Y71.005 E25.42877
G1 X77.081 Y72.421 E25.76515
G1 X73.484 Y73.285 E26.10153
G1 X69.796 Y73.575 E26.43791
G1 X66.108 Y73.285 E26.77429
G1 X62.511 Y72.421 E27.11067
G1 X60.022 Y71.390 E27.35564
G1 X59.952 Y71.406 E27.36222
G1 X59.801 Y71.397 E27.37598
G1 X59.541 Y71.191 E27.40613
G1 X59.093 Y71.005 E27.45020
G1 X55.939 Y69.073 E27.78657
G1 X54.227 Y67.610 E27.99137
G1 X54.068 Y68.873 E28.10710
G1 X52.071 Y67.074 E28.35150
G1 X52.071 Y67.689 E28.40746
G1 X49.804 Y67.689 E28.61357
G1 X49.804 Y64.332 E28.91886
G1 X48.068 Y61.553 E29.21680
G1 X46.671 Y58.417 E29.52899
G1 X45.725 Y55.117 E29.84118
G1 X45.616 Y54.346 E29.91192
G1 X46.525 Y53.860 E30.00561
G1 X46.221 Y50.000 E30.35772
G1 X46.512 Y46.312 E30.69409
G1 X47.375 Y42.715 E31.03047
G1 X48.791 Y39.297 E31.36686
G1 X49.262 Y38.528 E31.44889
G1 X54.538 Y69.450 F7800.000
G1 X54.803 Y69.398 E31.47341 F378.000
G1 X54.590 Y68.740 E31.53629
G1 X54.803 Y69.398 F7800.000
G1 X55.200 Y69.638 E31.57849 F378.000
G1 X55.376 Y69.303 E31.61296
G1 X55.200 Y69.638 F7800.000
G1 X55.692 Y69.920 E31.66451 F378.000
G1 X55.851 Y69.463 E31.70852
G1 X55.692 Y69.920 F7800.000
G1 X56.117 Y70.198 E31.75472 F378.000
G1 X56.435 Y69.985 E31.78953
G1 X56.713 Y70.130 F7800.000
G1 X56.687 Y70.563 E31.82896 F378.000
G1 X56.117 Y70.198 E31.89051
G1 X56.687 Y70.563 F7800.000
G1 X57.470 Y70.995 E31.97186 F378.000
G1 X57.714 Y71.195 E32.00050
G1 X57.633 Y71.290 E32.01185
G1 X57.714 Y71.195 F7800.000
G1 X58.343 Y71.312 E32.07003 F378.000
G1 X58.454 Y71.469 F7800.000
G1 X58.343 Y71.312 E32.08749 F378.000
G1 X58.541 Y71.285 E32.10568
G1 X57.954 Y71.315 F7800.000
G1 X58.004 Y71.779 E32.14811 F378.000
G1 F1800.000 E31.14811
G92 E0
G1 X93.658 Y52.317 F7800.000
G1 E1.00000 F1800.000
G1 X94.303 Y52.239 E1.05907 F378.000
G1 X94.172 Y52.317 F7800.000
G1 X94.420 Y52.537 E1.08923 F378.000
G1 F1800.000 E0.08923
G92 E0
G1 X93.347 Y49.857 F7800.000
G1 E1.00000 F1800.000
G1 X71.065 Y27.575 E3.89232 F1080.000
G1 X70.096 Y27.498 E3.98147
G1 X92.832 Y50.234 E6.93264
G1 X92.433 Y50.728 E6.99087
G1 X69.226 Y27.520 E10.00339
G1 X68.399 Y27.585 E10.07953
G1 X92.212 Y51.398 E13.17059
G1 X92.147 Y52.225 E13.24673
G1 X67.572 Y27.650 E16.43669
G1 X66.745 Y27.715 E16.51283
G1 X92.984 Y53.954 E19.91882
G1 X92.827 Y54.690 E19.98785
G1 X65.964 Y27.826 E23.47489
G1 X65.244 Y27.999 E23.54279
G1 X92.671 Y55.425 E27.10291
G1 X92.515 Y56.161 E27.17194
G1 X64.525 Y28.172 E30.80513
G1 X63.806 Y28.344 E30.87304
G1 X92.314 Y56.852 E34.57351
G1 X92.076 Y57.506 E34.63739
G1 X63.086 Y28.517 E38.40034
G1 X62.425 Y28.747 E38.46465
G1 X91.837 Y58.160 E42.28258
G1 X91.599 Y58.814 E42.34647
G1 X61.794 Y29.009 E46.21538
G1 X61.163 Y29.270 E46.27805
G1 X91.361 Y59.468 E50.19794
G1 X91.064 Y60.063 E50.25898
G1 X60.532 Y29.531 E54.22219
G1 X59.902 Y29.792 E54.28486
G1 X90.755 Y60.645 E58.28975
G1 X90.172 Y60.955 E58.35030
G1 X59.308 Y30.091 E62.35667
G1 X58.755 Y30.429 E62.41622
G1 X89.451 Y61.126 E66.40076
G1 X89.028 Y61.595 E66.45873
G1 X58.201 Y30.768 E70.46016
G1 X57.648 Y31.107 E70.51971
G1 X88.689 Y62.148 E74.54894
G1 X88.350 Y62.701 E74.60849
G1 X57.095 Y31.446 E78.66553
G1 X56.544 Y31.787 E78.72501
G1 X88.009 Y63.252 E82.80938
G1 X87.598 Y63.733 E82.86745
G1 X56.063 Y32.198 E86.96091
G1 X52.866 Y35.246 F7800.000
G1 X67.995 Y50.375 E88.92476 F1080.000
G1 X67.995 Y49.483 E89.00664
G1 X53.277 Y34.765 E90.91715
G1 X53.695 Y34.290 E90.97516
G1 X68.071 Y48.667 E92.84130
G1 X68.745 Y48.448 E92.90628
G1 X54.141 Y33.844 E94.80192
G1 X54.619 Y33.431 E94.85996
G1 X69.418 Y48.229 E96.78090
G1 X70.091 Y48.011 E96.84588
G1 X55.101 Y33.020 E98.79175
G1 X55.582 Y32.609 E98.84983
G1 X87.187 Y64.214 E102.95238
G1 X86.776 Y64.695 E103.01046
G1 X71.867 Y49.786 E104.94573
G1 X71.671 Y50.483 E105.01214
G1 X86.365 Y65.176 E106.91943
G1 X85.843 Y65.547 E106.97816
G1 X71.296 Y50.999 E108.86645
G1 X70.921 Y51.516 E108.92507
G1 X85.505 Y66.101 E110.81824
G1 X85.032 Y66.519 E110.87625
G1 X70.545 Y52.033 E112.75665
G1 X69.378 Y51.758 E112.86672
G1 X84.551 Y66.930 E114.83617
G1 X84.069 Y67.341 E114.89425
G1 X52.455 Y35.727 E118.99793
G1 X52.044 Y36.208 E119.05601
G1 X83.588 Y67.752 E123.15058
G1 X83.107 Y68.163 E123.20866
G1 X51.633 Y36.689 E127.29412
G1 X51.222 Y37.170 E127.35219
G1 X82.565 Y68.512 E131.42058
G1 X82.012 Y68.851 E131.48012
G1 X50.812 Y37.651 E135.53005
G1 X50.401 Y38.132 E135.58813
G1 X81.458 Y69.190 E139.61960
G1 X80.905 Y69.529 E139.67914
G1 X50.267 Y38.891 E143.65617
G1 X49.928 Y39.444 E143.71571
G1 X80.352 Y69.868 E147.66493
G1 X79.768 Y70.176 E147.72555
G1 X49.621 Y40.029 E151.63883
G1 X49.359 Y40.659 E151.70149
G1 X79.137 Y70.437 E155.56680
G1 X78.506 Y70.698 E155.62947
G1 X49.098 Y41.290 E159.44682
G1 X48.837 Y41.921 E159.50949
G1 X77.875 Y70.960 E163.27887
G1 X77.245 Y71.221 E163.34154
G1 X48.575 Y42.552 E167.06296
G1 X48.334 Y43.203 E167.12667
G1 X76.594 Y71.462 E170.79492
G1 X75.874 Y71.635 E170.86282
G1 X48.162 Y43.922 E174.46010
G1 X47.989 Y44.641 E174.52801
G1 X75.155 Y71.807 E178.05433
G1 X74.436 Y71.980 E178.12223
G1 X47.816 Y45.361 E181.57759
G1 X47.643 Y46.080 E181.64550
G1 X73.716 Y72.153 E185.02990
G1 X72.949 Y72.277 E185.10128
G1 X47.519 Y46.848 E188.40218
G1 X47.454 Y47.675 E188.47831
G1 X72.122 Y72.342 E191.68031
G1 X71.295 Y72.407 E191.75645
G1 X47.389 Y48.502 E194.85956
G1 X47.324 Y49.329 E194.93570
G1 X70.468 Y72.472 E197.93991
G1 X69.614 Y72.511 E198.01833
G1 X47.285 Y50.182 E200.91675
G1 X47.361 Y51.150 E201.00589
G1 X68.646 Y72.435 E203.76873
G1 X67.678 Y72.359 E203.85788
G1 X47.438 Y52.119 E206.48514
G1 X47.514 Y53.087 E206.57429
G1 X66.709 Y72.282 E209.06597
G1 X65.628 Y72.093 E209.16671
G1 X47.590 Y54.055 E211.50816
G1 X47.289 Y54.646 E211.56905
G1 X64.454 Y71.811 E213.79720
G1 X63.281 Y71.530 E213.90800
G1 X46.792 Y55.041 E216.04837
G1 X47.150 Y56.291 E216.16779
G1 X61.890 Y71.031 E218.08111
G1 X60.367 Y70.400 F7800.000
G1 X47.509 Y57.542 E219.75020 F1080.000
G1 X48.077 Y59.003 F7800.000
G1 X58.472 Y69.398 E221.09953 F1080.000
G1 X55.528 Y67.345 F7800.000
G1 X48.793 Y60.611 E221.97369 F1080.000
G1 X50.063 Y62.773 F7800.000
G1 X53.365 Y66.074 E222.40222 F1080.000
G1 X52.012 Y65.613 F7800.000
G1 X51.555 Y65.156 E222.46157 F1080.000
G1 X92.146 Y47.764 F7800.000
G1 X72.033 Y27.651 E225.07232 F1080.000
