; generated by Slic3r 1.0.0RC2 on 2014-01-11 at 12:57:53

; layer_height = 0.25
; perimeters = 1
; top_solid_layers = 5
; bottom_solid_layers = 3
; fill_density = 0.15
; perimeter_speed = 30
; infill_speed = 60
; travel_speed = 130
; nozzle_diameter = 0.35
; filament_diameter = 1.75
; extrusion_multiplier = 1
; perimeters extrusion width = 0.35mm
; infill extrusion width = 0.39mm
; solid infill extrusion width = 0.39mm
; top infill extrusion width = 0.39mm
; first layer extrusion width = 0.70mm

G21 ; set units to millimeters
M107
M104 S220 ; set temperature
G28 ; home all axes
G1 Z5 F5000 ; lift nozzle

M109 S220 ; wait for temperature to be reached
G90 ; use absolute coordinates
G92 E0
M82 ; use absolute distances for extrusion
G1 F1800.000 E-1.00000
G92 E0
G1 Z0.350 F7800.000
G1 X39.623 Y28.613 F7800.000
G1 E1.00000 F1800.000
G1 X40.282 Y27.712 E1.10148 F540.000
G1 X43.322 Y24.143 E1.52785
G1 X44.142 Y23.323 E1.63330
G1 X47.712 Y20.283 E2.05966
G1 X48.612 Y19.623 E2.16115
G1 X52.612 Y17.163 E2.58814
G1 X53.653 Y16.643 E2.69387
G1 X57.992 Y14.853 E3.12076
G1 X59.053 Y14.503 E3.22226
G1 X63.612 Y13.403 E3.64879
G1 X64.743 Y13.223 E3.75284
G1 X69.453 Y12.863 E4.18236
G1 X70.552 Y12.863 E4.28239
G1 X75.233 Y13.223 E4.70919
G1 X76.373 Y13.403 E4.81414
G1 X80.933 Y14.503 E5.24067
G1 X81.993 Y14.853 E5.34217
G1 X86.332 Y16.643 E5.76906
G1 X87.373 Y17.163 E5.87479
G1 X91.373 Y19.623 E6.30178
G1 X92.273 Y20.283 E6.40327
G1 X95.843 Y23.323 E6.82963
G1 X96.653 Y24.133 E6.93379
G1 X99.703 Y27.703 E7.36075
G1 X100.373 Y28.623 E7.46424
G1 X102.822 Y32.623 E7.89076
G1 X103.343 Y33.633 E7.99406
G1 X105.142 Y37.972 E8.42129
G1 X105.492 Y39.062 E8.52538
G1 X106.582 Y43.623 E8.95170
G1 X106.763 Y44.742 E9.05485
G1 X107.132 Y49.422 E9.48173
G1 X107.132 Y50.562 E9.58539
G1 X106.763 Y55.242 E10.01227
G1 X106.582 Y56.362 E10.11542
G1 X105.492 Y60.922 E10.54174
G1 X105.142 Y62.012 E10.64583
G1 X103.343 Y66.352 E11.07306
G1 X102.822 Y67.362 E11.17636
G1 X100.373 Y71.362 E11.60288
G1 X99.703 Y72.282 E11.70637
G1 X96.653 Y75.852 E12.13333
G1 X95.852 Y76.653 E12.23620
G1 X92.282 Y79.703 E12.66316
G1 X91.362 Y80.373 E12.76665
G1 X87.362 Y82.822 E13.19317
G1 X86.352 Y83.343 E13.29646
G1 X82.012 Y85.142 E13.72369
G1 X80.922 Y85.492 E13.82779
G1 X76.362 Y86.582 E14.25411
G1 X75.243 Y86.763 E14.35726
G1 X70.562 Y87.132 E14.78414
G1 X69.422 Y87.132 E14.88780
G1 X64.743 Y86.763 E15.31468
G1 X63.623 Y86.582 E15.41782
G1 X59.062 Y85.492 E15.84414
G1 X57.972 Y85.142 E15.94824
G1 X53.633 Y83.343 E16.37547
G1 X52.623 Y82.822 E16.47877
G1 X48.623 Y80.373 E16.90529
G1 X47.703 Y79.703 E17.00878
G1 X44.133 Y76.653 E17.43573
G1 X43.322 Y75.843 E17.53990
G1 X40.282 Y72.273 E17.96626
G1 X39.623 Y71.373 E18.06775
G1 X37.163 Y67.373 E18.49474
G1 X36.642 Y66.332 E18.60047
G1 X34.852 Y61.992 E19.02735
G1 X34.502 Y60.932 E19.12886
G1 X33.403 Y56.373 E19.55539
G1 X33.223 Y55.233 E19.66033
G1 X32.863 Y50.552 E20.08714
G1 X32.863 Y49.433 E20.18898
G1 X33.223 Y44.752 E20.61579
G1 X33.403 Y43.612 E20.72073
G1 X34.502 Y39.053 E21.14727
G1 X34.852 Y37.992 E21.24877
G1 X36.642 Y33.653 E21.67565
G1 X37.163 Y32.612 E21.78138
G1 X39.573 Y28.692 E22.19986
G1 X40.163 Y28.943 F7800.000
G1 X40.763 Y28.113 E22.29298 F540.000
G1 X43.803 Y24.543 E22.71935
G1 X44.543 Y23.803 E22.81451
G1 X48.112 Y20.763 E23.24087
G1 X48.943 Y20.163 E23.33400
G1 X52.943 Y17.703 E23.76100
G1 X53.883 Y17.223 E23.85697
G1 X58.222 Y15.433 E24.28385
G1 X59.203 Y15.113 E24.37759
G1 X63.763 Y14.013 E24.80413
G1 X64.793 Y13.853 E24.89891
G1 X69.502 Y13.483 E25.32851
G1 X70.502 Y13.483 E25.41944
G1 X75.183 Y13.843 E25.84624
G1 X76.222 Y14.013 E25.94206
G1 X80.782 Y15.113 E26.36860
G1 X81.762 Y15.433 E26.46234
G1 X86.102 Y17.223 E26.88922
G1 X87.042 Y17.703 E26.98519
G1 X91.042 Y20.163 E27.41219
G1 X91.873 Y20.763 E27.50532
G1 X95.442 Y23.803 E27.93168
G1 X96.183 Y24.543 E28.02684
G1 X99.233 Y28.113 E28.45380
G1 X99.843 Y28.953 E28.54820
G1 X102.292 Y32.953 E28.97472
G1 X102.762 Y33.873 E29.06866
G1 X104.562 Y38.212 E29.49589
G1 X104.882 Y39.212 E29.59136
G1 X105.972 Y43.773 E30.01768
G1 X106.132 Y44.793 E30.11156
G1 X106.502 Y49.472 E30.53844
G1 X106.502 Y50.513 E30.63301
G1 X106.132 Y55.193 E31.05988
G1 X105.972 Y56.212 E31.15377
G1 X104.882 Y60.773 E31.58009
G1 X104.562 Y61.773 E31.67556
G1 X102.762 Y66.112 E32.10279
G1 X102.292 Y67.032 E32.19673
G1 X99.843 Y71.032 E32.62325
G1 X99.233 Y71.873 E32.71765
G1 X96.183 Y75.442 E33.14460
G1 X95.442 Y76.183 E33.23976
G1 X91.873 Y79.233 E33.66672
G1 X91.032 Y79.843 E33.76111
G1 X87.032 Y82.292 E34.18764
G1 X86.112 Y82.762 E34.28158
G1 X81.773 Y84.562 E34.70881
G1 X80.773 Y84.882 E34.80428
G1 X76.213 Y85.972 E35.23060
G1 X75.192 Y86.132 E35.32448
G1 X70.513 Y86.502 E35.75136
G1 X69.472 Y86.502 E35.84593
G1 X64.793 Y86.132 E36.27280
G1 X63.773 Y85.972 E36.36669
G1 X59.212 Y84.882 E36.79301
G1 X58.212 Y84.562 E36.88848
G1 X53.873 Y82.762 E37.31571
G1 X52.953 Y82.292 E37.40965
G1 X48.953 Y79.843 E37.83617
G1 X48.112 Y79.233 E37.93056
G1 X44.543 Y76.183 E38.35752
G1 X43.803 Y75.442 E38.45268
G1 X40.763 Y71.873 E38.87905
G1 X40.163 Y71.042 E38.97217
G1 X37.703 Y67.042 E39.39917
G1 X37.223 Y66.102 E39.49514
G1 X35.433 Y61.762 E39.92203
G1 X35.113 Y60.782 E40.01577
G1 X34.013 Y56.222 E40.44230
G1 X33.843 Y55.182 E40.53812
G1 X33.483 Y50.502 E40.96493
G1 X33.483 Y49.483 E41.05768
G1 X33.843 Y44.802 E41.48449
G1 X34.013 Y43.763 E41.58031
G1 X35.113 Y39.203 E42.00684
G1 X35.433 Y38.222 E42.10058
G1 X37.223 Y33.883 E42.52746
G1 X37.703 Y32.943 E42.62344
G1 X40.113 Y29.022 E43.04191
G1 F1800.000 E42.04191
G92 E0
G1 X68.621 Y48.998 F7800.000
G1 E1.00000 F1800.000
G1 X70.527 Y48.378 E1.18226 F540.000
G1 X71.705 Y50.000 E1.36452
G1 X70.527 Y51.622 E1.54677
G1 X68.621 Y51.002 E1.72903
G1 X68.621 Y49.092 E1.90277
G1 X69.245 Y49.452 F7800.000
G1 X70.288 Y49.113 E2.00246 F540.000
G1 X70.933 Y50.000 E2.10215
G1 X70.288 Y50.887 E2.20184
G1 X69.245 Y50.548 E2.30153
G1 X69.245 Y49.546 E2.39270
G1 F1800.000 E1.39270
G92 E0
G1 X45.724 Y34.418 F7800.000
G1 E1.00000 F1800.000
G1 X46.595 Y32.996 E1.15166 F540.000
G1 X49.544 Y29.544 E1.56444
G1 X52.996 Y26.595 E1.97723
G1 X56.866 Y24.224 E2.39001
G1 X61.060 Y22.486 E2.80279
G1 X65.474 Y21.427 E3.21557
G1 X70.000 Y21.070 E3.62835
G1 X74.526 Y21.427 E4.04114
G1 X78.940 Y22.486 E4.45392
G1 X83.134 Y24.224 E4.86670
G1 X87.004 Y26.595 E5.27948
G1 X90.456 Y29.544 E5.69226
G1 X93.405 Y32.996 E6.10505
G1 X95.776 Y36.866 E6.51783
G1 X97.514 Y41.060 E6.93061
G1 X98.573 Y45.474 E7.34339
G1 X98.930 Y50.000 E7.75618
G1 X98.573 Y54.526 E8.16896
G1 X97.514 Y58.940 E8.58174
G1 X95.776 Y63.134 E8.99452
G1 X93.405 Y67.004 E9.40730
G1 X90.456 Y70.456 E9.82009
G1 X87.004 Y73.405 E10.23287
G1 X83.134 Y75.776 E10.64565
G1 X78.940 Y77.514 E11.05843
G1 X74.526 Y78.573 E11.47122
G1 X70.000 Y78.930 E11.88400
G1 X65.474 Y78.573 E12.29678
G1 X61.060 Y77.514 E12.70956
G1 X56.866 Y75.776 E13.12234
G1 X52.996 Y73.405 E13.53513
G1 X49.544 Y70.456 E13.94791
G1 X46.595 Y67.004 E14.36069
G1 X44.224 Y63.134 E14.77348
G1 X42.486 Y58.940 E15.18625
G1 X41.427 Y54.526 E15.59904
G1 X41.070 Y50.000 E16.01182
G1 X41.427 Y45.474 E16.42460
G1 X42.486 Y41.060 E16.83738
G1 X44.224 Y36.866 E17.25016
G1 X45.675 Y34.498 E17.50276
G1 X45.191 Y34.091 F7800.000
G1 X46.088 Y32.627 E17.65890 F378.000
G1 X49.100 Y29.100 E18.08062
G1 X52.627 Y26.088 E18.50235
G1 X56.582 Y23.665 E18.92408
G1 X60.867 Y21.890 E19.34580
G1 X65.376 Y20.807 E19.76753
G1 X70.000 Y20.444 E20.18925
G1 X74.624 Y20.807 E20.61098
G1 X79.133 Y21.890 E21.03271
G1 X83.418 Y23.665 E21.45443
G1 X87.373 Y26.088 E21.87616
G1 X90.900 Y29.100 E22.29788
G1 X93.912 Y32.627 E22.71961
G1 X96.335 Y36.582 E23.14134
G1 X98.110 Y40.867 E23.56306
G1 X99.193 Y45.376 E23.98479
G1 X99.556 Y50.000 E24.40651
G1 X99.193 Y54.624 E24.82824
G1 X98.110 Y59.133 E25.24997
G1 X96.335 Y63.418 E25.67169
G1 X93.912 Y67.373 E26.09342
G1 X90.900 Y70.900 E26.51514
G1 X87.373 Y73.912 E26.93687
G1 X83.418 Y76.335 E27.35860
G1 X79.133 Y78.110 E27.78032
G1 X74.624 Y79.193 E28.20205
G1 X70.000 Y79.556 E28.62377
G1 X65.376 Y79.193 E29.04550
G1 X60.867 Y78.110 E29.46723
G1 X56.582 Y76.335 E29.88895
G1 X52.627 Y73.912 E30.31068
G1 X49.100 Y70.900 E30.73240
G1 X46.088 Y67.373 E31.15413
G1 X43.665 Y63.418 E31.57586
G1 X41.890 Y59.133 E31.99758
G1 X40.807 Y54.624 E32.41931
G1 X40.444 Y50.000 E32.84103
G1 X40.807 Y45.376 E33.26276
G1 X41.890 Y40.867 E33.68449
G1 X43.665 Y36.582 E34.10621
G1 X45.142 Y34.171 E34.36328
G1 X42.865 Y58.709 F7800.000
G1 X61.291 Y77.135 E36.73628 F1080.000
G1 X62.455 Y77.415 E36.84536
G1 X42.585 Y57.545 E39.40436
G1 X42.306 Y56.380 E39.51344
G1 X63.620 Y77.694 E42.25845
G1 X64.785 Y77.974 E42.36753
G1 X42.026 Y55.215 E45.29855
G1 X41.818 Y54.122 E45.39988
G1 X65.878 Y78.182 E48.49847
G1 X66.838 Y78.258 E48.58622
G1 X41.742 Y53.162 E51.81827
G1 X41.667 Y52.201 E51.90602
G1 X67.799 Y78.333 E55.27153
G1 X68.760 Y78.409 E55.35928
G1 X41.591 Y51.240 E58.85824
G1 X41.515 Y50.280 E58.94599
G1 X69.720 Y78.485 E62.57841
G1 X70.582 Y78.461 E62.65688
G1 X41.539 Y49.418 E66.39716
G1 X41.604 Y48.598 E66.47211
G1 X71.402 Y78.396 E70.30974
G1 X72.223 Y78.332 E70.38469
G1 X41.668 Y47.777 E74.31968
G1 X41.733 Y46.957 E74.39463
G1 X73.043 Y78.267 E78.42696
G1 X73.864 Y78.202 E78.50191
G1 X41.797 Y46.136 E82.63160
G1 X41.891 Y45.345 E82.70416
G1 X74.655 Y78.109 E86.92368
G1 X75.368 Y77.937 E86.99052
G1 X42.063 Y44.632 E91.27988
G1 X42.234 Y43.918 E91.34672
G1 X76.082 Y77.766 E95.70593
G1 X76.796 Y77.595 E95.77277
G1 X42.405 Y43.204 E100.20183
G1 X42.577 Y42.490 E100.26867
G1 X77.510 Y77.423 E104.76757
G1 X78.223 Y77.252 E104.83441
G1 X42.748 Y41.777 E109.40317
G1 X42.935 Y41.079 E109.46897
G1 X78.921 Y77.065 E114.10351
G1 X79.547 Y76.806 E114.16520
G1 X43.194 Y40.453 E118.84696
G1 X43.454 Y39.827 E118.90865
G1 X80.173 Y76.546 E123.63762
G1 X80.799 Y76.287 E123.69931
G1 X43.713 Y39.201 E128.47549
G1 X43.972 Y38.575 E128.53718
G1 X81.425 Y76.028 E133.36058
G1 X82.050 Y75.769 E133.42227
G1 X44.231 Y37.950 E138.29288
G1 X44.490 Y37.324 E138.35457
G1 X82.676 Y75.509 E143.27240
G1 X83.258 Y75.206 E143.33214
G1 X44.794 Y36.742 E148.28575
G1 X45.130 Y36.194 E148.34436
G1 X83.806 Y74.870 E153.32534
G1 X84.355 Y74.533 E153.38395
G1 X45.467 Y35.645 E158.39230
G1 X45.803 Y35.096 E158.45091
G1 X84.904 Y74.197 E163.48662
G1 X85.453 Y73.861 E163.54523
G1 X46.139 Y34.547 E168.60831
G1 X46.476 Y33.998 E168.66692
G1 X86.002 Y73.524 E173.75736
G1 X86.550 Y73.188 E173.81598
G1 X46.812 Y33.450 E178.93378
G1 X47.193 Y32.946 E178.99132
G1 X87.054 Y72.807 E184.12499
G1 X87.532 Y72.400 E184.18216
G1 X47.600 Y32.468 E189.32479
G1 X48.008 Y31.991 E189.38196
G1 X88.009 Y71.992 E194.53356
G1 X88.486 Y71.584 E194.59073
G1 X48.416 Y31.514 E199.75131
G1 X48.824 Y31.036 E199.80848
G1 X68.199 Y50.411 E202.30376
G1 X68.199 Y49.526 E202.38436
G1 X49.231 Y30.559 E204.82715
G1 X49.644 Y30.086 E204.88427
G1 X68.237 Y48.679 E207.27879
G1 X68.905 Y48.462 E207.34275
G1 X50.086 Y29.644 E209.76631
G1 X50.559 Y29.231 E209.82344
G1 X69.573 Y48.245 E212.27217
G1 X70.241 Y48.028 E212.33613
G1 X51.036 Y28.824 E214.80942
G1 X51.514 Y28.416 E214.86658
G1 X91.584 Y68.486 E220.02716
G1 X91.992 Y68.009 E220.08433
G1 X51.991 Y28.008 E225.23593
G1 X52.468 Y27.600 E225.29310
G1 X92.400 Y67.532 E230.43573
G1 X92.807 Y67.054 E230.49290
G1 X52.946 Y27.193 E235.62657
G1 X53.450 Y26.812 E235.68411
G1 X93.188 Y66.550 E240.80191
G1 X93.524 Y66.002 E240.86052
G1 X53.998 Y26.475 E245.95097
G1 X54.547 Y26.139 E246.00958
G1 X93.861 Y65.453 E251.07265
G1 X94.197 Y64.904 E251.13126
G1 X55.096 Y25.803 E256.16697
G1 X55.645 Y25.467 E256.22558
G1 X94.533 Y64.355 E261.23393
G1 X94.870 Y63.806 E261.29254
G1 X56.194 Y25.130 E266.27352
G1 X56.742 Y24.794 E266.33213
G1 X95.206 Y63.258 E271.28574
G1 X95.510 Y62.676 E271.34548
G1 X57.324 Y24.490 E276.26331
G1 X57.950 Y24.231 E276.32499
G1 X95.769 Y62.050 E281.19561
G1 X96.028 Y61.425 E281.25729
G1 X58.575 Y23.972 E286.08069
G1 X59.201 Y23.713 E286.14238
G1 X96.287 Y60.799 E290.91856
G1 X96.546 Y60.173 E290.98025
G1 X59.827 Y23.454 E295.70922
G1 X60.453 Y23.194 E295.77091
G1 X96.806 Y59.547 E300.45266
G1 X97.065 Y58.921 E300.51435
G1 X61.079 Y22.935 E305.14889
G1 X61.777 Y22.748 E305.21469
G1 X97.252 Y58.223 E309.78344
G1 X97.423 Y57.510 E309.85029
G1 X62.490 Y22.577 E314.34919
G1 X63.204 Y22.405 E314.41603
G1 X97.595 Y56.796 E318.84508
G1 X97.766 Y56.082 E318.91192
G1 X63.918 Y22.234 E323.27113
G1 X64.632 Y22.063 E323.33797
G1 X97.937 Y55.368 E327.62733
G1 X98.109 Y54.655 E327.69417
G1 X65.345 Y21.891 E331.91368
G1 X66.137 Y21.797 E331.98624
G1 X98.203 Y53.863 E336.11592
G1 X98.267 Y53.043 E336.19087
G1 X66.957 Y21.733 E340.22320
G1 X67.777 Y21.668 E340.29815
G1 X98.332 Y52.222 E344.23313
G1 X98.396 Y51.402 E344.30808
G1 X68.598 Y21.604 E348.14571
G1 X69.418 Y21.539 E348.22066
G1 X98.461 Y50.582 E351.96094
G1 X98.485 Y49.720 E352.03940
G1 X70.280 Y21.515 E355.67181
G1 X71.240 Y21.591 E355.75957
G1 X98.409 Y48.760 E359.25852
G1 X98.333 Y47.799 E359.34627
G1 X72.201 Y21.667 E362.71177
G1 X73.162 Y21.742 E362.79952
G1 X98.258 Y46.838 E366.03156
G1 X98.182 Y45.878 E366.11932
G1 X74.122 Y21.818 E369.21790
G1 X75.216 Y22.026 E369.31923
G1 X97.974 Y44.784 E372.25024
G1 X97.694 Y43.620 E372.35932
G1 X76.380 Y22.306 E375.10432
G1 X77.545 Y22.585 E375.21340
G1 X97.415 Y42.455 E377.77239
G1 X97.135 Y41.290 E377.88147
G1 X78.710 Y22.865 E380.25446
G1 X80.191 Y23.461 F7800.000
G1 X96.539 Y39.809 E382.35989 F1080.000
G1 X95.913 Y38.298 F7800.000
G1 X81.702 Y24.087 E384.19014 F1080.000
G1 X83.351 Y24.852 F7800.000
G1 X95.148 Y36.648 E385.70943 F1080.000
G1 X93.748 Y34.363 F7800.000
G1 X85.637 Y26.252 E386.75395 F1080.000
G1 X89.853 Y29.583 F7800.000
G1 X90.417 Y30.147 E386.82652 F1080.000
G1 F1800.000 E385.82652
G92 E0
G1 X72.221 Y50.008 F7800.000
G1 E1.00000 F1800.000
G1 X91.176 Y68.964 E3.44127 F1080.000
G1 X90.769 Y69.441 E3.49844
G1 X71.848 Y50.521 E5.93517
G1 X71.476 Y51.033 E5.99287
G1 X90.356 Y69.914 E8.42445
G1 X89.914 Y70.356 E8.48144
G1 X71.103 Y51.546 E10.90398
G1 X70.731 Y52.058 E10.96169
G1 X89.441 Y70.769 E13.37134
G1 X88.964 Y71.176 E13.42850
G1 X69.528 Y51.740 E15.93162
G1 F1800.000 E14.93162
G92 E0
G1 X59.809 Y76.539 F7800.000
G1 E1.00000 F1800.000
G1 X43.461 Y60.191 E3.10544 F1080.000
G1 X44.087 Y61.702 F7800.000
G1 X58.298 Y75.913 E4.93571 F1080.000
G1 X56.649 Y75.148 F7800.000
G1 X44.851 Y63.351 E6.45503 F1080.000
G1 X46.252 Y65.637 F7800.000
G1 X54.363 Y73.748 E7.49958 F1080.000
G1 X50.147 Y70.417 F7800.000
G1 X49.583 Y69.853 E7.57222 F1080.000
M104 S220 ; set temperature
G1 F1800.000 E6.57222
G92 E0
G1 Z0.600 F7800.000
G1 X64.846 Y54.782 F7800.000
G1 E1.00000 F1800.000
G1 X63.665 Y53.051 E1.07624 F1800
G1 X63.048 Y51.048 E1.15248
G1 X63.048 Y48.952 E1.22873
G1 X63.665 Y46.949 E1.30497
G1 X64.846 Y45.218 E1.38121
G1 X66.485 Y43.911 E1.45745
G1 X68.435 Y43.145 E1.53369
G1 X70.525 Y42.989 E1.60994
G1 X72.303 Y43.394 E1.67625
G1 X72.569 Y43.455 E1.68618
G1 X74.384 Y44.503 E1.76242
G1 X75.809 Y46.039 E1.83866
G1 X76.719 Y47.928 E1.91490
G1 X77.031 Y50.000 E1.99115
G1 X76.719 Y52.072 E2.06739
G1 X75.809 Y53.961 E2.14363
G1 X74.384 Y55.497 E2.21987
G1 X72.569 Y56.545 E2.29611
G1 X70.525 Y57.011 E2.37236
G1 X68.435 Y56.855 E2.44860
G1 X66.485 Y56.089 E2.52484
G1 X64.887 Y54.815 E2.59917
G1 X65.105 Y54.541 F7800.000
G1 X63.984 Y52.897 E2.67158 F1260
G1 X63.398 Y50.995 E2.74398
G1 X63.398 Y49.005 E2.81638
G1 X63.984 Y47.103 E2.88879
G1 X65.105 Y45.459 E2.96119
G1 X66.662 Y44.218 E3.03359
G1 X68.514 Y43.490 E3.10600
G1 X70.499 Y43.342 E3.17840
G1 X72.225 Y43.736 E3.24280
G1 X72.439 Y43.785 E3.25081
G1 X74.163 Y44.780 E3.32321
G1 X75.517 Y46.239 E3.39561
G1 X76.380 Y48.032 E3.46802
G1 X76.677 Y50.000 E3.54042
G1 X76.380 Y51.968 E3.61282
G1 X75.517 Y53.761 E3.68523
G1 X74.163 Y55.220 E3.75763
G1 X72.439 Y56.215 E3.83004
G1 X70.499 Y56.658 E3.90244
G1 X68.514 Y56.510 E3.97484
G1 X66.662 Y55.782 E4.04725
G1 X65.146 Y54.574 E4.11774
G1 X49.227 Y70.773 F7800.000
G1 X46.233 Y67.268 E4.28544 F1800
G1 X43.824 Y63.337 E4.45314
G1 X42.060 Y59.078 E4.62084
G1 X40.984 Y54.596 E4.78854
