; generated by Slic3r 1.0.0RC2 on 2014-01-11 at 14:33:46

; layer_height = 0.25
; perimeters = 1
; top_solid_layers = 5
; bottom_solid_layers = 3
; fill_density = 0.15
; perimeter_speed = 30
; infill_speed = 60
; travel_speed = 130
; nozzle_diameter = 0.35
; filament_diameter = 1.75
; extrusion_multiplier = 1
; perimeters extrusion width = 0.35mm
; infill extrusion width = 0.39mm
; solid infill extrusion width = 0.39mm
; top infill extrusion width = 0.39mm
; first layer extrusion width = 0.70mm

G21 ; set units to millimeters
M107
M104 S220 ; set temperature
G28 ; home all axes
G1 Z5 F5000 ; lift nozzle

M109 S220 ; wait for temperature to be reached
G90 ; use absolute coordinates
G92 E0
M82 ; use absolute distances for extrusion
G1 F1800.000 E-1.00000
G92 E0
G1 Z0.350 F7800.000
G1 X44.454 Y32.144 F7800.000
G1 E1.00000 F1800.000
G1 X45.114 Y31.224 E1.10296 F540.000
G1 X47.554 Y28.364 E1.44480
G1 X48.364 Y27.554 E1.54896
G1 X51.224 Y25.114 E1.89080
G1 X52.144 Y24.454 E1.99376
G1 X55.344 Y22.494 E2.33497
G1 X56.374 Y21.974 E2.43989
G1 X59.844 Y20.544 E2.78116
G1 X60.904 Y20.194 E2.88266
G1 X64.554 Y19.314 E3.22406
G1 X65.694 Y19.134 E3.32901
G1 X69.434 Y18.844 E3.67011
G1 X70.554 Y18.844 E3.77195
G1 X74.294 Y19.134 E4.11304
G1 X75.434 Y19.314 E4.21799
G1 X79.084 Y20.194 E4.55939
G1 X80.144 Y20.544 E4.66089
G1 X83.614 Y21.974 E5.00216
G1 X84.644 Y22.494 E5.10708
G1 X87.844 Y24.454 E5.44830
G1 X88.764 Y25.114 E5.55125
G1 X91.624 Y27.554 E5.89309
G1 X92.434 Y28.364 E5.99726
G1 X94.874 Y31.224 E6.33910
G1 X95.534 Y32.144 E6.44205
G1 X97.494 Y35.344 E6.78327
G1 X98.014 Y36.354 E6.88657
G1 X99.454 Y39.824 E7.22818
G1 X99.804 Y40.924 E7.33315
G1 X100.674 Y44.574 E7.67434
G1 X100.854 Y45.674 E7.77569
G1 X101.154 Y49.414 E8.11686
G1 X101.154 Y50.574 E8.22234
G1 X100.854 Y54.314 E8.56351
G1 X100.674 Y55.414 E8.66486
G1 X99.804 Y59.064 E9.00605
G1 X99.454 Y60.164 E9.11101
G1 X98.014 Y63.634 E9.45263
G1 X97.494 Y64.644 E9.55592
G1 X95.534 Y67.844 E9.89714
G1 X94.874 Y68.764 E10.00010
G1 X92.434 Y71.624 E10.34194
G1 X91.624 Y72.434 E10.44610
G1 X88.764 Y74.874 E10.78794
G1 X87.844 Y75.534 E10.89090
G1 X84.644 Y77.494 E11.23212
G1 X83.634 Y78.014 E11.33541
G1 X80.164 Y79.454 E11.67703
G1 X79.064 Y79.804 E11.78199
G1 X75.414 Y80.674 E12.12318
G1 X74.314 Y80.854 E12.22453
G1 X70.574 Y81.154 E12.56570
G1 X69.414 Y81.154 E12.67118
G1 X65.674 Y80.854 E13.01235
G1 X64.574 Y80.674 E13.11370
G1 X60.924 Y79.804 E13.45489
G1 X60.134 Y79.574 E13.52971
G1 X56.324 Y78.194 E13.89818
G1 X55.324 Y77.744 E13.99789
G1 X53.764 Y76.894 E14.15943
G1 X53.104 Y76.484 E14.23008
G1 X52.484 Y76.004 E14.30138
G1 X48.324 Y72.394 E14.80222
G1 X47.554 Y71.624 E14.90123
G1 X45.114 Y68.764 E15.24307
G1 X44.454 Y67.844 E15.34603
G1 X42.494 Y64.644 E15.68725
G1 X41.974 Y63.614 E15.79216
G1 X40.544 Y60.144 E16.13343
G1 X40.194 Y59.084 E16.23494
G1 X39.314 Y55.434 E16.57634
G1 X39.134 Y54.294 E16.68128
G1 X38.844 Y50.554 E17.02238
G1 X38.844 Y49.434 E17.12422
G1 X39.134 Y45.694 E17.46532
G1 X39.314 Y44.554 E17.57026
G1 X40.194 Y40.904 E17.91166
G1 X40.544 Y39.844 E18.01317
G1 X41.974 Y36.374 E18.35444
G1 X42.494 Y35.344 E18.45935
G1 X44.405 Y32.224 E18.79205
G1 X44.984 Y32.474 F7800.000
G1 X45.594 Y31.634 E18.88644 F540.000
G1 X48.034 Y28.774 E19.22829
G1 X48.774 Y28.034 E19.32345
G1 X51.634 Y25.594 E19.66529
G1 X52.474 Y24.984 E19.75968
G1 X55.674 Y23.024 E20.10090
G1 X56.614 Y22.544 E20.19687
G1 X60.084 Y21.114 E20.53814
G1 X61.054 Y20.804 E20.63074
G1 X64.704 Y19.924 E20.97214
G1 X65.744 Y19.754 E21.06796
G1 X69.484 Y19.464 E21.40906
G1 X70.504 Y19.464 E21.50181
G1 X74.244 Y19.754 E21.84291
G1 X75.284 Y19.924 E21.93873
G1 X78.934 Y20.804 E22.28013
G1 X79.904 Y21.114 E22.37273
G1 X83.374 Y22.544 E22.71400
G1 X84.314 Y23.024 E22.80997
G1 X87.514 Y24.984 E23.15119
G1 X88.354 Y25.594 E23.24558
G1 X91.214 Y28.034 E23.58742
G1 X91.954 Y28.774 E23.68258
G1 X94.394 Y31.634 E24.02442
G1 X95.004 Y32.474 E24.11882
G1 X96.964 Y35.674 E24.46004
G1 X97.434 Y36.594 E24.55398
G1 X98.874 Y40.064 E24.89559
G1 X99.194 Y41.064 E24.99107
G1 X100.064 Y44.714 E25.33226
G1 X100.224 Y45.724 E25.42524
G1 X100.524 Y49.464 E25.76641
G1 X100.524 Y50.524 E25.86279
G1 X100.224 Y54.264 E26.20396
G1 X100.064 Y55.274 E26.29695
G1 X99.194 Y58.924 E26.63814
G1 X98.874 Y59.924 E26.73361
G1 X97.434 Y63.394 E27.07523
G1 X96.964 Y64.314 E27.16917
G1 X95.004 Y67.514 E27.51038
G1 X94.394 Y68.354 E27.60478
G1 X91.954 Y71.214 E27.94662
G1 X91.214 Y71.954 E28.04178
G1 X88.354 Y74.394 E28.38362
G1 X87.514 Y75.004 E28.47802
G1 X84.314 Y76.964 E28.81924
G1 X83.394 Y77.434 E28.91318
G1 X79.924 Y78.874 E29.25479
G1 X78.924 Y79.194 E29.35026
G1 X75.274 Y80.064 E29.69145
G1 X74.264 Y80.224 E29.78444
G1 X70.524 Y80.524 E30.12561
G1 X69.464 Y80.524 E30.22199
G1 X65.724 Y80.224 E30.56316
G1 X64.714 Y80.064 E30.65615
G1 X61.064 Y79.194 E30.99734
G1 X60.344 Y78.984 E31.06553
G1 X56.534 Y77.604 E31.43400
G1 X55.624 Y77.194 E31.52476
G1 X54.064 Y76.344 E31.68630
G1 X53.454 Y75.964 E31.75165
G1 X52.894 Y75.524 E31.81640
G1 X48.734 Y71.914 E32.31724
G1 X48.034 Y71.214 E32.40726
G1 X45.594 Y68.354 E32.74910
G1 X44.984 Y67.514 E32.84350
G1 X43.024 Y64.314 E33.18471
G1 X42.544 Y63.374 E33.28069
G1 X41.114 Y59.904 E33.62195
G1 X40.804 Y58.934 E33.71455
G1 X39.924 Y55.284 E34.05595
G1 X39.754 Y54.244 E34.15178
G1 X39.464 Y50.504 E34.49287
G1 X39.464 Y49.484 E34.58562
G1 X39.754 Y45.744 E34.92672
G1 X39.924 Y44.704 E35.02254
G1 X40.804 Y41.054 E35.36394
G1 X41.114 Y40.084 E35.45654
G1 X42.544 Y36.614 E35.79781
G1 X43.024 Y35.674 E35.89378
G1 X44.935 Y32.554 E36.22647
G1 F1800.000 E35.22647
G92 E0
G1 X68.621 Y48.998 F7800.000
G1 E1.00000 F1800.000
G1 X70.527 Y48.378 E1.18226 F540.000
G1 X71.705 Y50.000 E1.36451
G1 X70.527 Y51.622 E1.54677
G1 X68.621 Y51.002 E1.72903
G1 X68.621 Y49.092 E1.90277
G1 X69.245 Y49.452 F7800.000
G1 X70.288 Y49.113 E2.00246 F540.000
G1 X70.933 Y50.000 E2.10215
G1 X70.288 Y50.887 E2.20184
G1 X69.245 Y50.548 E2.30153
G1 X69.245 Y49.546 E2.39270
G1 F1800.000 E1.39270
G92 E0
G1 X50.867 Y37.438 F7800.000
G1 E1.00000 F1800.000
G1 X51.435 Y36.511 E1.09878 F540.000
G1 X53.773 Y33.773 E1.42621
G1 X56.511 Y31.435 E1.75365
G1 X59.582 Y29.553 E2.08108
G1 X62.909 Y28.175 E2.40852
G1 X66.410 Y27.334 E2.73595
G1 X70.000 Y27.052 E3.06339
G1 X73.590 Y27.334 E3.39082
G1 X77.091 Y28.175 E3.71826
G1 X80.418 Y29.553 E4.04570
G1 X83.489 Y31.435 E4.37313
G1 X86.227 Y33.773 E4.70056
G1 X88.565 Y36.511 E5.02800
G1 X90.447 Y39.582 E5.35543
G1 X91.825 Y42.909 E5.68287
G1 X92.666 Y46.410 E6.01030
G1 X92.948 Y50.000 E6.33774
G1 X92.666 Y53.590 E6.66518
G1 X91.825 Y57.091 E6.99261
G1 X90.447 Y60.418 E7.32005
G1 X88.565 Y63.489 E7.64748
G1 X86.227 Y66.227 E7.97492
G1 X83.489 Y68.565 E8.30235
G1 X80.418 Y70.447 E8.62978
G1 X77.091 Y71.825 E8.95722
G1 X73.590 Y72.666 E9.28466
G1 X70.000 Y72.948 E9.61209
G1 X66.410 Y72.666 E9.93953
G1 X62.909 Y71.825 E10.26696
G1 X60.609 Y70.873 E10.49326
G1 X60.039 Y70.727 E10.54681
G1 X56.511 Y68.565 E10.92298
G1 X53.773 Y66.227 E11.25041
G1 X51.435 Y63.489 E11.57785
G1 X49.553 Y60.418 E11.90528
G1 X48.175 Y57.091 E12.23272
G1 X47.334 Y53.590 E12.56015
G1 X47.052 Y50.000 E12.88759
G1 X47.334 Y46.410 E13.21502
G1 X48.175 Y42.909 E13.54246
G1 X49.553 Y39.582 E13.86990
G1 X50.818 Y37.518 E14.09003
G1 X50.334 Y37.111 F7800.000
G1 X50.927 Y36.143 E14.19328 F378.000
G1 X53.330 Y33.330 E14.52966
G1 X56.143 Y30.927 E14.86604
G1 X59.297 Y28.995 E15.20241
G1 X62.715 Y27.579 E15.53879
G1 X66.312 Y26.715 E15.87517
G1 X70.000 Y26.425 E16.21155
G1 X73.688 Y26.715 E16.54793
G1 X77.285 Y27.579 E16.88431
G1 X80.703 Y28.995 E17.22069
G1 X83.857 Y30.927 E17.55707
G1 X86.670 Y33.330 E17.89345
G1 X89.073 Y36.143 E18.22983
G1 X91.005 Y39.297 E18.56620
G1 X92.421 Y42.715 E18.90258
G1 X93.285 Y46.312 E19.23896
G1 X93.575 Y50.000 E19.57534
G1 X93.285 Y53.688 E19.91172
G1 X92.421 Y57.285 E20.24810
G1 X91.005 Y60.703 E20.58448
G1 X89.073 Y63.857 E20.92086
G1 X86.670 Y66.670 E21.25724
G1 X83.857 Y69.073 E21.59361
G1 X80.703 Y71.005 E21.92999
G1 X77.285 Y72.421 E22.26637
G1 X73.688 Y73.285 E22.60275
G1 X70.000 Y73.575 E22.93913
G1 X66.312 Y73.285 E23.27551
G1 X62.715 Y72.421 E23.61189
G1 X60.420 Y71.471 E23.83773
G1 X59.370 Y71.197 E23.93645
G1 X59.445 Y71.096 E23.94787
G1 X56.143 Y69.073 E24.29998
G1 X53.330 Y66.670 E24.63636
G1 X50.927 Y63.857 E24.97274
G1 X48.995 Y60.703 E25.30912
G1 X47.579 Y57.285 E25.64550
G1 X46.715 Y53.688 E25.98188
G1 X46.425 Y50.000 E26.31826
G1 X46.715 Y46.312 E26.65464
G1 X47.579 Y42.715 E26.99102
G1 X48.995 Y39.297 E27.32740
G1 X50.285 Y37.191 E27.55200
G1 X49.099 Y58.222 F7800.000
G1 X61.778 Y70.901 E29.20518 F1080.000
G1 X60.354 Y70.372 F7800.000
G1 X49.733 Y59.752 E30.59003 F1080.000
G1 X50.908 Y61.822 F7800.000
G1 X58.178 Y69.092 E31.53796 F1080.000
G1 X54.380 Y66.191 F7800.000
G1 X53.809 Y65.620 E31.61245 F1080.000
G1 X63.246 Y71.473 F7800.000
G1 X48.527 Y56.754 E33.53167 F1080.000
G1 X48.244 Y55.575 E33.64347
G1 X64.425 Y71.756 E35.75335
G1 X65.605 Y72.039 E35.86516
G1 X47.961 Y54.395 E38.16569
G1 X47.732 Y53.270 E38.27158
G1 X66.730 Y72.268 E40.74873
G1 X67.702 Y72.345 E40.83869
G1 X47.655 Y52.298 E43.45265
G1 X47.579 Y51.325 E43.54260
G1 X68.675 Y72.421 E46.29337
G1 X69.648 Y72.498 E46.38332
G1 X47.502 Y50.352 E49.27090
G1 X47.516 Y49.470 E49.35224
G1 X70.530 Y72.484 E52.35300
G1 X71.361 Y72.418 E52.42983
G1 X47.582 Y48.639 E55.53039
G1 X47.647 Y47.809 E55.60722
G1 X72.191 Y72.353 E58.80756
G1 X73.022 Y72.288 E58.88439
G1 X47.712 Y46.978 E62.18453
G1 X47.821 Y46.190 E62.25786
G1 X73.810 Y72.179 E65.64662
G1 X74.532 Y72.006 E65.71514
G1 X47.994 Y45.468 E69.17551
G1 X48.168 Y44.745 E69.24403
G1 X75.255 Y71.832 E72.77600
G1 X75.978 Y71.659 E72.84452
G1 X48.341 Y44.022 E76.44810
G1 X48.514 Y43.300 E76.51662
G1 X76.700 Y71.486 E80.19179
G1 X77.366 Y71.255 E80.25674
G1 X48.745 Y42.634 E83.98868
G1 X49.007 Y42.000 E84.05192
G1 X78.000 Y70.993 E87.83225
G1 X78.633 Y70.730 E87.89549
G1 X49.270 Y41.367 E91.72422
G1 X49.532 Y40.733 E91.78745
G1 X79.267 Y70.468 E95.66458
G1 X79.900 Y70.205 E95.72782
G1 X49.795 Y40.100 E99.65334
G1 X50.095 Y39.504 E99.71485
G1 X80.496 Y69.905 E103.67889
G1 X81.052 Y69.565 E103.73897
G1 X50.435 Y38.948 E107.73107
G1 X50.776 Y38.393 E107.79115
G1 X81.607 Y69.224 E111.81130
G1 X82.163 Y68.884 E111.87138
G1 X51.116 Y37.837 E115.91958
G1 X51.457 Y37.281 E115.97966
G1 X82.719 Y68.543 E120.05592
G1 X83.270 Y68.198 E120.11587
G1 X51.802 Y36.730 E124.21902
G1 X52.215 Y36.247 E124.27763
G1 X83.753 Y67.785 E128.38997
G1 X84.236 Y67.373 E128.44857
G1 X52.627 Y35.764 E132.57011
G1 X53.040 Y35.280 E132.62871
G1 X68.199 Y50.439 E134.60532
G1 X68.199 Y49.543 E134.68794
G1 X53.453 Y34.797 E136.61073
G1 X53.871 Y34.319 E136.66929
G1 X68.233 Y48.681 E138.54199
G1 X68.909 Y48.461 E138.60755
G1 X54.319 Y33.871 E140.51002
G1 X54.797 Y33.453 E140.56858
G1 X69.585 Y48.241 E142.49685
G1 X70.262 Y48.022 E142.56242
G1 X55.280 Y33.040 E144.51586
G1 X55.764 Y32.627 E144.57446
G1 X87.373 Y64.236 E148.69600
G1 X87.785 Y63.753 E148.75460
G1 X56.247 Y32.215 E152.86694
G1 X56.730 Y31.802 E152.92554
G1 X88.198 Y63.270 E157.02870
G1 X88.543 Y62.719 E157.08865
G1 X57.281 Y31.457 E161.16490
G1 X57.837 Y31.116 E161.22498
G1 X88.884 Y62.163 E165.27318
G1 X89.224 Y61.607 E165.33326
G1 X58.393 Y30.776 E169.35341
G1 X58.948 Y30.435 E169.41349
G1 X89.565 Y61.052 E173.40559
G1 X89.905 Y60.496 E173.46567
G1 X59.504 Y30.095 E177.42971
G1 X60.100 Y29.795 E177.49122
G1 X90.205 Y59.900 E181.41674
G1 X90.468 Y59.267 E181.47998
G1 X60.733 Y29.532 E185.35710
G1 X61.367 Y29.270 E185.42034
G1 X90.730 Y58.633 E189.24907
G1 X90.993 Y58.000 E189.31230
G1 X62.000 Y29.007 E193.09263
G1 X62.634 Y28.745 E193.15587
G1 X91.255 Y57.366 E196.88781
G1 X91.486 Y56.700 E196.95276
G1 X63.300 Y28.514 E200.62793
G1 X64.022 Y28.341 E200.69645
G1 X91.659 Y55.978 E204.30002
G1 X91.832 Y55.255 E204.36854
G1 X64.745 Y28.168 E207.90051
G1 X65.468 Y27.994 E207.96903
G1 X92.006 Y54.532 E211.42940
G1 X92.179 Y53.810 E211.49791
G1 X66.190 Y27.821 E214.88668
G1 X66.978 Y27.712 E214.96001
G1 X92.288 Y53.022 E218.26014
G1 X92.353 Y52.191 E218.33697
G1 X67.809 Y27.647 E221.53731
G1 X68.640 Y27.582 E221.61414
G1 X92.418 Y51.360 E224.71469
G1 X92.484 Y50.530 E224.79152
G1 X69.470 Y27.516 E227.79228
G1 X70.352 Y27.502 E227.87362
G1 X92.498 Y49.648 E230.76119
G1 X92.421 Y48.675 E230.85115
G1 X71.325 Y27.579 E233.60191
G1 X72.298 Y27.655 E233.69186
G1 X92.345 Y47.702 E236.30582
G1 X92.268 Y46.730 E236.39577
G1 X73.270 Y27.732 E238.87292
G1 X74.396 Y27.961 E238.97881
G1 X92.039 Y45.604 E241.27933
G1 X91.756 Y44.425 E241.39114
G1 X75.575 Y28.244 E243.50101
G1 X76.754 Y28.527 E243.61281
G1 X91.473 Y43.246 E245.53202
G1 X90.901 Y41.778 F7800.000
G1 X78.222 Y29.099 E247.18519 F1080.000
G1 X79.752 Y29.733 F7800.000
G1 X90.267 Y40.248 E248.55626 F1080.000
G1 X89.092 Y38.177 F7800.000
G1 X81.823 Y30.908 E249.50417 F1080.000
G1 X85.620 Y33.809 F7800.000
G1 X86.191 Y34.380 E249.57860 F1080.000
G1 F1800.000 E248.57860
G92 E0
G1 X72.188 Y49.947 F7800.000
G1 E1.00000 F1800.000
G1 X86.960 Y64.720 E2.92617 F1080.000
G1 X86.547 Y65.203 E2.98477
G1 X71.855 Y50.511 E4.90051
G1 X71.478 Y51.030 E4.95966
G1 X86.129 Y65.681 E6.87011
G1 X85.681 Y66.129 E6.92853
G1 X71.101 Y51.549 E8.82973
G1 X70.724 Y52.068 E8.88888
G1 X85.203 Y66.547 E10.77686
G1 X84.720 Y66.960 E10.83546
G1 X69.486 Y51.727 E12.82175
M104 S220 ; set temperature
G1 F1800.000 E11.82175
G92 E0
G1 Z0.600 F7800.000
G1 X68.181 Y56.755 F7800.000
G1 E1.00000 F1800.000
G1 X66.485 Y56.089 E1.06631 F1800
G1 X64.846 Y54.782 E1.14256
G1 X63.665 Y53.051 E1.21880
G1 X63.048 Y51.048 E1.29504
G1 X63.048 Y48.952 E1.37128
G1 X63.665 Y46.949 E1.44752
G1 X64.846 Y45.218 E1.52377
G1 X66.485 Y43.911 E1.60001
G1 X68.435 Y43.145 E1.67625
G1 X70.525 Y42.989 E1.75249
G1 X72.569 Y43.455 E1.82873
G1 X74.384 Y44.503 E1.90498
G1 X75.809 Y46.039 E1.98122
G1 X76.719 Y47.928 E2.05746
G1 X77.031 Y50.000 E2.13370
G1 X76.719 Y52.072 E2.20994
G1 X75.809 Y53.961 E2.28619
G1 X74.384 Y55.497 E2.36243
G1 X72.569 Y56.545 E2.43867
G1 X70.525 Y57.011 E2.51491
G1 X68.435 Y56.855 E2.59115
G1 X68.230 Y56.774 E2.59917
G1 X68.309 Y56.429 F7800.000
G1 X66.662 Y55.782 E2.66357 F1260
G1 X65.105 Y54.541 E2.73597
G1 X63.984 Y52.897 E2.80838
G1 X63.398 Y50.995 E2.88078
G1 X63.398 Y49.005 E2.95318
G1 X63.984 Y47.103 E3.02559
G1 X65.105 Y45.459 E3.09799
G1 X66.662 Y44.218 E3.17039
G1 X68.514 Y43.490 E3.24280
G1 X70.499 Y43.342 E3.31520
G1 X72.439 Y43.785 E3.38761
G1 X74.163 Y44.780 E3.46001
G1 X75.517 Y46.239 E3.53241
G1 X76.380 Y48.032 E3.60482
G1 X76.677 Y50.000 E3.67722
G1 X76.380 Y51.968 E3.74962
G1 X75.517 Y53.761 E3.82203
G1 X74.163 Y55.220 E3.89443
G1 X72.439 Y56.215 E3.96684
G1 X70.499 Y56.658 E4.03924
G1 X68.514 Y56.510 E4.11164
G1 X68.358 Y56.448 E4.11774
G1 X63.310 Y72.384 F7800.000
G1 X62.769 Y72.254 E4.13798 F1800
G1 X60.473 Y71.303 E4.22838
G1 X59.860 Y71.145 E4.25142
G1 X56.246 Y68.931 E4.40560
G1 X53.454 Y66.546 E4.53918
G1 X51.069 Y63.754 E4.67275
G1 X49.151 Y60.623 E4.80632
G1 X47.746 Y57.231 E4.93990
G1 X46.889 Y53.660 E5.07347
G1 X46.601 Y50.000 E5.20704
G1 X46.889 Y46.340 E5.34062
G1 X47.746 Y42.769 E5.47419
G1 X49.151 Y39.377 E5.60776
G1 X51.069 Y36.246 E5.74134
G1 X53.454 Y33.454 E5.87491
G1 X56.246 Y31.069 E6.00848
G1 X59.377 Y29.151 E6.14205
G1 X62.769 Y27.746 E6.27563
G1 X66.340 Y26.889 E6.40920
G1 X70.000 Y26.601 E6.54278
G1 X73.660 Y26.889 E6.67635
G1 X77.231 Y27.746 E6.80992
G1 X80.623 Y29.151 E6.94350
G1 X83.754 Y31.069 E7.07707
G1 X86.546 Y33.454 E7.21064
G1 X88.931 Y36.246 E7.34422
G1 X90.849 Y39.377 E7.47779
G1 X92.254 Y42.769 E7.61136
G1 X93.111 Y46.340 E7.74494
G1 X93.399 Y50.000 E7.87851
G1 X93.111 Y53.660 E8.01208
G1 X92.254 Y57.231 E8.14566
G1 X90.849 Y60.623 E8.27923
G1 X88.931 Y63.754 E8.41280
G1 X86.546 Y66.546 E8.54638
G1 X83.754 Y68.931 E8.67995
G1 X80.623 Y70.849 E8.81352
G1 X77.231 Y72.254 E8.94710
G1 X73.660 Y73.111 E9.08067
G1 X70.000 Y73.399 E9.21424
G1 X66.340 Y73.111 E9.34782
G1 X63.361 Y72.396 E9.45925
G1 X63.228 Y72.724 F7800.000
G1 X62.661 Y72.588 E9.48048 F1260
G1 X60.367 Y71.638 E9.57078
