; generated by Slic3r 1.0.0RC2 on 2014-01-11 at 18:36:03

; layer_height = 0.25
; perimeters = 1
; top_solid_layers = 5
; bottom_solid_layers = 3
; fill_density = 0.13
; perimeter_speed = 30
; infill_speed = 60
; travel_speed = 130
; nozzle_diameter = 0.35
; filament_diameter = 1.75
; extrusion_multiplier = 1
; perimeters extrusion width = 0.35mm
; infill extrusion width = 0.39mm
; solid infill extrusion width = 0.39mm
; top infill extrusion width = 0.39mm
; first layer extrusion width = 0.70mm

G21 ; set units to millimeters
M107
M104 S220 ; set temperature
G28 ; home all axes
G1 Z5 F5000 ; lift nozzle

M109 S220 ; wait for temperature to be reached
G90 ; use absolute coordinates
G92 E0
M82 ; use absolute distances for extrusion
G1 F1800.000 E-1.00000
G92 E0
G1 Z0.350 F7800.000
G1 X42.875 Y29.611 F7800.000
G1 E1.00000 F1800.000
G1 X43.925 Y28.501 E1.13893 F540.000
G1 X45.185 Y27.631 E1.27816
G1 X55.155 Y22.221 E2.30960
G1 X55.855 Y21.891 E2.37997
G1 X59.325 Y20.461 E2.72124
G1 X60.385 Y20.111 E2.82274
G1 X64.035 Y19.231 E3.16414
G1 X65.175 Y19.051 E3.26909
G1 X68.915 Y18.761 E3.61019
G1 X70.035 Y18.761 E3.71203
G1 X73.775 Y19.051 E4.05312
G1 X74.915 Y19.231 E4.15807
G1 X78.565 Y20.111 E4.49947
G1 X79.305 Y20.331 E4.56967
G1 X86.565 Y22.921 E5.27057
G1 X87.625 Y23.401 E5.37638
G1 X88.585 Y24.041 E5.48129
G1 X90.645 Y25.651 E5.71902
G1 X91.115 Y26.041 E5.77456
G1 X93.965 Y28.681 E6.12781
G1 X94.665 Y29.431 E6.22109
G1 X95.245 Y30.271 E6.31391
G1 X97.045 Y33.271 E6.63204
G1 X98.685 Y36.351 E6.94933
G1 X99.095 Y37.281 E7.04174
G1 X100.285 Y40.551 E7.35816
G1 X100.565 Y41.531 E7.45084
G1 X101.285 Y44.941 E7.76774
G1 X101.425 Y45.941 E7.85956
G1 X101.555 Y47.891 E8.03727
G1 X101.645 Y50.071 E8.23566
G1 X101.635 Y50.871 E8.30841
G1 X101.425 Y53.891 E8.58368
G1 X101.285 Y54.901 E8.67640
G1 X100.575 Y58.251 E8.98778
G1 X98.045 Y69.531 E10.03895
G1 X97.575 Y70.951 E10.17496
G1 X96.825 Y72.231 E10.30985
G1 X95.835 Y73.331 E10.44442
G1 X94.625 Y74.211 E10.58047
G1 X93.275 Y74.831 E10.71555
G1 X79.165 Y79.551 E12.06845
G1 X78.545 Y79.721 E12.12690
G1 X74.895 Y80.591 E12.46809
G1 X73.795 Y80.771 E12.56945
G1 X69.665 Y81.091 E12.94611
G1 X63.965 Y81.241 E13.46459
G1 X63.385 Y81.241 E13.51733
G1 X62.375 Y81.171 E13.60939
G1 X61.665 Y81.071 E13.67459
G1 X61.045 Y80.951 E13.73201
G1 X60.435 Y80.781 E13.78959
G1 X57.885 Y79.951 E14.03343
G1 X57.065 Y79.631 E14.11347
G1 X46.075 Y74.521 E15.21553
G1 X44.675 Y73.671 E15.36446
G1 X43.505 Y72.511 E15.51427
G1 X42.615 Y71.131 E15.66359
G1 X42.065 Y69.581 E15.81314
G1 X38.775 Y55.281 E17.14740
G1 X38.615 Y54.211 E17.24578
G1 X38.325 Y50.471 E17.58687
G1 X38.325 Y49.351 E17.68872
G1 X38.615 Y45.611 E18.02981
G1 X38.775 Y44.541 E18.12819
G1 X41.575 Y32.371 E19.26371
G1 X42.075 Y30.931 E19.40232
G1 X42.826 Y29.692 E19.53415
G1 X43.375 Y29.991 F7800.000
G1 X44.335 Y28.971 E19.66151 F540.000
G1 X45.485 Y28.181 E19.78838
G1 X55.455 Y22.771 E20.81981
G1 X56.095 Y22.461 E20.88448
G1 X59.565 Y21.031 E21.22575
G1 X60.535 Y20.721 E21.31834
G1 X64.185 Y19.841 E21.65974
G1 X65.225 Y19.671 E21.75557
G1 X68.965 Y19.381 E22.09666
G1 X69.985 Y19.381 E22.18941
G1 X73.725 Y19.671 E22.53051
G1 X74.765 Y19.841 E22.62633
G1 X78.415 Y20.721 E22.96773
G1 X79.095 Y20.921 E23.03219
G1 X86.355 Y23.511 E23.73308
G1 X87.315 Y23.951 E23.82911
G1 X88.205 Y24.531 E23.92570
G1 X90.265 Y26.141 E24.16344
G1 X90.685 Y26.501 E24.21374
G1 X93.535 Y29.141 E24.56699
G1 X94.175 Y29.821 E24.65190
G1 X94.715 Y30.591 E24.73742
G1 X96.325 Y33.271 E25.02170
G1 X98.135 Y36.651 E25.37034
G1 X98.515 Y37.491 E25.45417
G1 X99.705 Y40.761 E25.77059
G1 X99.955 Y41.661 E25.85552
G1 X100.675 Y45.071 E26.17243
G1 X100.805 Y45.991 E26.25691
G1 X100.935 Y47.921 E26.43281
G1 X101.025 Y50.101 E26.63120
G1 X101.015 Y50.831 E26.69759
G1 X100.805 Y53.851 E26.97286
G1 X100.675 Y54.771 E27.05734
G1 X99.965 Y58.121 E27.36872
G1 X97.435 Y69.401 E28.41989
G1 X97.005 Y70.691 E28.54354
G1 X96.325 Y71.861 E28.66659
G1 X95.415 Y72.871 E28.79020
G1 X94.315 Y73.671 E28.91388
G1 X93.075 Y74.231 E29.03760
G1 X78.965 Y78.951 E30.39050
G1 X78.405 Y79.111 E30.44346
G1 X74.755 Y79.981 E30.78465
G1 X73.745 Y80.141 E30.87763
G1 X69.645 Y80.461 E31.25158
G1 X63.945 Y80.611 E31.77005
G1 X63.385 Y80.611 E31.82097
G1 X62.465 Y80.551 E31.90481
G1 X61.755 Y80.451 E31.97000
G1 X61.185 Y80.341 E32.02279
G1 X60.625 Y80.191 E32.07551
G1 X58.075 Y79.361 E32.31935
G1 X57.335 Y79.071 E32.39162
G1 X46.345 Y73.961 E33.49368
G1 X45.055 Y73.171 E33.63123
G1 X43.985 Y72.121 E33.76754
G1 X43.175 Y70.851 E33.90451
G1 X42.675 Y69.441 E34.04054
G1 X39.385 Y55.141 E35.37481
G1 X39.235 Y54.161 E35.46496
G1 X38.945 Y50.421 E35.80605
G1 X38.945 Y49.401 E35.89880
G1 X39.235 Y45.661 E36.23990
G1 X39.385 Y44.681 E36.33005
G1 X42.185 Y32.511 E37.46557
G1 X42.645 Y31.191 E37.59268
G1 X43.326 Y30.072 E37.71187
G1 F1800.000 E36.71187
G92 E0
G1 X68.101 Y48.915 F7800.000
G1 E1.00000 F1800.000
G1 X70.008 Y48.296 E1.18226 F540.000
G1 X71.186 Y49.917 E1.36451
G1 X70.008 Y51.539 E1.54677
G1 X68.101 Y50.920 E1.72903
G1 X68.101 Y49.009 E1.90277
G1 X68.726 Y49.369 F7800.000
G1 X69.769 Y49.030 E2.00246 F540.000
G1 X70.413 Y49.917 E2.10215
G1 X69.769 Y50.804 E2.20184
G1 X68.726 Y50.466 E2.30153
G1 X68.726 Y49.463 E2.39270
G1 F1800.000 E1.39270
G92 E0
G1 X49.621 Y38.542 F7800.000
G1 E1.00000 F1800.000
G1 X49.621 Y37.945 E1.05426 F540.000
G1 X53.254 Y33.691 E1.56298
G1 X55.992 Y31.352 E1.89042
G1 X59.062 Y29.471 E2.21785
G1 X62.389 Y28.092 E2.54529
G1 X65.891 Y27.252 E2.87272
G1 X69.481 Y26.969 E3.20016
G1 X73.071 Y27.252 E3.52759
G1 X76.572 Y28.092 E3.85503
G1 X79.899 Y29.471 E4.18247
G1 X83.350 Y31.586 E4.55054
G1 X83.753 Y30.703 E4.63875
G1 X85.531 Y32.092 E4.84391
G1 X87.855 Y34.499 E5.14819
G1 X89.822 Y37.207 E5.45248
G1 X91.393 Y40.161 E5.75677
G1 X92.538 Y43.306 E6.06106
G1 X93.234 Y46.579 E6.36535
G1 X93.341 Y48.118 E6.50558
G1 X92.829 Y50.662 E6.74155
G1 X92.367 Y50.703 E6.78369
G1 X92.146 Y53.507 E7.03946
G1 X91.246 Y57.258 E7.39022
G1 X92.494 Y56.651 E7.51642
G1 X91.393 Y59.674 E7.80892
G1 X91.275 Y59.897 E7.83196
G1 X90.883 Y59.880 E7.86757
G1 X90.169 Y59.943 E7.93281
G1 X88.045 Y63.408 E8.30237
G1 X87.237 Y64.354 E8.41551
G1 X89.098 Y66.982 E8.70837
G1 X87.579 Y66.982 E8.84647
G1 X86.582 Y65.397 E9.01673
G1 X82.969 Y68.483 E9.44878
G1 X79.899 Y70.364 E9.77622
G1 X76.572 Y71.742 E10.10365
G1 X73.071 Y72.583 E10.43109
G1 X69.481 Y72.866 E10.75853
G1 X65.891 Y72.583 E11.08596
G1 X65.176 Y72.411 E11.15278
G1 X64.857 Y72.535 E11.18389
G1 X64.525 Y72.609 E11.21483
G1 X64.253 Y72.705 E11.24107
G1 X63.994 Y72.827 E11.26710
G1 X63.648 Y73.037 E11.30389
G1 X63.459 Y73.025 E11.32115
G1 X62.033 Y72.044 E11.47852
G1 X61.926 Y72.622 E11.53195
G1 X60.495 Y72.157 E11.66877
G1 X57.488 Y70.690 E11.97306
G1 X54.713 Y68.819 E12.27734
G1 X51.130 Y65.593 E12.71575
G1 X51.130 Y66.982 E12.84205
G1 X50.113 Y66.982 E12.93452
G1 X50.113 Y62.097 E13.37870
G1 X49.034 Y60.336 E13.56655
G1 X47.656 Y57.009 E13.89399
G1 X46.815 Y53.507 E14.22142
G1 X46.533 Y49.917 E14.54886
G1 X46.815 Y46.328 E14.87629
G1 X47.656 Y42.826 E15.20373
G1 X49.034 Y39.499 E15.53117
G1 X49.572 Y38.622 E15.62476
G1 X48.996 Y38.365 F7800.000
G1 X48.996 Y34.359 E15.98907 F378.000
G1 X50.473 Y34.359 E16.12338
G1 X50.473 Y35.985 E16.27123
G1 X52.811 Y33.248 E16.59858
G1 X55.624 Y30.845 E16.93496
G1 X58.778 Y28.912 E17.27133
G1 X62.196 Y27.496 E17.60771
G1 X65.793 Y26.633 E17.94409
G1 X69.481 Y26.343 E18.28047
G1 X73.169 Y26.633 E18.61685
G1 X76.766 Y27.496 E18.95323
G1 X80.184 Y28.912 E19.28961
G1 X83.075 Y30.684 E19.59795
G1 X83.304 Y30.181 E19.64818
G1 X84.039 Y30.134 E19.71516
G1 X85.950 Y31.627 E19.93566
G1 X88.335 Y34.097 E20.24789
G1 X88.526 Y34.359 E20.27738
G1 X88.692 Y34.359 E20.29251
G1 X88.692 Y34.588 E20.31334
G1 X90.354 Y36.875 E20.57034
G1 X91.966 Y39.907 E20.88258
G1 X93.140 Y43.133 E21.19481
G1 X93.854 Y46.492 E21.50705
G1 X93.971 Y48.161 E21.65921
G1 X93.477 Y50.599 E21.88542
G1 X93.513 Y51.227 E21.94257
G1 X92.949 Y51.278 E21.99411
G1 X92.765 Y53.605 E22.20638
G1 X92.162 Y56.117 E22.44125
G1 X93.000 Y55.709 E22.52593
G1 X93.259 Y56.145 E22.57199
G1 X93.140 Y56.702 E22.62375
G1 X91.966 Y59.928 E22.93599
G1 X91.750 Y60.333 E22.97767
G1 X91.507 Y60.516 E23.00535
G1 X90.897 Y60.506 E23.06084
G1 X90.537 Y60.538 E23.09369
G1 X88.553 Y63.775 E23.43889
G1 X88.028 Y64.390 E23.51246
G1 X90.306 Y67.607 E23.87094
G1 X87.234 Y67.607 E24.15028
G1 X86.438 Y66.342 E24.28619
G1 X83.338 Y68.990 E24.65696
G1 X80.184 Y70.923 E24.99334
G1 X76.766 Y72.339 E25.32972
G1 X73.169 Y73.202 E25.66610
G1 X69.481 Y73.492 E26.00248
G1 X65.793 Y73.202 E26.33886
G1 X65.220 Y73.065 E26.39239
G1 X65.035 Y73.137 E26.41051
G1 X64.699 Y73.210 E26.44172
G1 X64.491 Y73.284 E26.46184
G1 X64.287 Y73.379 E26.48225
G1 X63.847 Y73.632 E26.52845
G1 X63.571 Y73.658 E26.55360
G1 X63.435 Y73.649 E26.56598
G1 X63.199 Y73.592 E26.58809
G1 X62.473 Y73.105 E26.66759
G1 X62.412 Y73.437 E26.69825
G1 X60.261 Y72.738 E26.90392
G1 X57.174 Y71.233 E27.21616
G1 X54.328 Y69.313 E27.52838
G1 X51.755 Y66.996 E27.84315
G1 X51.755 Y67.607 E27.89866
G1 X49.488 Y67.607 E28.10477
G1 X49.488 Y62.273 E28.58975
G1 X48.475 Y60.620 E28.76605
G1 X47.060 Y57.203 E29.10243
G1 X46.196 Y53.605 E29.43881
G1 X45.906 Y49.917 E29.77519
G1 X46.196 Y46.230 E30.11156
G1 X47.060 Y42.632 E30.44794
G1 X48.475 Y39.215 E30.78433
G1 X48.947 Y38.445 E30.86636
G1 F1800.000 E29.86636
G92 E0
G1 X93.289 Y53.765 F7800.000
G1 E1.00000 F1800.000
G1 X93.542 Y54.078 E1.03661 F378.000
G1 X94.001 Y53.606 E1.09651
G1 X93.542 Y54.078 F7800.000
G1 X93.489 Y54.542 E1.13895 F378.000
G1 X93.093 Y54.916 E1.18844
G1 X92.916 Y54.908 E1.20459
G1 X93.495 Y54.860 F7800.000
G1 X93.536 Y54.658 E1.22336 F378.000
G1 X93.489 Y54.542 F7800.000
G1 X93.649 Y54.796 E1.25071 F378.000
G1 F1800.000 E0.25071
G92 E0
G1 X90.768 Y61.630 F7800.000
G1 E1.00000 F1800.000
G1 X90.809 Y61.981 E1.03212 F378.000
G1 X91.263 Y61.920 E1.07375
G1 X90.809 Y61.981 F7800.000
G1 X90.325 Y63.102 E1.18479 F378.000
G1 X89.801 Y63.410 E1.24000
G1 X89.705 Y62.840 E1.29257
G1 X89.801 Y63.410 F7800.000
G1 X89.685 Y63.723 E1.32289 F378.000
G1 X89.641 Y63.656 F7800.000
G1 X89.105 Y63.802 E1.37339 F378.000
G1 X89.507 Y63.936 F7800.000
G1 X89.545 Y63.708 E1.39441 F378.000
G1 X87.211 Y63.734 F7800.000
G1 X55.664 Y32.187 E5.47308 F1080.000
G1 X56.143 Y31.777 E5.53069
G1 X87.621 Y63.255 E9.60032
G1 X87.973 Y62.718 E9.65898
G1 X56.680 Y31.425 E13.70478
G1 X57.230 Y31.088 E13.76385
G1 X88.310 Y62.168 E17.78207
G1 X88.648 Y61.617 E17.84114
G1 X57.781 Y30.750 E21.83178
G1 X58.332 Y30.413 E21.89085
G1 X88.986 Y61.066 E25.85392
G1 X89.323 Y60.515 E25.91299
G1 X58.883 Y30.075 E29.84848
G1 X59.459 Y29.763 E29.90839
G1 X89.661 Y59.964 E33.81305
G1 X90.110 Y59.524 E33.87049
G1 X60.088 Y29.502 E37.75195
G1 X60.716 Y29.242 E37.81412
G1 X90.934 Y59.460 E41.72093
G1 X91.236 Y58.874 E41.78124
G1 X61.344 Y28.982 E45.64586
G1 X61.972 Y28.722 E45.70803
G1 X91.473 Y58.222 E49.52208
G1 X91.710 Y57.571 E49.58545
G1 X91.663 Y57.524 E49.59151
G1 X90.925 Y56.786 F7800.000
G1 X62.612 Y28.473 E53.25209 F1080.000
G1 X63.328 Y28.301 E53.31945
G1 X91.097 Y56.070 E56.90963
G1 X91.269 Y55.353 E56.97699
G1 X64.045 Y28.129 E60.49678
G1 X64.761 Y27.957 E60.56414
G1 X91.442 Y54.637 E64.01354
G1 X91.614 Y53.920 E64.08090
G1 X65.478 Y27.785 E67.45991
G1 X66.230 Y27.648 E67.52978
G1 X91.750 Y53.168 E70.82921
G1 X91.815 Y52.345 E70.90474
G1 X67.053 Y27.583 E74.10607
G1 X67.877 Y27.518 E74.18160
G1 X91.880 Y51.521 E77.28482
G1 X91.945 Y50.697 E77.36035
G1 X68.701 Y27.454 E80.36546
G1 X69.532 Y27.396 E80.44162
G1 X92.412 Y50.276 E83.39966
G1 X92.614 Y49.590 E83.46503
G1 X70.496 Y27.472 E86.32461
G1 X71.461 Y27.548 E86.41305
G1 X92.763 Y48.851 E89.16722
G1 X92.912 Y48.111 E89.23618
G1 X72.425 Y27.624 E91.88493
G1 X73.471 Y27.782 E91.98165
G1 X92.852 Y47.162 E94.48731
G1 X92.707 Y46.129 E94.58270
G1 X74.640 Y28.062 E96.91848
G1 X75.810 Y28.343 E97.02840
G1 X92.467 Y45.001 E99.18201
G1 X92.227 Y43.872 E99.28747
G1 X77.138 Y28.783 E101.23826
G1 X78.655 Y29.412 F7800.000
G1 X91.826 Y42.582 E102.94106 F1080.000
G1 X91.318 Y41.186 F7800.000
G1 X80.411 Y30.279 E104.35120 F1080.000
G1 X82.705 Y31.685 F7800.000
G1 X90.614 Y39.594 E105.37371 F1080.000
G1 X89.605 Y37.696 F7800.000
G1 X83.714 Y31.805 E106.13541 F1080.000
G1 X85.045 Y32.247 E106.26365
G1 X86.498 Y33.701 E106.45155
G1 X83.943 Y66.686 F7800.000
G1 X68.871 Y51.613 E108.40023 F1080.000
G1 X70.174 Y52.028 E108.52523
G1 X84.423 Y66.276 E110.36741
G1 X84.902 Y65.867 E110.42503
G1 X70.548 Y51.513 E112.28082
G1 X70.922 Y50.998 E112.33897
G1 X85.381 Y65.458 E114.20839
G1 X85.860 Y65.048 E114.26600
G1 X71.296 Y50.484 E116.14903
G1 X71.669 Y49.969 E116.20718
G1 X86.339 Y64.639 E118.10382
G1 X86.788 Y64.199 E118.16126
G1 X55.185 Y32.596 E122.24715
G1 X54.706 Y33.005 E122.30476
G1 X69.664 Y47.964 E124.23873
G1 X68.994 Y48.182 E124.30319
G1 X54.226 Y33.415 E126.21242
G1 X53.755 Y33.832 E126.26996
G1 X68.323 Y48.400 E128.15339
G1 X67.680 Y48.645 E128.21634
G1 X53.311 Y34.276 E130.07401
G1 X52.900 Y34.754 E130.13160
G1 X67.680 Y49.533 E132.04238
G1 X67.680 Y50.422 E132.12361
G1 X52.491 Y35.233 E134.08730
G1 X52.082 Y35.712 E134.14492
G1 X83.464 Y67.095 E138.20226
G1 X82.985 Y67.504 E138.25987
G1 X51.673 Y36.192 E142.30817
G1 X51.263 Y36.671 E142.36578
G1 X82.501 Y67.909 E146.40445
G1 X81.950 Y68.246 E146.46352
G1 X50.854 Y37.150 E150.48388
G1 X50.445 Y37.629 E150.54149
G1 X81.399 Y68.584 E154.54354
G1 X80.849 Y68.922 E154.60260
G1 X50.042 Y38.115 E158.58546
G1 X49.912 Y38.873 E158.65579
G1 X80.298 Y69.259 E162.58428
G1 X79.747 Y69.597 E162.64335
G1 X49.574 Y39.424 E166.54425
G1 X49.277 Y40.015 E166.60473
G1 X79.144 Y69.883 E170.46620
G1 X78.516 Y70.143 E170.52837
G1 X49.016 Y40.643 E174.34226
G1 X48.756 Y41.272 E174.40443
G1 X77.887 Y70.403 E178.17074
G1 X77.259 Y70.663 E178.23291
G1 X48.496 Y41.900 E181.95164
G1 X48.236 Y42.528 E182.01381
G1 X76.631 Y70.923 E185.68496
G1 X75.955 Y71.136 E185.74976
G1 X48.003 Y43.184 E189.36350
G1 X47.831 Y43.901 E189.43086
G1 X75.238 Y71.308 E192.97421
G1 X74.522 Y71.480 E193.04158
G1 X47.659 Y44.617 E196.51453
G1 X47.487 Y45.334 E196.58189
G1 X73.805 Y71.652 E199.98445
G1 X73.089 Y71.824 E200.05181
G1 X47.315 Y46.050 E203.38398
G1 X47.199 Y46.823 E203.45538
G1 X72.285 Y71.908 E206.69865
G1 X71.461 Y71.973 E206.77419
G1 X47.134 Y47.646 E209.91936
G1 X47.070 Y48.470 E209.99489
G1 X70.638 Y72.038 E213.04196
G1 X69.814 Y72.103 E213.11749
G1 X47.005 Y49.294 E216.06645
G1 X46.974 Y50.151 E216.14492
G1 X68.907 Y72.084 E218.98053
G1 X67.942 Y72.008 E219.06896
G1 X47.050 Y51.116 E221.77008
G1 X47.126 Y52.080 E221.85851
G1 X66.978 Y71.932 E224.42513
G1 X66.014 Y71.856 E224.51357
G1 X47.202 Y53.045 E226.94569
G1 X47.398 Y54.129 E227.04648
G1 X65.049 Y71.780 E229.32852
G1 X64.551 Y72.171 E229.38637
G1 X47.679 Y55.299 E231.56776
G1 X47.960 Y56.468 E231.67768
G1 X63.898 Y72.406 E233.73828
G1 X62.363 Y71.760 F7800.000
G1 X48.466 Y57.863 E235.53503 F1080.000
G1 X49.094 Y59.379 F7800.000
G1 X61.628 Y71.913 E237.15551 F1080.000
G1 X60.533 Y71.706 E237.25742
G1 X50.108 Y61.282 E238.60518
G1 X50.535 Y62.597 E238.73159
G1 X58.798 Y70.861 E239.79993
G1 X56.699 Y69.650 F7800.000
G1 X50.535 Y63.486 E240.59694 F1080.000
G1 X51.239 Y65.079 F7800.000
G1 X51.695 Y65.534 E240.65584 F1080.000
G1 X50.693 Y65.391 F7800.000
G1 X50.551 Y65.249 E240.66456 F360.000
G1 X50.693 Y64.969 E240.67819 F360.000
G1 X50.571 Y64.847 E240.68564 F360.000
G1 X50.693 Y65.391 F7800.000
G1 X50.551 Y65.671 E240.69928 F360.000
G1 X50.693 Y65.813 E240.70799 F360.000
G1 X50.551 Y66.093 E240.72163 F360.000
G1 X50.693 Y66.235 E240.73034 F360.000
G1 X50.551 Y66.515 E240.74397 F360.000
G1 X50.581 Y66.545 E240.74580 F360.000
G1 X49.658 Y36.881 F7800.000
G1 X49.623 Y36.845 E240.75101 F360.000
G1 X49.846 Y36.063 E240.83524 F360.000
G1 X49.623 Y35.839 E240.86793 F360.000
G1 X49.846 Y35.057 E240.95215 F360.000
G1 X49.775 Y34.986 E240.96256 F360.000
G1 F1800.000 E239.96256
G92 E0
G1 X86.994 Y64.798 F7800.000
G1 E1.00000 F1800.000
G1 X87.071 Y64.876 E1.00507 F360.000
G1 X87.019 Y65.272 E1.02347 F360.000
