; generated by Slic3r 1.0.0RC2 on 2014-01-11 at 18:45:44

; layer_height = 0.25
; perimeters = 1
; top_solid_layers = 5
; bottom_solid_layers = 3
; fill_density = 0.13
; perimeter_speed = 30
; infill_speed = 60
; travel_speed = 130
; nozzle_diameter = 0.35
; filament_diameter = 1.75
; extrusion_multiplier = 1
; perimeters extrusion width = 0.35mm
; infill extrusion width = 0.39mm
; solid infill extrusion width = 0.39mm
; top infill extrusion width = 0.39mm
; first layer extrusion width = 0.70mm

G21 ; set units to millimeters
M107
M104 S220 ; set temperature
G28 ; home all axes
G1 Z5 F5000 ; lift nozzle

M109 S220 ; wait for temperature to be reached
G90 ; use absolute coordinates
G92 E0
M82 ; use absolute distances for extrusion
G1 F1800.000 E-1.00000
G92 E0
G1 Z0.350 F7800.000
G1 X44.164 Y48.644 F7800.000
G1 E1.00000 F1800.000
G1 X45.384 Y47.774 E1.13625 F540.000
G1 X55.494 Y42.064 E2.19204
G1 X56.264 Y41.684 E2.27012
G1 X60.054 Y40.384 E2.63445
G1 X60.694 Y40.194 E2.69515
G1 X64.344 Y39.314 E3.03656
G1 X65.484 Y39.134 E3.14150
G1 X69.234 Y38.844 E3.48351
G1 X70.354 Y38.844 E3.58535
G1 X74.094 Y39.134 E3.92644
G1 X75.234 Y39.314 E4.03139
G1 X78.884 Y40.194 E4.37279
G1 X79.944 Y40.544 E4.47429
G1 X83.414 Y41.974 E4.81556
G1 X84.444 Y42.494 E4.92048
G1 X87.644 Y44.454 E5.26170
G1 X93.204 Y47.944 E5.85861
G1 X94.364 Y48.844 E5.99211
G1 X95.324 Y49.964 E6.12625
G1 X96.034 Y51.254 E6.26014
G1 X99.394 Y59.194 E7.04410
G1 X99.644 Y59.894 E7.11169
G1 X101.564 Y66.154 E7.70708
G1 X101.764 Y66.954 E7.78206
G1 X101.864 Y67.774 E7.85718
G1 X101.984 Y69.484 E8.01305
G1 X101.984 Y70.494 E8.10489
G1 X101.904 Y71.664 E8.21153
G1 X101.744 Y73.954 E8.42026
G1 X101.604 Y74.994 E8.51568
G1 X100.864 Y78.454 E8.83741
G1 X98.374 Y89.614 E9.87714
G1 X97.914 Y90.994 E10.00941
G1 X97.184 Y92.254 E10.14182
G1 X96.224 Y93.354 E10.27458
G1 X95.054 Y94.234 E10.40770
G1 X93.744 Y94.854 E10.53948
G1 X85.634 Y97.764 E11.32296
G1 X79.294 Y99.694 E11.92557
G1 X75.214 Y100.674 E12.30712
G1 X74.114 Y100.854 E12.40847
G1 X70.374 Y101.154 E12.74964
G1 X69.214 Y101.154 E12.85512
G1 X65.464 Y100.854 E13.19719
G1 X64.604 Y100.734 E13.27615
G1 X56.704 Y99.134 E14.00908
G1 X55.894 Y98.914 E14.08540
G1 X55.114 Y98.614 E14.16139
G1 X46.424 Y94.624 E15.03088
G1 X45.144 Y93.864 E15.16624
G1 X44.044 Y92.864 E15.30142
G1 X43.174 Y91.654 E15.43693
G1 X42.564 Y90.294 E15.57246
G1 X39.444 Y80.794 E16.48169
G1 X38.404 Y77.184 E16.82329
G1 X38.194 Y76.184 E16.91621
G1 X38.054 Y75.174 E17.00892
G1 X37.984 Y74.254 E17.09282
G1 X38.034 Y73.324 E17.17751
G1 X38.964 Y65.404 E17.90262
G1 X39.094 Y64.634 E17.97362
G1 X41.884 Y52.464 E19.10894
G1 X42.374 Y51.044 E19.24553
G1 X43.144 Y49.744 E19.38292
G1 X44.100 Y48.713 E19.51081
G1 X44.574 Y49.114 F7800.000
G1 X45.694 Y48.314 E19.63596 F540.000
G1 X55.804 Y42.604 E20.69175
G1 X56.504 Y42.264 E20.76251
G1 X60.254 Y40.974 E21.12310
G1 X60.844 Y40.804 E21.17894
G1 X64.494 Y39.924 E21.52034
G1 X65.534 Y39.754 E21.61616
G1 X69.284 Y39.464 E21.95816
G1 X70.304 Y39.464 E22.05091
G1 X74.044 Y39.754 E22.39201
G1 X75.084 Y39.924 E22.48783
G1 X78.734 Y40.804 E22.82923
G1 X79.704 Y41.114 E22.92183
G1 X83.174 Y42.544 E23.26310
G1 X84.114 Y43.024 E23.35907
G1 X87.314 Y44.984 E23.70029
G1 X92.874 Y48.474 E24.29720
G1 X93.934 Y49.294 E24.41906
G1 X94.804 Y50.324 E24.54166
G1 X95.454 Y51.504 E24.66416
G1 X98.814 Y59.444 E25.44812
G1 X99.044 Y60.084 E25.50996
G1 X100.964 Y66.344 E26.10535
G1 X101.144 Y67.074 E26.17372
G1 X101.244 Y67.824 E26.24252
G1 X101.364 Y69.534 E26.39839
G1 X101.364 Y70.454 E26.48205
G1 X101.284 Y71.614 E26.58778
G1 X101.124 Y73.914 E26.79742
G1 X100.994 Y74.864 E26.88461
G1 X100.254 Y78.314 E27.20545
G1 X97.764 Y89.474 E28.24518
G1 X97.344 Y90.744 E28.36681
G1 X96.674 Y91.894 E28.48783
G1 X95.794 Y92.894 E28.60895
G1 X94.734 Y93.694 E28.72971
G1 X93.534 Y94.274 E28.85090
G1 X85.764 Y97.064 E29.60159
G1 X79.114 Y99.094 E30.23382
G1 X75.074 Y100.064 E30.61162
G1 X74.064 Y100.224 E30.70460
G1 X70.324 Y100.524 E31.04577
G1 X69.264 Y100.524 E31.14215
G1 X65.514 Y100.224 E31.48423
G1 X64.724 Y100.114 E31.55676
G1 X56.824 Y98.514 E32.28968
G1 X56.094 Y98.324 E32.35828
G1 X55.384 Y98.044 E32.42767
G1 X46.694 Y94.054 E33.29716
G1 X45.514 Y93.364 E33.42146
G1 X44.514 Y92.444 E33.54502
G1 X43.714 Y91.344 E33.66869
G1 X43.164 Y90.104 E33.79204
G1 X39.964 Y80.364 E34.72427
G1 X39.004 Y77.014 E35.04114
G1 X38.814 Y76.094 E35.12656
G1 X38.674 Y75.084 E35.21928
G1 X38.614 Y74.244 E35.29586
G1 X38.654 Y73.404 E35.37232
G1 X39.584 Y65.484 E36.09743
G1 X39.704 Y64.774 E36.16291
G1 X42.494 Y52.604 E37.29823
G1 X42.944 Y51.304 E37.42332
G1 X43.644 Y50.124 E37.54807
G1 X44.510 Y49.183 E37.66439
G1 F1800.000 E36.66439
G92 E0
G1 X68.417 Y68.998 F7800.000
G1 E1.00000 F1800.000
G1 X70.323 Y68.378 E1.18226 F540.000
G1 X71.501 Y70.000 E1.36451
G1 X70.323 Y71.622 E1.54677
G1 X68.417 Y71.002 E1.72903
G1 X68.417 Y69.092 E1.90277
G1 X69.042 Y69.452 F7800.000
G1 X70.084 Y69.113 E2.00246 F540.000
G1 X70.729 Y70.000 E2.10215
G1 X70.084 Y70.887 E2.20184
G1 X69.042 Y70.548 E2.30153
G1 X69.042 Y69.546 E2.39270
G1 F1800.000 E1.39270
G92 E0
G1 X49.936 Y58.624 F7800.000
G1 E1.00000 F1800.000
G1 X49.936 Y58.027 E1.05426 F540.000
G1 X53.570 Y53.773 E1.56298
G1 X56.308 Y51.435 E1.89042
G1 X59.235 Y49.641 E2.20261
G1 X59.293 Y49.558 E2.21177
G1 X59.559 Y49.340 E2.24305
G1 X59.717 Y49.413 E2.25890
G1 X62.705 Y48.175 E2.55295
G1 X66.206 Y47.334 E2.88039
G1 X69.796 Y47.052 E3.20782
G1 X73.386 Y47.334 E3.53526
G1 X76.888 Y48.175 E3.86269
G1 X80.214 Y49.553 E4.19013
G1 X83.285 Y51.435 E4.51756
G1 X86.023 Y53.773 E4.84500
G1 X87.128 Y55.066 E4.99964
G1 X88.383 Y55.066 E5.11379
G1 X88.383 Y56.546 E5.24834
G1 X90.243 Y59.582 E5.57207
G1 X91.196 Y61.883 E5.79856
G1 X91.588 Y62.095 E5.83909
G1 X91.775 Y62.229 E5.85999
G1 X91.711 Y62.602 E5.89441
G1 X91.679 Y63.150 E5.94432
G1 X92.462 Y66.410 E6.24917
G1 X92.556 Y67.607 E6.35836
G1 X92.984 Y68.137 E6.42023
G1 X93.217 Y68.363 E6.44980
G1 X93.697 Y68.775 E6.50731
G1 X93.793 Y70.153 E6.63289
G1 X93.461 Y70.292 E6.66567
G1 X93.206 Y70.458 E6.69338
G1 X92.982 Y70.675 E6.72167
G1 X92.796 Y70.944 E6.75147
G1 X92.638 Y71.357 E6.79168
G1 X92.493 Y73.193 E6.95913
G1 X93.527 Y73.445 E7.05585
G1 X92.853 Y76.612 E7.35024
G1 X91.709 Y79.756 E7.65452
G1 X90.999 Y81.091 E7.79194
G1 X90.078 Y81.442 E7.88161
G1 X89.559 Y81.535 E7.92955
G1 X88.362 Y83.488 E8.13792
G1 X86.611 Y85.537 E8.38299
G1 X88.161 Y85.296 E8.52565
G1 X89.414 Y87.065 E8.72271
G1 X87.895 Y87.065 E8.86079
G1 X87.377 Y86.240 E8.94931
G1 X86.736 Y86.904 E9.03319
G1 X86.390 Y86.806 E9.06592
G1 X86.125 Y86.140 E9.13113
G1 X83.518 Y88.366 E9.44290
G1 X83.671 Y88.578 E9.46666
G1 X83.530 Y88.822 E9.49231
G1 X83.414 Y89.310 E9.53790
G1 X82.748 Y88.894 E9.60930
G1 X80.214 Y90.447 E9.87951
G1 X76.888 Y91.825 E10.20695
G1 X73.386 Y92.666 E10.53438
G1 X69.796 Y92.948 E10.86182
G1 X66.206 Y92.666 E11.18925
G1 X62.705 Y91.825 E11.51669
G1 X60.077 Y90.737 E11.77531
G1 X59.996 Y90.755 E11.78289
G1 X59.864 Y90.648 E11.79833
G1 X59.378 Y90.447 E11.84616
G1 X56.308 Y88.565 E12.17360
G1 X53.751 Y86.382 E12.47933
G1 X53.596 Y87.612 E12.59207
G1 X51.446 Y85.676 E12.85523
G1 X51.446 Y87.065 E12.98154
G1 X50.429 Y87.065 E13.07401
G1 X50.429 Y84.160 E13.33815
G1 X48.617 Y81.261 E13.64895
G1 X47.256 Y78.204 E13.95324
G1 X46.334 Y74.987 E14.25753
G1 X46.291 Y74.680 E14.28575
G1 X47.181 Y74.228 E14.37650
G1 X46.848 Y70.000 E14.76218
G1 X47.131 Y66.410 E15.08962
G1 X47.971 Y62.909 E15.41705
G1 X49.349 Y59.582 E15.74449
G1 X49.887 Y58.704 E15.83808
G1 X49.311 Y58.448 F7800.000
G1 X49.311 Y54.442 E16.20239 F378.000
G1 X50.788 Y54.442 E16.33670
G1 X50.788 Y56.068 E16.48455
G1 X53.126 Y53.330 E16.81190
G1 X55.939 Y50.927 E17.14828
G1 X58.799 Y49.175 E17.45323
G1 X58.834 Y49.125 E17.45886
G1 X59.096 Y48.916 E17.48931
G1 X59.255 Y48.726 E17.51182
G1 X59.390 Y48.722 E17.52406
G1 X59.615 Y48.678 E17.54491
G1 X59.730 Y48.731 E17.55644
G1 X62.511 Y47.579 E17.83015
G1 X66.108 Y46.715 E18.16653
G1 X69.796 Y46.425 E18.50291
G1 X73.484 Y46.715 E18.83929
G1 X77.081 Y47.579 E19.17567
G1 X80.499 Y48.995 E19.51205
G1 X83.653 Y50.927 E19.84843
G1 X86.466 Y53.330 E20.18480
G1 X87.416 Y54.442 E20.31772
G1 X89.008 Y54.442 E20.46250
G1 X89.008 Y56.370 E20.63785
G1 X90.802 Y59.297 E20.95003
G1 X91.689 Y61.439 E21.16082
G1 X91.921 Y61.564 E21.18479
G1 X92.101 Y61.694 E21.20500
G1 X92.218 Y61.825 E21.22095
G1 X92.402 Y62.174 E21.25687
G1 X92.398 Y62.301 E21.26838
G1 X92.330 Y62.687 E21.30405
G1 X92.306 Y63.083 E21.34014
G1 X93.081 Y66.312 E21.64210
G1 X93.164 Y67.373 E21.73883
G1 X93.437 Y67.706 E21.77799
G1 X93.642 Y67.905 E21.80396
G1 X94.302 Y68.464 E21.88256
G1 X94.409 Y70.000 E22.02261
G1 X94.359 Y70.714 E22.08769
G1 X93.985 Y70.750 E22.12189
G1 X93.755 Y70.846 E22.14460
G1 X93.597 Y70.949 E22.16172
G1 X93.461 Y71.080 E22.17888
G1 X93.353 Y71.238 E22.19624
G1 X93.253 Y71.497 E22.22146
G1 X93.158 Y72.712 E22.33231
G1 X94.202 Y72.966 E22.43001
G1 X94.170 Y73.425 E22.47188
G1 X93.456 Y76.784 E22.78411
G1 X92.281 Y80.011 E23.09635
G1 X91.387 Y81.692 E23.26947
G1 X91.075 Y81.731 E23.29809
G1 X90.245 Y82.047 E23.37882
G1 X89.945 Y82.100 E23.40655
G1 X88.869 Y83.857 E23.59388
G1 X88.182 Y84.660 E23.68998
G1 X89.661 Y84.430 E23.82607
G1 X88.979 Y85.369 E23.93161
G1 X90.622 Y87.689 E24.19012
G1 X87.550 Y87.689 E24.46946
G1 X87.272 Y87.248 E24.51685
G1 X86.823 Y87.713 E24.57564
G1 X86.561 Y87.504 E24.60617
G1 X86.349 Y87.444 E24.62615
G1 X85.989 Y87.490 E24.65917
G1 X85.867 Y87.182 E24.68935
G1 X84.362 Y88.467 E24.86928
G1 X84.449 Y88.587 E24.88275
G1 X84.217 Y88.882 E24.91687
G1 X84.117 Y89.056 E24.93508
G1 X84.066 Y89.270 E24.95510
G1 X84.111 Y89.482 E24.97481
G1 X84.279 Y89.843 E25.01102
G1 X83.611 Y90.365 E25.08813
G1 X83.358 Y90.074 E25.12318
G1 X82.978 Y89.774 E25.16722
G1 X82.745 Y89.629 E25.19213
G1 X80.499 Y91.005 E25.43166
G1 X77.081 Y92.421 E25.76804
G1 X73.484 Y93.285 E26.10442
G1 X69.796 Y93.575 E26.44080
G1 X66.108 Y93.285 E26.77718
G1 X62.511 Y92.421 E27.11356
G1 X60.022 Y91.390 E27.35853
G1 X59.952 Y91.406 E27.36512
G1 X59.801 Y91.397 E27.37887
G1 X59.541 Y91.191 E27.40902
G1 X59.093 Y91.005 E27.45309
G1 X55.939 Y89.073 E27.78947
G1 X54.227 Y87.610 E27.99427
G1 X54.067 Y88.877 E28.11039
G1 X52.071 Y87.079 E28.35473
G1 X52.071 Y87.689 E28.41024
G1 X49.804 Y87.689 E28.61635
G1 X49.804 Y84.339 E28.92103
G1 X48.064 Y81.555 E29.21951
G1 X46.668 Y78.418 E29.53175
G1 X45.721 Y75.117 E29.84398
G1 X45.613 Y74.348 E29.91462
G1 X46.525 Y73.860 E30.00866
G1 X46.221 Y70.000 E30.36077
G1 X46.512 Y66.312 E30.69715
G1 X47.375 Y62.715 E31.03353
G1 X48.791 Y59.297 E31.36991
G1 X49.262 Y58.528 E31.45194
G1 X54.447 Y89.443 F7800.000
G1 X54.801 Y89.393 E31.48439 F378.000
G1 X54.593 Y88.741 E31.54662
G1 X54.801 Y89.393 F7800.000
G1 X55.204 Y89.643 E31.58980 F378.000
G1 X55.380 Y89.307 E31.62429
G1 X55.204 Y89.643 F7800.000
G1 X55.692 Y89.921 E31.67530 F378.000
G1 X55.851 Y89.463 E31.71939
G1 X55.692 Y89.921 F7800.000
G1 X56.115 Y90.201 E31.76555 F378.000
G1 X56.435 Y89.986 E31.80059
G1 X56.714 Y90.129 F7800.000
G1 X56.688 Y90.563 E31.84012 F378.000
G1 X56.115 Y90.201 E31.90173
G1 X56.688 Y90.563 F7800.000
G1 X57.710 Y91.234 E32.01293 F378.000
G1 X57.734 Y91.209 F7800.000
G1 X58.004 Y91.356 E32.04091 F378.000
G1 X57.990 Y91.768 E32.07839
G1 X58.184 Y91.297 F7800.000
G1 X58.343 Y91.312 E32.09290 F378.000
G1 X58.378 Y91.295 F7800.000
G1 X58.455 Y91.470 E32.11026 F378.000
G1 F1800.000 E31.11026
G92 E0
G1 X93.659 Y72.318 F7800.000
G1 E1.00000 F1800.000
G1 X94.017 Y72.246 E1.03318 F378.000
G1 X94.016 Y72.245 F7800.000
G1 X94.284 Y72.244 E1.05758 F378.000
G1 X94.172 Y72.315 F7800.000
G1 X94.427 Y72.529 E1.08788 F378.000
G1 F1800.000 E0.08788
G92 E0
G1 X93.350 Y69.861 F7800.000
G1 E1.00000 F1800.000
G1 X71.064 Y47.574 E3.89313 F1080.000
G1 X70.095 Y47.498 E3.98229
G1 X92.831 Y70.234 E6.93373
G1 X92.433 Y70.728 E6.99197
G1 X69.225 Y47.520 E10.00477
G1 X68.398 Y47.585 E10.08092
G1 X92.212 Y71.399 E13.17231
G1 X92.146 Y72.226 E13.24846
G1 X67.571 Y47.650 E16.43876
G1 X66.744 Y47.715 E16.51491
G1 X92.987 Y73.958 E19.92164
G1 X92.830 Y74.694 E19.99068
G1 X65.963 Y47.826 E23.47846
G1 X65.244 Y47.999 E23.54637
G1 X92.674 Y75.429 E27.10724
G1 X92.517 Y76.165 E27.17628
G1 X64.524 Y48.172 E30.81023
G1 X63.805 Y48.344 E30.87815
G1 X92.316 Y76.856 E34.57935
G1 X92.078 Y77.510 E34.64324
G1 X63.085 Y48.517 E38.40692
G1 X62.424 Y48.748 E38.47123
G1 X91.840 Y78.164 E42.28990
G1 X91.602 Y78.818 E42.35379
G1 X61.793 Y49.009 E46.22344
G1 X61.162 Y49.270 E46.28612
G1 X91.364 Y79.472 E50.20675
G1 X91.066 Y80.067 E50.26779
G1 X60.531 Y49.532 E54.23171
G1 X59.900 Y49.793 E54.29439
G1 X90.757 Y80.649 E58.30000
G1 X90.171 Y80.955 E58.36068
G1 X59.307 Y50.091 E62.36733
G1 X58.753 Y50.430 E62.42688
G1 X89.449 Y81.126 E66.41167
G1 X89.027 Y81.596 E66.46965
G1 X58.200 Y50.769 E70.47144
G1 X57.647 Y51.108 E70.53099
G1 X88.688 Y82.149 E74.56059
G1 X88.349 Y82.702 E74.62014
G1 X57.094 Y51.447 E78.67754
G1 X56.543 Y51.788 E78.73703
G1 X88.008 Y83.253 E82.82172
G1 X87.597 Y83.734 E82.87980
G1 X56.062 Y52.199 E86.97358
G1 X55.581 Y52.610 E87.03167
G1 X87.186 Y84.215 E91.13454
G1 X86.775 Y84.696 E91.19263
G1 X71.873 Y69.794 E93.12714
G1 X71.671 Y70.484 E93.19313
G1 X86.364 Y85.177 E95.10055
G1 X85.841 Y85.547 E95.15930
G1 X71.295 Y71.001 E97.04758
G1 X70.920 Y71.518 E97.10621
G1 X85.504 Y86.102 E98.99950
G1 X85.030 Y86.520 E99.05752
G1 X70.544 Y72.034 E100.93802
G1 X69.374 Y71.756 E101.04840
G1 X84.549 Y86.931 E103.01831
G1 X84.068 Y87.342 E103.07639
G1 X52.454 Y55.728 E107.18036
G1 X52.043 Y56.209 E107.23844
G1 X83.587 Y87.753 E111.33329
G1 X83.106 Y88.164 E111.39137
G1 X51.632 Y56.691 E115.47711
G1 X51.221 Y57.172 E115.53519
G1 X82.563 Y88.513 E119.60382
G1 X82.010 Y88.852 E119.66337
G1 X50.810 Y57.653 E123.71354
G1 X50.399 Y58.134 E123.77162
G1 X81.457 Y89.191 E127.80333
G1 X80.903 Y89.530 E127.86288
G1 X50.266 Y58.893 E131.84011
G1 X49.927 Y59.446 E131.89966
G1 X80.350 Y89.869 E135.84908
G1 X79.765 Y90.177 E135.90972
G1 X49.620 Y60.031 E139.82311
G1 X49.358 Y60.662 E139.88579
G1 X79.135 Y90.438 E143.75121
G1 X78.504 Y90.699 E143.81389
G1 X49.097 Y61.292 E147.63134
G1 X48.836 Y61.923 E147.69402
G1 X77.873 Y90.961 E151.46350
G1 X77.242 Y91.222 E151.52618
G1 X48.574 Y62.554 E155.24769
G1 X48.334 Y63.205 E155.31143
G1 X76.591 Y91.463 E158.97967
G1 X75.872 Y91.635 E159.04758
G1 X48.161 Y63.925 E162.64485
G1 X47.988 Y64.644 E162.71276
G1 X75.152 Y91.808 E166.23906
G1 X74.433 Y91.981 E166.30697
G1 X47.815 Y65.364 E169.76229
G1 X47.643 Y66.083 E169.83021
G1 X73.713 Y92.154 E173.21456
G1 X72.945 Y92.277 E173.28599
G1 X47.519 Y66.851 E176.58670
G1 X47.454 Y67.678 E176.66285
G1 X72.118 Y92.343 E179.86466
G1 X71.291 Y92.408 E179.94081
G1 X47.389 Y68.505 E183.04371
G1 X47.323 Y69.332 E183.11986
G1 X70.464 Y92.473 E186.12384
G1 X69.610 Y92.511 E186.20233
G1 X47.286 Y70.186 E189.10034
G1 X47.362 Y71.155 E189.18950
G1 X68.641 Y92.434 E191.95192
G1 X67.673 Y92.358 E192.04108
G1 X47.438 Y72.123 E194.66789
G1 X47.514 Y73.091 E194.75705
G1 X66.705 Y92.282 E197.24827
G1 X65.623 Y92.092 E197.34913
G1 X47.590 Y74.060 E199.68997
G1 X47.286 Y74.648 E199.75073
G1 X64.449 Y91.810 E201.97867
G1 X63.275 Y91.528 E202.08949
G1 X46.788 Y75.042 E204.22971
G1 X47.147 Y76.292 E204.34915
G1 X61.882 Y91.028 E206.26205
G1 X60.359 Y90.397 F7800.000
G1 X47.505 Y77.543 E207.93069 F1080.000
G1 X48.074 Y79.004 F7800.000
G1 X58.460 Y89.390 E209.27899 F1080.000
G1 X55.495 Y87.317 F7800.000
G1 X48.790 Y80.612 E210.14944 F1080.000
G1 X50.060 Y82.774 F7800.000
G1 X53.364 Y86.078 E210.57837 F1080.000
G1 X52.012 Y85.618 F7800.000
G1 X51.555 Y85.161 E210.63773 F1080.000
G1 F1800.000 E209.63773
G92 E0
G1 X67.995 Y70.377 F7800.000
G1 E1.00000 F1800.000
G1 X52.865 Y55.247 E2.96415 F1080.000
G1 X53.276 Y54.766 E3.02223
G1 X67.995 Y69.485 E4.93303
G1 X68.070 Y68.667 E5.00842
G1 X53.694 Y54.292 E6.87461
G1 X54.140 Y53.846 E6.93252
G1 X68.743 Y68.449 E8.82822
G1 X69.416 Y68.230 E8.89321
G1 X54.618 Y53.432 E10.81422
G1 X55.099 Y53.021 E10.87230
G1 X70.090 Y68.011 E12.81826
G1 F1800.000 E11.81826
G92 E0
