; generated by Slic3r 1.0.0RC2 on 2014-01-13 at 14:18:12

; layer_height = 0.25
; perimeters = 1
; top_solid_layers = 5
; bottom_solid_layers = 3
; fill_density = 0.12
; perimeter_speed = 30
; infill_speed = 60
; travel_speed = 130
; nozzle_diameter = 0.35
; filament_diameter = 1.75
; extrusion_multiplier = 1
; perimeters extrusion width = 0.35mm
; infill extrusion width = 0.39mm
; solid infill extrusion width = 0.39mm
; top infill extrusion width = 0.39mm
; first layer extrusion width = 0.70mm

G21 ; set units to millimeters
M107
M104 S220 ; set temperature
G28 ; home all axes
G1 Z5 F5000 ; lift nozzle

M109 S220 ; wait for temperature to be reached
G90 ; use absolute coordinates
G92 E0
M82 ; use absolute distances for extrusion
G1 F1800.000 E-1.00000
G92 E0
G1 Z0.350 F7800.000
G1 X186.884 Y62.464 F7800.000
G1 E1.00000 F1800.000
G1 X187.374 Y61.044 E1.13659 F540.000
G1 X188.144 Y59.744 E1.27398
G1 X189.164 Y58.644 E1.41039
G1 X190.384 Y57.774 E1.54664
G1 X200.494 Y52.064 E2.60242
G1 X201.264 Y51.684 E2.68050
G1 X205.054 Y50.384 E3.04483
G1 X205.694 Y50.194 E3.10554
G1 X209.344 Y49.314 E3.44694
G1 X210.484 Y49.134 E3.55189
G1 X214.234 Y48.844 E3.89389
G1 X215.354 Y48.844 E3.99573
G1 X219.094 Y49.134 E4.33683
G1 X220.234 Y49.314 E4.44177
G1 X223.884 Y50.194 E4.78318
G1 X224.944 Y50.544 E4.88468
G1 X228.414 Y51.974 E5.22595
G1 X229.444 Y52.494 E5.33086
G1 X232.644 Y54.454 E5.67208
G1 X238.204 Y57.944 E6.26900
G1 X239.364 Y58.844 E6.40250
G1 X240.324 Y59.964 E6.53663
G1 X241.034 Y61.254 E6.67052
G1 X244.394 Y69.194 E7.45449
G1 X244.644 Y69.894 E7.52208
G1 X246.564 Y76.154 E8.11747
G1 X246.764 Y76.954 E8.19245
G1 X246.864 Y77.774 E8.26756
G1 X246.984 Y79.484 E8.42344
G1 X246.984 Y80.494 E8.51528
G1 X246.744 Y83.954 E8.83065
G1 X246.604 Y84.994 E8.92607
G1 X245.864 Y88.454 E9.24780
G1 X243.374 Y99.614 E10.28752
G1 X242.914 Y100.994 E10.41980
G1 X242.184 Y102.254 E10.55221
G1 X241.224 Y103.354 E10.68496
G1 X240.054 Y104.234 E10.81808
G1 X238.744 Y104.854 E10.94987
G1 X230.634 Y107.764 E11.73334
G1 X224.294 Y109.694 E12.33596
G1 X220.214 Y110.674 E12.71750
G1 X219.114 Y110.854 E12.81886
G1 X215.374 Y111.154 E13.16002
G1 X214.214 Y111.154 E13.26550
G1 X210.464 Y110.854 E13.60758
G1 X209.604 Y110.734 E13.68653
G1 X201.704 Y109.134 E14.41946
G1 X200.894 Y108.914 E14.49578
G1 X200.114 Y108.614 E14.57177
G1 X191.424 Y104.624 E15.44126
G1 X190.144 Y103.864 E15.57662
G1 X189.044 Y102.864 E15.71180
G1 X188.174 Y101.654 E15.84731
G1 X187.564 Y100.294 E15.98285
G1 X184.364 Y90.534 E16.91680
G1 X183.404 Y87.184 E17.23368
G1 X183.194 Y86.184 E17.32659
G1 X183.054 Y85.174 E17.41931
G1 X182.984 Y84.254 E17.50321
G1 X183.034 Y83.324 E17.58789
G1 X183.964 Y75.404 E18.31300
G1 X184.094 Y74.634 E18.38401
G1 X186.863 Y62.555 E19.51081
G1 X187.494 Y62.604 F7800.000
G1 X187.944 Y61.304 E19.63590 F540.000
G1 X188.644 Y60.124 E19.76065
G1 X189.574 Y59.114 E19.88549
G1 X190.694 Y58.314 E20.01065
G1 X200.804 Y52.604 E21.06643
G1 X201.504 Y52.264 E21.13720
G1 X201.994 Y52.084 E21.18466
G1 X205.254 Y50.974 E21.49780
G1 X205.844 Y50.804 E21.55364
G1 X209.494 Y49.924 E21.89504
G1 X210.534 Y49.754 E21.99086
G1 X214.284 Y49.464 E22.33286
G1 X215.304 Y49.464 E22.42561
G1 X219.044 Y49.754 E22.76671
G1 X220.084 Y49.924 E22.86253
G1 X223.734 Y50.804 E23.20393
G1 X224.704 Y51.114 E23.29653
G1 X228.174 Y52.544 E23.63780
G1 X229.114 Y53.024 E23.73377
G1 X232.314 Y54.984 E24.07499
G1 X237.874 Y58.474 E24.67190
G1 X238.934 Y59.294 E24.79376
G1 X239.804 Y60.324 E24.91636
G1 X240.454 Y61.504 E25.03886
G1 X243.814 Y69.444 E25.82282
G1 X244.044 Y70.084 E25.88466
G1 X245.964 Y76.344 E26.48005
G1 X246.144 Y77.074 E26.54842
G1 X246.244 Y77.824 E26.61722
G1 X246.364 Y79.534 E26.77309
G1 X246.364 Y80.454 E26.85675
G1 X246.124 Y83.914 E27.17212
G1 X245.994 Y84.864 E27.25931
G1 X245.254 Y88.314 E27.58015
G1 X242.764 Y99.474 E28.61988
G1 X242.344 Y100.744 E28.74151
G1 X241.674 Y101.894 E28.86253
G1 X240.794 Y102.894 E28.98365
G1 X239.734 Y103.694 E29.10441
G1 X238.534 Y104.274 E29.22560
G1 X230.764 Y107.064 E29.97629
G1 X224.114 Y109.094 E30.60852
G1 X220.074 Y110.064 E30.98632
G1 X219.064 Y110.224 E31.07930
G1 X215.324 Y110.524 E31.42047
G1 X214.264 Y110.524 E31.51685
G1 X210.514 Y110.224 E31.85893
G1 X209.724 Y110.114 E31.93146
G1 X201.824 Y108.514 E32.66438
G1 X201.094 Y108.324 E32.73297
G1 X200.384 Y108.044 E32.80237
G1 X191.694 Y104.054 E33.67186
G1 X190.514 Y103.364 E33.79616
G1 X189.514 Y102.444 E33.91971
G1 X188.714 Y101.344 E34.04339
G1 X188.164 Y100.104 E34.16674
G1 X184.964 Y90.364 E35.09897
G1 X184.004 Y87.014 E35.41584
G1 X183.814 Y86.094 E35.50126
G1 X183.674 Y85.084 E35.59398
G1 X183.614 Y84.244 E35.67055
G1 X183.654 Y83.404 E35.74702
G1 X184.584 Y75.484 E36.47213
G1 X184.704 Y74.774 E36.53761
G1 X187.473 Y62.695 E37.66441
G1 F1800.000 E36.66441
G92 E0
G1 X213.417 Y78.998 F7800.000
G1 E1.00000 F1800.000
G1 X215.323 Y78.378 E1.18226 F540.000
G1 X216.501 Y80.000 E1.36451
G1 X215.323 Y81.622 E1.54677
G1 X213.417 Y81.002 E1.72903
G1 X213.417 Y79.092 E1.90277
G1 X214.042 Y79.452 F7800.000
G1 X215.084 Y79.113 E2.00246 F540.000
G1 X215.729 Y80.000 E2.10215
G1 X215.084 Y80.887 E2.20184
G1 X214.042 Y80.548 E2.30153
G1 X214.042 Y79.546 E2.39270
G1 F1800.000 E1.39270
G92 E0
G1 X194.936 Y68.624 F7800.000
G1 E1.00000 F1800.000
G1 X194.936 Y68.027 E1.05426 F540.000
G1 X198.570 Y63.773 E1.56298
G1 X201.308 Y61.435 E1.89042
G1 X204.235 Y59.641 E2.20261
G1 X204.293 Y59.558 E2.21177
G1 X204.559 Y59.340 E2.24305
G1 X204.717 Y59.413 E2.25890
G1 X207.705 Y58.175 E2.55295
G1 X211.206 Y57.334 E2.88039
G1 X214.796 Y57.052 E3.20782
G1 X218.386 Y57.334 E3.53526
G1 X221.888 Y58.175 E3.86269
G1 X225.214 Y59.553 E4.19013
G1 X228.285 Y61.435 E4.51756
G1 X231.023 Y63.773 E4.84500
G1 X232.128 Y65.066 E4.99964
G1 X233.383 Y65.066 E5.11379
G1 X233.383 Y66.546 E5.24834
G1 X235.243 Y69.582 E5.57207
G1 X236.196 Y71.883 E5.79856
G1 X236.588 Y72.095 E5.83909
G1 X236.775 Y72.229 E5.85999
G1 X236.711 Y72.602 E5.89441
G1 X236.679 Y73.150 E5.94432
G1 X237.462 Y76.410 E6.24917
G1 X237.556 Y77.607 E6.35836
G1 X237.984 Y78.137 E6.42023
G1 X238.217 Y78.363 E6.44980
G1 X238.697 Y78.775 E6.50731
G1 X238.793 Y80.153 E6.63289
G1 X238.461 Y80.292 E6.66567
G1 X238.206 Y80.458 E6.69338
G1 X237.982 Y80.675 E6.72167
G1 X237.796 Y80.944 E6.75147
G1 X237.638 Y81.357 E6.79168
G1 X237.493 Y83.193 E6.95913
G1 X238.527 Y83.445 E7.05585
G1 X237.853 Y86.612 E7.35024
G1 X236.709 Y89.756 E7.65452
G1 X235.999 Y91.091 E7.79194
G1 X235.078 Y91.442 E7.88161
G1 X234.559 Y91.535 E7.92955
G1 X233.362 Y93.488 E8.13792
G1 X231.611 Y95.537 E8.38299
G1 X233.161 Y95.296 E8.52565
G1 X234.414 Y97.065 E8.72271
G1 X232.895 Y97.065 E8.86079
G1 X232.377 Y96.240 E8.94931
G1 X231.736 Y96.904 E9.03319
G1 X231.390 Y96.806 E9.06592
G1 X231.125 Y96.140 E9.13113
G1 X228.518 Y98.366 E9.44290
G1 X228.671 Y98.578 E9.46666
G1 X228.530 Y98.822 E9.49231
G1 X228.414 Y99.310 E9.53790
G1 X227.748 Y98.894 E9.60930
G1 X225.214 Y100.447 E9.87951
G1 X221.888 Y101.825 E10.20695
G1 X218.386 Y102.666 E10.53438
G1 X214.796 Y102.948 E10.86182
G1 X211.206 Y102.666 E11.18925
G1 X207.705 Y101.825 E11.51669
G1 X205.077 Y100.737 E11.77531
G1 X204.996 Y100.755 E11.78289
G1 X204.864 Y100.648 E11.79833
G1 X204.378 Y100.447 E11.84616
G1 X201.308 Y98.565 E12.17360
G1 X198.751 Y96.382 E12.47933
G1 X198.596 Y97.612 E12.59207
G1 X196.446 Y95.676 E12.85523
G1 X196.446 Y97.065 E12.98154
G1 X195.429 Y97.065 E13.07401
G1 X195.429 Y94.160 E13.33815
G1 X193.617 Y91.261 E13.64895
G1 X192.256 Y88.204 E13.95324
G1 X191.334 Y84.987 E14.25753
G1 X191.291 Y84.680 E14.28575
G1 X192.181 Y84.228 E14.37650
G1 X191.848 Y80.000 E14.76218
G1 X192.131 Y76.410 E15.08962
G1 X192.971 Y72.909 E15.41705
G1 X194.349 Y69.582 E15.74449
G1 X194.887 Y68.704 E15.83808
G1 X194.311 Y68.448 F7800.000
G1 X194.311 Y64.442 E16.20239 F378.000
G1 X195.788 Y64.442 E16.33670
G1 X195.788 Y66.068 E16.48455
G1 X198.126 Y63.330 E16.81190
G1 X200.939 Y60.927 E17.14828
G1 X203.799 Y59.175 E17.45323
G1 X203.834 Y59.125 E17.45886
G1 X204.096 Y58.916 E17.48931
G1 X204.255 Y58.726 E17.51182
G1 X204.390 Y58.722 E17.52406
G1 X204.615 Y58.678 E17.54491
G1 X204.730 Y58.731 E17.55644
G1 X207.511 Y57.579 E17.83015
G1 X211.108 Y56.715 E18.16653
G1 X214.796 Y56.425 E18.50291
G1 X218.484 Y56.715 E18.83929
G1 X222.081 Y57.579 E19.17567
G1 X225.499 Y58.995 E19.51205
G1 X228.653 Y60.927 E19.84843
G1 X231.466 Y63.330 E20.18480
G1 X232.416 Y64.442 E20.31772
G1 X234.008 Y64.442 E20.46250
G1 X234.008 Y66.370 E20.63785
G1 X235.802 Y69.297 E20.95003
G1 X236.689 Y71.439 E21.16082
G1 X236.921 Y71.564 E21.18479
G1 X237.101 Y71.694 E21.20500
G1 X237.218 Y71.825 E21.22095
G1 X237.402 Y72.174 E21.25687
G1 X237.398 Y72.301 E21.26838
G1 X237.330 Y72.687 E21.30405
G1 X237.306 Y73.083 E21.34014
G1 X238.081 Y76.312 E21.64210
G1 X238.164 Y77.373 E21.73883
G1 X238.437 Y77.706 E21.77799
G1 X238.642 Y77.905 E21.80396
G1 X239.302 Y78.464 E21.88256
G1 X239.409 Y80.000 E22.02261
G1 X239.359 Y80.714 E22.08769
G1 X238.985 Y80.750 E22.12189
G1 X238.755 Y80.846 E22.14460
G1 X238.597 Y80.949 E22.16172
G1 X238.461 Y81.080 E22.17888
G1 X238.353 Y81.238 E22.19624
G1 X238.253 Y81.497 E22.22146
G1 X238.158 Y82.712 E22.33231
G1 X239.202 Y82.966 E22.43001
G1 X239.170 Y83.425 E22.47188
G1 X238.456 Y86.784 E22.78411
G1 X237.281 Y90.011 E23.09635
G1 X236.387 Y91.692 E23.26947
G1 X236.075 Y91.731 E23.29809
G1 X235.245 Y92.047 E23.37882
G1 X234.945 Y92.100 E23.40655
G1 X233.869 Y93.857 E23.59388
G1 X233.182 Y94.660 E23.68998
G1 X234.661 Y94.430 E23.82607
G1 X233.979 Y95.369 E23.93161
G1 X235.622 Y97.689 E24.19012
G1 X232.550 Y97.689 E24.46946
G1 X232.272 Y97.248 E24.51685
G1 X231.823 Y97.713 E24.57564
G1 X231.561 Y97.504 E24.60617
G1 X231.349 Y97.444 E24.62615
G1 X230.989 Y97.490 E24.65917
G1 X230.867 Y97.182 E24.68935
G1 X229.362 Y98.467 E24.86928
G1 X229.449 Y98.587 E24.88275
G1 X229.217 Y98.882 E24.91687
G1 X229.117 Y99.056 E24.93508
G1 X229.066 Y99.270 E24.95510
G1 X229.111 Y99.482 E24.97481
G1 X229.279 Y99.843 E25.01102
G1 X228.611 Y100.365 E25.08813
G1 X228.358 Y100.074 E25.12318
G1 X227.978 Y99.774 E25.16722
G1 X227.745 Y99.629 E25.19213
G1 X225.499 Y101.005 E25.43166
G1 X222.081 Y102.421 E25.76804
G1 X218.484 Y103.285 E26.10442
G1 X214.796 Y103.575 E26.44080
G1 X211.108 Y103.285 E26.77718
G1 X207.511 Y102.421 E27.11356
G1 X205.022 Y101.390 E27.35853
G1 X204.952 Y101.406 E27.36512
G1 X204.801 Y101.397 E27.37887
G1 X204.541 Y101.191 E27.40902
G1 X204.093 Y101.005 E27.45309
G1 X200.939 Y99.073 E27.78947
G1 X199.227 Y97.610 E27.99427
G1 X199.067 Y98.877 E28.11039
G1 X197.071 Y97.079 E28.35473
G1 X197.071 Y97.689 E28.41024
G1 X194.804 Y97.689 E28.61635
G1 X194.804 Y94.339 E28.92103
G1 X193.064 Y91.555 E29.21951
G1 X191.668 Y88.418 E29.53175
G1 X190.721 Y85.117 E29.84398
G1 X190.613 Y84.348 E29.91462
G1 X191.525 Y83.860 E30.00866
G1 X191.221 Y80.000 E30.36077
G1 X191.512 Y76.312 E30.69715
G1 X192.375 Y72.715 E31.03353
G1 X193.791 Y69.297 E31.36991
G1 X194.262 Y68.528 E31.45194
G1 X199.447 Y99.443 F7800.000
G1 X199.801 Y99.393 E31.48439 F378.000
G1 X199.593 Y98.741 E31.54662
G1 X199.801 Y99.393 F7800.000
G1 X200.204 Y99.643 E31.58980 F378.000
G1 X200.380 Y99.307 E31.62429
G1 X200.204 Y99.643 F7800.000
G1 X200.692 Y99.921 E31.67530 F378.000
G1 X200.851 Y99.463 E31.71939
G1 X200.692 Y99.921 F7800.000
G1 X201.115 Y100.201 E31.76555 F378.000
G1 X201.435 Y99.986 E31.80059
G1 X201.714 Y100.129 F7800.000
G1 X201.688 Y100.563 E31.84012 F378.000
G1 X201.115 Y100.201 E31.90173
G1 X201.688 Y100.563 F7800.000
G1 X202.710 Y101.234 E32.01293 F378.000
G1 X202.734 Y101.209 F7800.000
G1 X203.004 Y101.356 E32.04091 F378.000
G1 X202.990 Y101.768 E32.07839
G1 X203.184 Y101.297 F7800.000
G1 X203.343 Y101.312 E32.09290 F378.000
G1 X203.378 Y101.295 F7800.000
G1 X203.455 Y101.470 E32.11026 F378.000
G1 F1800.000 E31.11026
G92 E0
G1 X238.659 Y82.318 F7800.000
G1 E1.00000 F1800.000
G1 X239.017 Y82.246 E1.03318 F378.000
G1 X239.016 Y82.245 F7800.000
G1 X239.284 Y82.244 E1.05758 F378.000
G1 X239.172 Y82.315 F7800.000
G1 X239.427 Y82.529 E1.08788 F378.000
G1 F1800.000 E0.08788
G92 E0
G1 X238.350 Y79.861 F7800.000
G1 E1.00000 F1800.000
G1 X216.064 Y57.574 E3.89313 F1080.000
G1 X215.095 Y57.498 E3.98229
G1 X237.831 Y80.234 E6.93373
G1 X237.433 Y80.728 E6.99197
G1 X214.225 Y57.520 E10.00477
G1 X213.398 Y57.585 E10.08092
G1 X237.212 Y81.399 E13.17231
G1 X237.146 Y82.226 E13.24846
G1 X212.571 Y57.650 E16.43876
G1 X211.744 Y57.715 E16.51491
G1 X237.987 Y83.958 E19.92164
G1 X237.830 Y84.694 E19.99068
G1 X210.963 Y57.826 E23.47846
G1 X210.244 Y57.999 E23.54637
G1 X237.674 Y85.429 E27.10724
G1 X237.517 Y86.165 E27.17628
G1 X209.524 Y58.172 E30.81023
G1 X208.805 Y58.344 E30.87815
G1 X237.316 Y86.856 E34.57935
G1 X237.078 Y87.510 E34.64324
G1 X208.085 Y58.517 E38.40692
G1 X207.424 Y58.748 E38.47123
G1 X236.840 Y88.164 E42.28990
G1 X236.602 Y88.818 E42.35379
G1 X206.793 Y59.009 E46.22344
G1 X206.162 Y59.270 E46.28612
G1 X236.364 Y89.472 E50.20675
G1 X236.066 Y90.067 E50.26779
G1 X205.531 Y59.532 E54.23171
G1 X204.900 Y59.793 E54.29439
G1 X235.757 Y90.649 E58.30000
G1 X235.171 Y90.955 E58.36068
G1 X204.307 Y60.091 E62.36733
G1 X203.753 Y60.430 E62.42688
G1 X234.449 Y91.126 E66.41167
G1 X234.027 Y91.596 E66.46965
G1 X203.200 Y60.769 E70.47144
G1 X202.647 Y61.108 E70.53099
G1 X233.688 Y92.149 E74.56059
G1 X233.349 Y92.702 E74.62014
G1 X202.094 Y61.447 E78.67754
G1 X201.543 Y61.788 E78.73703
G1 X233.008 Y93.253 E82.82172
G1 X232.597 Y93.734 E82.87980
G1 X201.062 Y62.199 E86.97358
G1 X200.581 Y62.610 E87.03167
G1 X232.186 Y94.215 E91.13454
G1 X231.775 Y94.696 E91.19263
G1 X216.873 Y79.794 E93.12714
G1 X216.671 Y80.484 E93.19313
G1 X231.364 Y95.177 E95.10055
G1 X230.841 Y95.547 E95.15930
G1 X216.295 Y81.001 E97.04758
G1 X215.920 Y81.518 E97.10621
G1 X230.504 Y96.102 E98.99950
G1 X230.030 Y96.520 E99.05752
G1 X215.544 Y82.034 E100.93802
G1 X214.374 Y81.756 E101.04840
G1 X229.549 Y96.931 E103.01831
G1 X229.068 Y97.342 E103.07639
G1 X197.454 Y65.728 E107.18036
G1 X197.043 Y66.209 E107.23844
G1 X228.587 Y97.753 E111.33329
G1 X228.106 Y98.164 E111.39137
G1 X196.632 Y66.691 E115.47711
G1 X196.221 Y67.172 E115.53519
G1 X227.563 Y98.513 E119.60382
G1 X227.010 Y98.852 E119.66337
G1 X195.810 Y67.653 E123.71354
G1 X195.399 Y68.134 E123.77162
G1 X226.457 Y99.191 E127.80333
G1 X225.903 Y99.530 E127.86288
G1 X195.266 Y68.893 E131.84011
G1 X194.927 Y69.446 E131.89966
G1 X225.350 Y99.869 E135.84908
G1 X224.765 Y100.177 E135.90972
G1 X194.620 Y70.031 E139.82311
G1 X194.358 Y70.662 E139.88579
G1 X224.135 Y100.438 E143.75121
G1 X223.504 Y100.699 E143.81389
G1 X194.097 Y71.292 E147.63134
G1 X193.836 Y71.923 E147.69402
G1 X222.873 Y100.961 E151.46350
G1 X222.242 Y101.222 E151.52618
G1 X193.574 Y72.554 E155.24769
G1 X193.334 Y73.205 E155.31143
G1 X221.591 Y101.463 E158.97967
G1 X220.872 Y101.635 E159.04758
G1 X193.161 Y73.925 E162.64485
G1 X192.988 Y74.644 E162.71276
G1 X220.152 Y101.808 E166.23906
G1 X219.433 Y101.981 E166.30697
G1 X192.815 Y75.364 E169.76229
G1 X192.643 Y76.083 E169.83021
G1 X218.713 Y102.154 E173.21456
G1 X217.945 Y102.277 E173.28599
G1 X192.519 Y76.851 E176.58670
G1 X192.454 Y77.678 E176.66285
G1 X217.118 Y102.343 E179.86466
G1 X216.291 Y102.408 E179.94081
G1 X192.389 Y78.505 E183.04371
G1 X192.323 Y79.332 E183.11986
G1 X215.464 Y102.473 E186.12384
G1 X214.610 Y102.511 E186.20233
G1 X192.286 Y80.186 E189.10034
G1 X192.362 Y81.155 E189.18950
G1 X213.641 Y102.434 E191.95192
G1 X212.673 Y102.358 E192.04108
G1 X192.438 Y82.123 E194.66789
G1 X192.514 Y83.091 E194.75705
G1 X211.705 Y102.282 E197.24827
G1 X210.623 Y102.092 E197.34913
G1 X192.590 Y84.060 E199.68997
G1 X192.286 Y84.648 E199.75073
G1 X209.449 Y101.810 E201.97867
G1 X208.275 Y101.528 E202.08949
G1 X191.788 Y85.042 E204.22971
G1 X192.147 Y86.292 E204.34915
G1 X206.882 Y101.028 E206.26205
G1 X205.359 Y100.397 F7800.000
G1 X192.505 Y87.543 E207.93069 F1080.000
G1 X193.074 Y89.004 F7800.000
G1 X203.460 Y99.390 E209.27899 F1080.000
G1 X200.495 Y97.317 F7800.000
G1 X193.790 Y90.612 E210.14944 F1080.000
G1 X195.060 Y92.774 F7800.000
