; generated by Slic3r 1.0.0RC2 on 2014-01-21 at 18:44:11

; layer_height = 0.25
; perimeters = 1
; top_solid_layers = 5
; bottom_solid_layers = 3
; fill_density = 0.12
; perimeter_speed = 30
; infill_speed = 60
; travel_speed = 130
; nozzle_diameter = 0.35
; filament_diameter = 1.75
; extrusion_multiplier = 1
; perimeters extrusion width = 0.35mm
; infill extrusion width = 0.39mm
; solid infill extrusion width = 0.39mm
; top infill extrusion width = 0.39mm
; first layer extrusion width = 0.70mm

G21 ; set units to millimeters
M107
M104 S220 ; set temperature
G28 ; home all axes
G1 Z5 F5000 ; lift nozzle

M109 S220 ; wait for temperature to be reached
G90 ; use absolute coordinates
G92 E0
M82 ; use absolute distances for extrusion
G1 F1800.000 E-1.00000
G92 E0
G1 Z0.350 F7800.000
G1 X168.964 Y25.404 F7800.000
G1 E1.00000 F1800.000
G1 X169.094 Y24.634 E1.07101 F540.000
G1 X171.884 Y12.464 E2.20633
G1 X172.374 Y11.044 E2.34292
G1 X173.144 Y9.744 E2.48031
G1 X174.164 Y8.644 E2.61671
G1 X175.384 Y7.774 E2.75296
G1 X185.494 Y2.064 E3.80875
G1 X186.264 Y1.684 E3.88683
G1 X190.054 Y0.384 E4.25116
G1 X190.694 Y0.194 E4.31187
G1 X194.344 Y-0.686 E4.65327
G1 X195.484 Y-0.866 E4.75821
G1 X199.234 Y-1.156 E5.10022
G1 X200.354 Y-1.156 E5.20206
G1 X204.094 Y-0.866 E5.54316
G1 X205.234 Y-0.686 E5.64810
G1 X208.884 Y0.194 E5.98950
G1 X209.944 Y0.544 E6.09101
G1 X213.414 Y1.974 E6.43228
G1 X214.444 Y2.494 E6.53719
G1 X217.644 Y4.454 E6.87841
G1 X223.204 Y7.944 E7.47532
G1 X224.364 Y8.844 E7.60883
G1 X225.324 Y9.964 E7.74296
G1 X226.034 Y11.254 E7.87685
G1 X229.394 Y19.194 E8.66082
G1 X229.644 Y19.894 E8.72840
G1 X231.564 Y26.154 E9.32379
G1 X231.764 Y26.954 E9.39878
G1 X231.864 Y27.774 E9.47389
G1 X231.984 Y29.484 E9.62976
G1 X231.984 Y30.494 E9.72160
G1 X231.904 Y31.664 E9.82824
G1 X231.744 Y33.954 E10.03698
G1 X231.604 Y34.994 E10.13239
G1 X230.864 Y38.454 E10.45413
G1 X228.374 Y49.614 E11.49385
G1 X227.914 Y50.994 E11.62612
G1 X227.184 Y52.254 E11.75853
G1 X226.224 Y53.354 E11.89129
G1 X225.054 Y54.234 E12.02441
G1 X223.744 Y54.854 E12.15620
G1 X215.634 Y57.764 E12.93967
G1 X209.294 Y59.694 E13.54228
G1 X205.214 Y60.674 E13.92383
G1 X204.114 Y60.854 E14.02518
G1 X200.374 Y61.154 E14.36635
G1 X199.214 Y61.154 E14.47183
G1 X195.464 Y60.854 E14.81391
G1 X194.604 Y60.734 E14.89286
G1 X186.704 Y59.134 E15.62579
G1 X185.894 Y58.914 E15.70211
G1 X185.114 Y58.614 E15.77810
G1 X176.424 Y54.624 E16.64759
G1 X175.144 Y53.864 E16.78295
G1 X174.044 Y52.864 E16.91813
G1 X173.174 Y51.654 E17.05364
G1 X172.564 Y50.294 E17.18917
G1 X169.444 Y40.794 E18.09840
G1 X168.404 Y37.184 E18.44001
G1 X168.194 Y36.184 E18.53292
G1 X168.054 Y35.174 E18.62564
G1 X167.984 Y34.254 E18.70953
G1 X168.034 Y33.324 E18.79422
G1 X168.953 Y25.497 E19.51081
G1 X169.584 Y25.484 F7800.000
G1 X169.704 Y24.774 E19.57628 F540.000
G1 X172.494 Y12.604 E20.71160
G1 X172.944 Y11.304 E20.83669
G1 X173.644 Y10.124 E20.96145
G1 X174.574 Y9.114 E21.08629
G1 X175.694 Y8.314 E21.21144
G1 X185.804 Y2.604 E22.26723
G1 X186.504 Y2.264 E22.33799
G1 X186.994 Y2.084 E22.38546
G1 X190.254 Y0.974 E22.69860
G1 X190.844 Y0.804 E22.75443
G1 X194.494 Y-0.076 E23.09583
G1 X195.534 Y-0.246 E23.19166
G1 X199.284 Y-0.536 E23.53366
G1 X200.304 Y-0.536 E23.62641
G1 X204.044 Y-0.246 E23.96751
G1 X205.084 Y-0.076 E24.06333
G1 X208.734 Y0.804 E24.40473
G1 X209.704 Y1.114 E24.49733
G1 X213.174 Y2.544 E24.83860
G1 X214.114 Y3.024 E24.93457
G1 X217.314 Y4.984 E25.27579
G1 X222.874 Y8.474 E25.87270
G1 X223.934 Y9.294 E25.99456
G1 X224.804 Y10.324 E26.11716
G1 X225.454 Y11.504 E26.23965
G1 X228.814 Y19.444 E27.02362
G1 X229.044 Y20.084 E27.08546
G1 X230.964 Y26.344 E27.68085
G1 X231.144 Y27.074 E27.74922
G1 X231.244 Y27.824 E27.81802
G1 X231.364 Y29.534 E27.97389
G1 X231.364 Y30.454 E28.05754
G1 X231.284 Y31.614 E28.16327
G1 X231.124 Y33.914 E28.37292
G1 X230.994 Y34.864 E28.46010
G1 X230.254 Y38.314 E28.78095
G1 X227.764 Y49.474 E29.82067
G1 X227.344 Y50.744 E29.94230
G1 X226.674 Y51.894 E30.06333
G1 X225.794 Y52.894 E30.18445
G1 X224.734 Y53.694 E30.30521
G1 X223.534 Y54.274 E30.42640
G1 X215.454 Y57.164 E31.20669
G1 X209.114 Y59.094 E31.80930
G1 X205.074 Y60.064 E32.18710
G1 X204.064 Y60.224 E32.28008
G1 X200.324 Y60.524 E32.62125
G1 X199.264 Y60.524 E32.71764
G1 X195.514 Y60.224 E33.05971
G1 X194.724 Y60.114 E33.13224
G1 X186.824 Y58.514 E33.86517
G1 X186.094 Y58.324 E33.93376
G1 X185.384 Y58.044 E34.00316
G1 X176.694 Y54.054 E34.87265
G1 X175.514 Y53.364 E34.99694
G1 X174.514 Y52.444 E35.12050
G1 X173.714 Y51.344 E35.24418
G1 X173.164 Y50.104 E35.36752
G1 X169.964 Y40.364 E36.29975
G1 X169.004 Y37.014 E36.61663
G1 X168.814 Y36.094 E36.70205
G1 X168.674 Y35.084 E36.79476
G1 X168.614 Y34.244 E36.87134
G1 X168.654 Y33.404 E36.94781
G1 X169.573 Y25.577 E37.66439
G1 F1800.000 E36.66439
G92 E0
G1 X198.417 Y28.998 F7800.000
G1 E1.00000 F1800.000
G1 X200.323 Y28.378 E1.18226 F540.000
G1 X201.501 Y30.000 E1.36451
G1 X200.323 Y31.622 E1.54677
G1 X198.417 Y31.002 E1.72903
G1 X198.417 Y29.092 E1.90277
G1 X199.042 Y29.452 F7800.000
G1 X200.084 Y29.113 E2.00246 F540.000
G1 X200.729 Y30.000 E2.10215
G1 X200.084 Y30.887 E2.20184
G1 X199.042 Y30.548 E2.30153
G1 X199.042 Y29.546 E2.39270
G1 F1800.000 E1.39270
G92 E0
G1 X179.936 Y18.624 F7800.000
G1 E1.00000 F1800.000
G1 X179.936 Y18.027 E1.05426 F540.000
G1 X183.570 Y13.773 E1.56298
G1 X186.308 Y11.435 E1.89042
G1 X189.235 Y9.641 E2.20261
G1 X189.293 Y9.558 E2.21177
G1 X189.559 Y9.340 E2.24305
G1 X189.717 Y9.413 E2.25890
G1 X192.705 Y8.175 E2.55295
G1 X196.206 Y7.334 E2.88039
G1 X199.796 Y7.052 E3.20782
G1 X203.386 Y7.334 E3.53526
G1 X206.888 Y8.175 E3.86269
G1 X210.214 Y9.553 E4.19013
G1 X213.285 Y11.435 E4.51756
G1 X216.023 Y13.773 E4.84500
G1 X217.128 Y15.066 E4.99964
G1 X218.383 Y15.066 E5.11379
G1 X218.383 Y16.546 E5.24834
G1 X220.243 Y19.582 E5.57207
G1 X221.196 Y21.883 E5.79856
G1 X221.588 Y22.095 E5.83909
G1 X221.775 Y22.229 E5.85999
G1 X221.711 Y22.602 E5.89441
G1 X221.679 Y23.150 E5.94432
G1 X222.462 Y26.410 E6.24917
G1 X222.556 Y27.607 E6.35836
G1 X222.984 Y28.137 E6.42023
G1 X223.217 Y28.363 E6.44980
G1 X223.697 Y28.775 E6.50731
G1 X223.793 Y30.153 E6.63289
G1 X223.461 Y30.292 E6.66567
G1 X223.206 Y30.458 E6.69338
G1 X222.982 Y30.675 E6.72167
G1 X222.796 Y30.944 E6.75147
G1 X222.638 Y31.357 E6.79168
G1 X222.493 Y33.193 E6.95913
G1 X223.527 Y33.445 E7.05585
G1 X222.853 Y36.612 E7.35024
G1 X221.709 Y39.756 E7.65452
G1 X220.999 Y41.091 E7.79194
G1 X220.078 Y41.442 E7.88161
G1 X219.559 Y41.535 E7.92955
G1 X218.362 Y43.488 E8.13792
G1 X216.611 Y45.537 E8.38299
G1 X218.161 Y45.296 E8.52565
G1 X219.414 Y47.065 E8.72271
G1 X217.895 Y47.065 E8.86079
G1 X217.377 Y46.240 E8.94931
G1 X216.736 Y46.904 E9.03319
G1 X216.390 Y46.806 E9.06592
G1 X216.125 Y46.140 E9.13113
G1 X213.518 Y48.366 E9.44290
G1 X213.671 Y48.578 E9.46666
G1 X213.530 Y48.822 E9.49231
G1 X213.414 Y49.310 E9.53790
G1 X212.748 Y48.894 E9.60930
G1 X210.214 Y50.447 E9.87951
G1 X206.888 Y51.825 E10.20695
G1 X203.386 Y52.666 E10.53438
G1 X199.796 Y52.948 E10.86182
G1 X196.206 Y52.666 E11.18925
G1 X192.705 Y51.825 E11.51669
G1 X190.077 Y50.737 E11.77531
G1 X189.996 Y50.755 E11.78289
G1 X189.864 Y50.648 E11.79833
G1 X189.378 Y50.447 E11.84616
G1 X186.308 Y48.565 E12.17360
G1 X183.751 Y46.382 E12.47933
G1 X183.596 Y47.612 E12.59207
G1 X181.446 Y45.676 E12.85523
G1 X181.446 Y47.065 E12.98154
G1 X180.429 Y47.065 E13.07401
G1 X180.429 Y44.160 E13.33815
G1 X178.617 Y41.261 E13.64895
G1 X177.256 Y38.204 E13.95324
G1 X176.334 Y34.987 E14.25753
G1 X176.291 Y34.680 E14.28575
G1 X177.181 Y34.228 E14.37650
G1 X176.848 Y30.000 E14.76218
G1 X177.131 Y26.410 E15.08962
G1 X177.971 Y22.909 E15.41705
G1 X179.349 Y19.582 E15.74449
G1 X179.887 Y18.704 E15.83808
G1 X179.311 Y18.448 F7800.000
G1 X179.311 Y14.442 E16.20239 F378.000
G1 X180.788 Y14.442 E16.33670
G1 X180.788 Y16.068 E16.48455
G1 X183.126 Y13.330 E16.81190
G1 X185.939 Y10.927 E17.14828
G1 X188.799 Y9.175 E17.45323
G1 X188.834 Y9.125 E17.45886
G1 X189.096 Y8.916 E17.48931
G1 X189.255 Y8.726 E17.51182
G1 X189.390 Y8.722 E17.52406
G1 X189.615 Y8.678 E17.54491
G1 X189.730 Y8.731 E17.55644
G1 X192.511 Y7.579 E17.83015
G1 X196.108 Y6.715 E18.16653
G1 X199.796 Y6.425 E18.50291
G1 X203.484 Y6.715 E18.83929
G1 X207.081 Y7.579 E19.17567
G1 X210.499 Y8.995 E19.51205
G1 X213.653 Y10.927 E19.84843
G1 X216.466 Y13.330 E20.18480
G1 X217.416 Y14.442 E20.31772
G1 X219.008 Y14.442 E20.46250
G1 X219.008 Y16.370 E20.63785
G1 X220.802 Y19.297 E20.95003
G1 X221.689 Y21.439 E21.16082
G1 X221.921 Y21.564 E21.18479
G1 X222.101 Y21.694 E21.20500
G1 X222.218 Y21.825 E21.22095
G1 X222.402 Y22.174 E21.25687
G1 X222.398 Y22.301 E21.26838
G1 X222.330 Y22.687 E21.30405
G1 X222.306 Y23.083 E21.34014
G1 X223.081 Y26.312 E21.64210
G1 X223.164 Y27.373 E21.73883
G1 X223.437 Y27.706 E21.77799
G1 X223.642 Y27.905 E21.80396
G1 X224.302 Y28.464 E21.88256
G1 X224.409 Y30.000 E22.02261
G1 X224.359 Y30.714 E22.08769
G1 X223.985 Y30.750 E22.12189
G1 X223.755 Y30.846 E22.14460
G1 X223.597 Y30.949 E22.16172
G1 X223.461 Y31.080 E22.17888
G1 X223.353 Y31.238 E22.19624
G1 X223.253 Y31.497 E22.22146
G1 X223.158 Y32.712 E22.33231
G1 X224.202 Y32.966 E22.43001
G1 X224.170 Y33.425 E22.47188
G1 X223.456 Y36.784 E22.78411
G1 X222.281 Y40.011 E23.09635
G1 X221.387 Y41.692 E23.26947
G1 X221.075 Y41.731 E23.29809
G1 X220.245 Y42.047 E23.37882
G1 X219.945 Y42.100 E23.40655
G1 X218.869 Y43.857 E23.59388
G1 X218.182 Y44.660 E23.68998
G1 X219.661 Y44.430 E23.82607
G1 X218.979 Y45.369 E23.93161
G1 X220.622 Y47.689 E24.19012
G1 X217.550 Y47.689 E24.46946
G1 X217.272 Y47.248 E24.51685
G1 X216.823 Y47.713 E24.57564
G1 X216.561 Y47.504 E24.60617
G1 X216.349 Y47.444 E24.62615
G1 X215.989 Y47.490 E24.65917
G1 X215.867 Y47.182 E24.68935
G1 X214.362 Y48.467 E24.86928
G1 X214.449 Y48.587 E24.88275
G1 X214.217 Y48.882 E24.91687
G1 X214.117 Y49.056 E24.93508
G1 X214.066 Y49.270 E24.95510
G1 X214.111 Y49.482 E24.97481
G1 X214.279 Y49.843 E25.01102
G1 X213.611 Y50.365 E25.08813
G1 X213.358 Y50.074 E25.12318
G1 X212.978 Y49.774 E25.16722
G1 X212.745 Y49.629 E25.19213
G1 X210.499 Y51.005 E25.43166
G1 X207.081 Y52.421 E25.76804
G1 X203.484 Y53.285 E26.10442
G1 X199.796 Y53.575 E26.44080
G1 X196.108 Y53.285 E26.77718
G1 X192.511 Y52.421 E27.11356
G1 X190.022 Y51.390 E27.35853
G1 X189.952 Y51.406 E27.36512
G1 X189.801 Y51.397 E27.37887
G1 X189.541 Y51.191 E27.40902
G1 X189.093 Y51.005 E27.45309
G1 X185.939 Y49.073 E27.78947
G1 X184.227 Y47.610 E27.99427
G1 X184.067 Y48.877 E28.11039
G1 X182.071 Y47.079 E28.35473
G1 X182.071 Y47.689 E28.41024
G1 X179.804 Y47.689 E28.61635
G1 X179.804 Y44.339 E28.92103
G1 X178.064 Y41.555 E29.21951
G1 X176.668 Y38.418 E29.53175
G1 X175.721 Y35.117 E29.84398
G1 X175.613 Y34.348 E29.91462
G1 X176.525 Y33.860 E30.00866
G1 X176.221 Y30.000 E30.36077
G1 X176.512 Y26.312 E30.69715
G1 X177.375 Y22.715 E31.03353
G1 X178.791 Y19.297 E31.36991
G1 X179.262 Y18.528 E31.45194
G1 X184.447 Y49.443 F7800.000
G1 X184.801 Y49.393 E31.48439 F378.000
G1 X184.593 Y48.741 E31.54662
G1 X184.801 Y49.393 F7800.000
G1 X185.204 Y49.643 E31.58980 F378.000
G1 X185.380 Y49.307 E31.62429
G1 X185.204 Y49.643 F7800.000
G1 X185.692 Y49.921 E31.67530 F378.000
G1 X185.851 Y49.463 E31.71939
G1 X185.692 Y49.921 F7800.000
G1 X186.115 Y50.201 E31.76555 F378.000
G1 X186.435 Y49.986 E31.80059
G1 X186.714 Y50.129 F7800.000
G1 X186.688 Y50.563 E31.84012 F378.000
G1 X186.115 Y50.201 E31.90173
G1 X186.688 Y50.563 F7800.000
G1 X187.710 Y51.234 E32.01293 F378.000
G1 X187.734 Y51.209 F7800.000
G1 X188.004 Y51.356 E32.04091 F378.000
G1 X187.990 Y51.768 E32.07839
G1 X188.184 Y51.297 F7800.000
G1 X188.343 Y51.312 E32.09290 F378.000
G1 X188.378 Y51.295 F7800.000
G1 X188.455 Y51.470 E32.11026 F378.000
G1 F1800.000 E31.11026
G92 E0
G1 X223.659 Y32.318 F7800.000
G1 E1.00000 F1800.000
G1 X224.017 Y32.246 E1.03318 F378.000
G1 X224.016 Y32.245 F7800.000
G1 X224.284 Y32.244 E1.05758 F378.000
G1 X224.172 Y32.315 F7800.000
G1 X224.427 Y32.529 E1.08788 F378.000
G1 F1800.000 E0.08788
G92 E0
G1 X223.350 Y29.861 F7800.000
G1 E1.00000 F1800.000
G1 X201.064 Y7.574 E3.89313 F1080.000
G1 X200.095 Y7.498 E3.98229
G1 X222.831 Y30.234 E6.93373
G1 X222.433 Y30.728 E6.99197
G1 X199.225 Y7.520 E10.00477
G1 X198.398 Y7.585 E10.08092
G1 X222.212 Y31.399 E13.17231
G1 X222.146 Y32.226 E13.24846
G1 X197.571 Y7.650 E16.43876
G1 X196.744 Y7.715 E16.51491
G1 X222.987 Y33.958 E19.92164
G1 X222.830 Y34.694 E19.99068
G1 X195.963 Y7.826 E23.47846
G1 X195.244 Y7.999 E23.54637
G1 X222.674 Y35.429 E27.10724
G1 X222.517 Y36.165 E27.17628
G1 X194.524 Y8.172 E30.81023
G1 X193.805 Y8.344 E30.87815
G1 X222.316 Y36.856 E34.57935
G1 X222.078 Y37.510 E34.64324
G1 X193.085 Y8.517 E38.40692
G1 X192.424 Y8.748 E38.47123
G1 X221.840 Y38.164 E42.28990
G1 X221.602 Y38.818 E42.35379
G1 X191.793 Y9.009 E46.22344
G1 X191.162 Y9.270 E46.28612
G1 X221.364 Y39.472 E50.20675
G1 X221.066 Y40.067 E50.26779
G1 X190.531 Y9.532 E54.23171
G1 X189.900 Y9.793 E54.29439
G1 X220.757 Y40.649 E58.30000
G1 X220.171 Y40.955 E58.36068
G1 X189.307 Y10.091 E62.36733
G1 X188.753 Y10.430 E62.42688
G1 X219.449 Y41.126 E66.41167
G1 X219.027 Y41.596 E66.46965
G1 X188.200 Y10.769 E70.47144
G1 X187.647 Y11.108 E70.53099
G1 X218.688 Y42.149 E74.56059
G1 X218.349 Y42.702 E74.62014
G1 X187.094 Y11.447 E78.67754
G1 X186.543 Y11.788 E78.73703
G1 X218.008 Y43.253 E82.82172
G1 X217.597 Y43.734 E82.87980
G1 X186.062 Y12.199 E86.97358
G1 X185.581 Y12.610 E87.03167
G1 X217.186 Y44.215 E91.13454
G1 X216.775 Y44.696 E91.19263
G1 X201.873 Y29.794 E93.12714
G1 X201.671 Y30.484 E93.19313
G1 X216.364 Y45.177 E95.10055
G1 X215.841 Y45.547 E95.15930
G1 X201.295 Y31.001 E97.04758
G1 X200.920 Y31.518 E97.10621
G1 X215.504 Y46.102 E98.99950
G1 X215.030 Y46.520 E99.05752
G1 X200.544 Y32.034 E100.93802
G1 X199.374 Y31.756 E101.04840
G1 X214.549 Y46.931 E103.01831
G1 X214.068 Y47.342 E103.07639
G1 X182.454 Y15.728 E107.18036
G1 X182.043 Y16.209 E107.23844
G1 X213.587 Y47.753 E111.33329
G1 X213.106 Y48.164 E111.39137
G1 X181.632 Y16.691 E115.47711
G1 X181.221 Y17.172 E115.53519
G1 X212.563 Y48.513 E119.60382
G1 X212.010 Y48.852 E119.66337
G1 X180.810 Y17.653 E123.71354
G1 X180.399 Y18.134 E123.77162
G1 X211.457 Y49.191 E127.80333
G1 X210.903 Y49.530 E127.86288
G1 X180.266 Y18.893 E131.84011
G1 X179.927 Y19.446 E131.89966
G1 X210.350 Y49.869 E135.84908
G1 X209.765 Y50.177 E135.90972
G1 X179.620 Y20.031 E139.82311
G1 X179.358 Y20.662 E139.88579
G1 X209.135 Y50.438 E143.75121
G1 X208.504 Y50.699 E143.81389
G1 X179.097 Y21.292 E147.63134
G1 X178.836 Y21.923 E147.69402
G1 X207.873 Y50.961 E151.46350
G1 X207.242 Y51.222 E151.52618
G1 X178.574 Y22.554 E155.24769
G1 X178.334 Y23.205 E155.31143
G1 X206.591 Y51.463 E158.97967
G1 X205.872 Y51.635 E159.04758
G1 X178.161 Y23.925 E162.64485
G1 X177.988 Y24.644 E162.71276
G1 X205.152 Y51.808 E166.23906
G1 X204.433 Y51.981 E166.30697
G1 X177.815 Y25.364 E169.76229
G1 X177.643 Y26.083 E169.83021
G1 X203.713 Y52.154 E173.21456
G1 X202.945 Y52.277 E173.28599
G1 X177.519 Y26.851 E176.58670
G1 X177.454 Y27.678 E176.66285
G1 X202.118 Y52.343 E179.86466
G1 X201.291 Y52.408 E179.94081
G1 X177.389 Y28.505 E183.04371
G1 X177.323 Y29.332 E183.11986
G1 X200.464 Y52.473 E186.12384
G1 X199.610 Y52.511 E186.20233
G1 X177.286 Y30.186 E189.10034
G1 X177.362 Y31.155 E189.18950
G1 X198.641 Y52.434 E191.95192
G1 X197.673 Y52.358 E192.04108
G1 X177.438 Y32.123 E194.66789
G1 X177.514 Y33.091 E194.75705
G1 X196.705 Y52.282 E197.24827
G1 X195.623 Y52.092 E197.34913
G1 X177.590 Y34.060 E199.68997
G1 X177.286 Y34.648 E199.75073
G1 X194.449 Y51.810 E201.97867
G1 X193.275 Y51.528 E202.08949
G1 X176.788 Y35.042 E204.22971
G1 X177.147 Y36.292 E204.34915
G1 X191.882 Y51.028 E206.26205
G1 X190.359 Y50.397 F7800.000
G1 X177.505 Y37.543 E207.93069 F1080.000
G1 X178.074 Y39.004 F7800.000
G1 X188.460 Y49.390 E209.27899 F1080.000
G1 X185.495 Y47.317 F7800.000
G1 X178.790 Y40.612 E210.14944 F1080.000
G1 X180.060 Y42.774 F7800.000
G1 X183.364 Y46.078 E210.57837 F1080.000
G1 X182.012 Y45.618 F7800.000
G1 X181.555 Y45.161 E210.63773 F1080.000
