; generated by Slic3r 1.0.0RC2 on 2014-02-03 at 13:18:17

; layer_height = 0.25
; perimeters = 1
; top_solid_layers = 3
; bottom_solid_layers = 3
; fill_density = 0.14
; perimeter_speed = 30
; infill_speed = 60
; travel_speed = 130
; nozzle_diameter = 0.35
; filament_diameter = 1.75
; extrusion_multiplier = 1
; perimeters extrusion width = 0.35mm
; infill extrusion width = 0.39mm
; solid infill extrusion width = 0.39mm
; top infill extrusion width = 0.39mm
; first layer extrusion width = 0.70mm

G21 ; set units to millimeters
M107
M104 S220 ; set temperature
G28 ; home all axes
G1 Z5 F5000 ; lift nozzle

M109 S220 ; wait for temperature to be reached
G90 ; use absolute coordinates
G92 E0
M82 ; use absolute distances for extrusion
G1 F1800.000 E-1.00000
G92 E0
G1 Z0.350 F7800.000
G1 X36.620 Y22.362 F7800.000
G1 E1.00000 F1800.000
G1 X37.640 Y21.222 E1.13910 F540.000
G1 X38.880 Y20.332 E1.27788
G1 X40.270 Y19.712 E1.41628
G1 X41.770 Y19.412 E1.55538
G1 X43.300 Y19.422 E1.69450
G1 X90.120 Y24.732 E5.97912
G1 X90.740 Y24.832 E6.03622
G1 X91.360 Y24.982 E6.09422
G1 X110.700 Y30.702 E7.92810
G1 X111.930 Y31.192 E8.04850
G1 X113.050 Y31.902 E8.16908
G1 X114.030 Y32.802 E8.29006
G1 X114.820 Y33.862 E8.41027
G1 X115.410 Y35.052 E8.53105
G1 X115.770 Y36.332 E8.65195
G1 X115.890 Y37.652 E8.77248
G1 X115.890 Y41.002 E9.07709
G1 X115.820 Y52.252 E10.10007
G1 X115.700 Y53.492 E10.21335
G1 X111.930 Y74.292 E12.13550
G1 X111.540 Y75.662 E12.26502
G1 X110.900 Y76.932 E12.39434
G1 X110.010 Y78.042 E12.52371
G1 X108.930 Y78.962 E12.65271
G1 X107.690 Y79.652 E12.78174
G1 X106.330 Y80.092 E12.91172
G1 X104.920 Y80.252 E13.04075
G1 X82.440 Y80.622 E15.08513
G1 X47.520 Y80.252 E18.26057
G1 X46.150 Y80.102 E18.38588
G1 X44.830 Y79.702 E18.51130
G1 X32.860 Y74.752 E19.68912
G1 X31.690 Y74.142 E19.80910
G1 X30.650 Y73.322 E19.92953
G1 X29.780 Y72.332 E20.04937
G1 X29.100 Y71.202 E20.16929
G1 X28.640 Y69.972 E20.28870
G1 X24.800 Y55.952 E21.61048
G1 X24.670 Y55.372 E21.66453
G1 X24.370 Y53.782 E21.81166
G1 X24.260 Y52.992 E21.88419
G1 X24.120 Y51.152 E22.05198
G1 X24.100 Y50.602 E22.10203
G1 X24.100 Y48.612 E22.28298
G1 X24.120 Y48.052 E22.33393
G1 X24.280 Y45.972 E22.52362
G1 X24.640 Y43.432 E22.75689
G1 X24.740 Y42.872 E22.80862
G1 X25.180 Y40.922 E22.99039
G1 X25.330 Y40.372 E23.04223
G1 X25.880 Y38.602 E23.21076
G1 X26.120 Y37.942 E23.27462
G1 X26.750 Y36.442 E23.42256
G1 X27.250 Y35.472 E23.52179
G1 X27.960 Y34.312 E23.64545
G1 X28.280 Y33.832 E23.69791
G1 X36.565 Y22.438 E24.97891
G1 X37.120 Y22.722 F7800.000
G1 X38.060 Y21.692 E25.10571 F540.000
G1 X39.190 Y20.872 E25.23266
G1 X40.460 Y20.312 E25.35887
G1 X41.830 Y20.032 E25.48602
G1 X43.230 Y20.042 E25.61332
G1 X90.050 Y25.352 E29.89794
G1 X90.620 Y25.442 E29.95041
G1 X91.180 Y25.582 E30.00290
G1 X110.520 Y31.302 E31.83678
G1 X111.820 Y31.842 E31.96478
G1 X112.980 Y32.652 E32.09343
G1 X113.950 Y33.692 E32.22274
G1 X114.670 Y34.902 E32.35077
G1 X115.110 Y36.242 E32.47902
G1 X115.260 Y37.652 E32.60795
G1 X115.260 Y40.992 E32.91166
G1 X115.190 Y52.242 E33.93464
G1 X115.090 Y53.382 E34.03869
G1 X111.320 Y74.182 E35.96084
G1 X110.960 Y75.432 E36.07913
G1 X110.370 Y76.592 E36.19746
G1 X109.560 Y77.612 E36.31590
G1 X108.570 Y78.452 E36.43396
G1 X107.440 Y79.082 E36.55160
G1 X106.200 Y79.482 E36.67007
G1 X104.910 Y79.622 E36.78806
G1 X82.430 Y79.992 E38.83243
G1 X47.530 Y79.622 E42.00605
G1 X46.270 Y79.492 E42.12123
G1 X45.070 Y79.122 E42.23542
G1 X33.100 Y74.172 E43.41324
G1 X31.780 Y73.442 E43.55040
G1 X30.660 Y72.432 E43.68753
G1 X29.800 Y71.202 E43.82400
G1 X29.240 Y69.802 E43.96111
G1 X25.400 Y55.782 E45.28290
G1 X25.280 Y55.262 E45.33142
G1 X24.980 Y53.672 E45.47855
G1 X24.880 Y52.942 E45.54555
G1 X24.740 Y51.102 E45.71335
G1 X24.740 Y48.102 E45.98613
G1 X24.900 Y46.022 E46.17583
G1 X25.250 Y43.522 E46.40537
G1 X25.350 Y43.012 E46.45263
G1 X25.920 Y40.552 E46.68224
G1 X26.470 Y38.782 E46.85077
G1 X26.690 Y38.182 E46.90888
G1 X27.320 Y36.682 E47.05682
G1 X27.780 Y35.792 E47.14792
G1 X28.490 Y34.632 E47.27159
G1 X28.780 Y34.192 E47.31950
G1 X37.065 Y22.798 E48.60050
G1 F1800.000 E47.60050
G92 E0
G1 X50.439 Y49.912 F7800.000
G1 E1.00000 F1800.000
G1 X53.208 Y49.012 E1.26482 F540.000
G1 X54.920 Y51.368 E1.52965
G1 X53.208 Y53.724 E1.79447
G1 X50.439 Y52.824 E2.05929
G1 X50.439 Y50.006 E2.31559
G1 X51.063 Y50.366 F7800.000
G1 X52.970 Y49.747 E2.49785 F540.000
G1 X54.148 Y51.368 E2.68011
G1 X52.970 Y52.990 E2.86237
G1 X51.063 Y52.370 E3.04462
G1 X51.063 Y50.460 E3.21836
G1 X51.688 Y50.820 F7800.000
G1 X52.731 Y50.481 E3.31805 F540.000
G1 X53.376 Y51.368 E3.41774
G1 X52.731 Y52.255 E3.51743
G1 X51.688 Y51.916 E3.61713
G1 X51.688 Y50.914 E3.70830
G1 F1800.000 E2.70830
G92 E0
G1 X35.603 Y55.352 F7800.000
G1 E1.00000 F1800.000
G1 X34.002 Y55.170 E1.14652 F540.000
G1 X33.681 Y54.635 E1.20327
G1 X33.345 Y53.630 E1.29961
G1 X33.086 Y52.233 E1.42884
G1 X32.950 Y50.548 E1.58254
G1 X32.955 Y48.675 E1.75287
G1 X33.104 Y46.716 E1.93148
G1 X33.390 Y44.770 E2.11031
G1 X33.799 Y42.936 E2.28116
G1 X34.305 Y41.311 E2.43596
G1 X34.869 Y39.988 E2.56673
G1 X35.425 Y39.060 E2.66510
G1 X35.877 Y38.576 E2.72530
G1 X37.111 Y38.695 E2.83808
G1 X43.332 Y28.328 E3.93747
G1 X87.877 Y33.384 E8.01394
G1 X88.946 Y41.659 E8.77266
G1 X90.261 Y41.659 E8.89231
G1 X89.596 Y46.716 E9.35615
G1 X90.383 Y52.787 E9.91275
G1 X93.263 Y52.787 E10.17466
G1 X93.263 Y56.953 E10.55350
G1 X97.467 Y64.051 E11.30360
G1 X101.044 Y52.787 E12.37821
G1 X102.706 Y52.787 E12.52934
G1 X98.103 Y64.934 E13.71050
G1 X101.979 Y71.406 E14.39647
G1 X100.208 Y71.406 E14.55752
G1 X95.728 Y62.980 E15.42530
G1 X93.263 Y63.594 E15.65625
G1 X93.263 Y71.406 E16.36659
G1 X92.283 Y71.406 E16.45574
G1 X92.283 Y58.486 E17.63059
G1 X89.903 Y57.827 E17.85512
G1 X84.489 Y66.849 E18.81190
G1 X86.625 Y67.612 E19.01813
G1 X86.142 Y68.963 E19.14856
G1 X85.653 Y69.929 E19.24698
G1 X85.138 Y70.639 E19.32681
G1 X84.598 Y71.133 E19.39336
G1 X83.984 Y71.476 E19.45730
G1 X83.237 Y71.693 E19.52797
G1 X82.348 Y71.770 E19.60910
G1 X81.182 Y71.632 E19.71587
G1 X80.244 Y71.253 E19.80790
G1 X79.187 Y71.389 E19.90477
G1 X71.589 Y70.527 E20.60010
G1 X71.589 Y71.406 E20.68006
G1 X70.618 Y71.406 E20.76840
G1 X70.618 Y70.417 E20.85838
G1 X62.795 Y69.529 E21.57425
G1 X62.795 Y71.406 E21.74496
G1 X61.824 Y71.406 E21.83330
G1 X61.824 Y69.419 E22.01405
G1 X56.345 Y68.797 E22.51541
G1 X56.345 Y71.406 E22.75269
G1 X49.210 Y71.406 E23.40151
G1 X49.210 Y67.987 E23.71244
G1 X37.056 Y66.607 E24.82463
G1 X35.615 Y55.445 E25.84805
G1 X35.046 Y55.918 F7800.000
G1 X33.780 Y55.774 E25.96386 F540.000
G1 X33.506 Y55.559 E25.99558
G1 X33.110 Y54.898 E26.06563
G1 X32.738 Y53.787 E26.17212
G1 X32.466 Y52.315 E26.30827
G1 X32.325 Y50.572 E26.46724
G1 X32.330 Y48.650 E26.64202
G1 X32.482 Y46.647 E26.82471
G1 X32.776 Y44.657 E27.00762
G1 X33.195 Y42.775 E27.18289
G1 X33.718 Y41.095 E27.34290
G1 X34.311 Y39.703 E27.48046
G1 X34.923 Y38.682 E27.58874
G1 X35.465 Y38.102 E27.66094
G1 X35.787 Y37.940 E27.69375
G1 X36.779 Y38.035 E27.78430
G1 X43.003 Y27.661 E28.88437
G1 X88.434 Y32.818 E33.04192
G1 X89.495 Y41.034 E33.79521
G1 X90.974 Y41.034 E33.92968
G1 X90.228 Y46.707 E34.44996
G1 X90.932 Y52.162 E34.95011
G1 X93.888 Y52.162 E35.21888
G1 X93.888 Y56.782 E35.63899
G1 X97.294 Y62.532 E36.24664
G1 X100.859 Y51.307 E37.31753
G1 X100.542 Y50.871 E37.36656
G1 X100.046 Y49.737 E37.47911
G1 X101.185 Y50.085 E37.58736
G1 X101.663 Y50.014 E37.63132
G1 X102.359 Y49.682 E37.70150
G1 X101.340 Y52.162 E37.94532
G1 X103.611 Y52.162 E38.15184
G1 X98.795 Y64.872 E39.38776
G1 X103.081 Y72.031 E40.14647
G1 X99.832 Y72.031 E40.44191
G1 X95.405 Y63.704 E41.29942
G1 X93.888 Y64.083 E41.44159
G1 X93.888 Y72.031 E42.16436
G1 X91.658 Y72.031 E42.36715
G1 X91.658 Y58.961 E43.55561
G1 X90.194 Y58.556 E43.69368
G1 X85.417 Y66.517 E44.53794
G1 X87.356 Y67.210 E44.72508
G1 X87.178 Y67.923 E44.79197
G1 X86.718 Y69.210 E44.91625
G1 X86.188 Y70.255 E45.02276
G1 X85.606 Y71.057 E45.11289
G1 X84.966 Y71.643 E45.19181
G1 X84.226 Y72.056 E45.26881
G1 X83.353 Y72.310 E45.35152
G1 X82.339 Y72.398 E45.44410
G1 X81.026 Y72.242 E45.56429
G1 X80.162 Y71.894 E45.64903
G1 X79.192 Y72.019 E45.73793
G1 X72.214 Y71.227 E46.37652
G1 X72.214 Y72.031 E46.44966
G1 X69.993 Y72.031 E46.65164
G1 X69.993 Y70.975 E46.74771
G1 X63.420 Y70.229 E47.34920
G1 X63.420 Y72.031 E47.51310
G1 X61.199 Y72.031 E47.71508
G1 X61.199 Y69.977 E47.90191
G1 X56.970 Y69.497 E48.28890
G1 X56.970 Y72.031 E48.51937
G1 X48.585 Y72.031 E49.28184
G1 X48.585 Y68.545 E49.59885
G1 X36.499 Y67.173 E50.70483
G1 X35.058 Y56.011 E51.72825
G1 F1800.000 E50.72825
G92 E0
G1 X93.887 Y48.243 F7800.000
G1 E1.00000 F1800.000
G1 X93.887 Y46.277 E1.17883 F540.000
G1 X94.766 Y46.380 E1.25934
G1 X94.310 Y48.293 E1.43816
G1 X93.980 Y48.254 E1.46836
G1 X95.924 Y43.424 F7800.000
G1 X96.383 Y41.497 E1.64840 F540.000
G1 X96.806 Y41.547 E1.68713
G1 X96.806 Y43.527 E1.86716
G1 X96.017 Y43.434 E1.93942
G1 F1800.000 E0.93942
G92 E0
G1 X100.152 Y40.033 F7800.000
G1 E1.00000 F1800.000
G1 X100.361 Y39.385 E1.06187 F540.000
G1 X100.551 Y38.949 E1.10512
G1 X100.715 Y38.681 E1.13370
G1 X100.853 Y38.534 E1.15203
G1 X100.981 Y38.449 E1.16602
G1 X101.118 Y38.400 E1.17924
G1 X101.296 Y38.381 E1.19547
G1 X101.403 Y38.392 E1.20525
G1 X101.553 Y38.469 E1.22061
G1 X101.657 Y38.578 E1.23431
G1 X101.790 Y38.777 E1.25608
G1 X101.937 Y39.067 E1.28560
G1 X102.083 Y39.441 E1.32209
G1 X102.253 Y40.001 E1.37533
G1 X101.187 Y39.774 E1.47440
G1 X100.243 Y40.010 E1.56293
G1 X99.565 Y39.820 F7800.000
G1 X99.776 Y39.164 E1.62560 F378.000
G1 X99.995 Y38.659 E1.67564
G1 X100.216 Y38.299 E1.71408
G1 X100.447 Y38.054 E1.74470
G1 X100.698 Y37.886 E1.77216
G1 X100.978 Y37.787 E1.79912
G1 X101.295 Y37.752 E1.82816
G1 X101.543 Y37.779 E1.85084
G1 X101.760 Y37.856 E1.87175
G1 X101.957 Y37.988 E1.89335
G1 X102.146 Y38.186 E1.91822
G1 X102.330 Y38.460 E1.94829
G1 X102.508 Y38.811 E1.98404
G1 X102.674 Y39.236 E2.02549
G1 X102.825 Y39.733 E2.07278
G1 X102.960 Y40.304 E2.12608
G1 X103.076 Y40.945 E2.18533
G1 X103.234 Y42.265 E2.30620
G1 X102.534 Y42.869 E2.39034
G1 X102.335 Y41.823 E2.48721
G1 X102.217 Y41.387 E2.52830
G1 X102.067 Y41.014 E2.56481
G1 X101.856 Y40.708 E2.59865
G1 X101.563 Y40.493 E2.63171
G1 X101.199 Y40.415 E2.66555
G1 X100.819 Y40.510 E2.70114
G1 X100.519 Y40.769 E2.73717
G1 X100.306 Y41.125 E2.77488
G1 X100.144 Y41.572 E2.81808
G1 X100.024 Y42.159 E2.87259
G1 X99.941 Y42.921 E2.94231
G1 X99.892 Y43.863 E3.02810
G1 X99.875 Y44.990 E3.13057
G1 X99.889 Y45.915 E3.21465
G1 X99.930 Y46.712 E3.28726
G1 X100.000 Y47.385 E3.34881
G1 X100.100 Y47.939 E3.39993
G1 X100.272 Y48.524 E3.45535
G1 X100.498 Y48.984 E3.50199
G1 X100.818 Y49.319 E3.54416
G1 X101.233 Y49.446 E3.58359
G1 X101.479 Y49.410 E3.60621
G1 X101.676 Y49.316 E3.62601
G1 X101.840 Y49.178 E3.64552
G1 X101.975 Y49.010 E3.66510
G1 X102.089 Y48.819 E3.68534
G1 X102.273 Y48.368 E3.72966
G1 X102.453 Y47.645 E3.79742
G1 X103.174 Y48.101 E3.87497
G1 X103.056 Y48.945 E3.95249
G1 X102.873 Y49.848 E4.03630
G1 X102.660 Y50.595 E4.10693
G1 X102.272 Y51.537 E4.19952
G1 X104.516 Y51.537 E4.40353
G1 X99.487 Y64.811 E5.69423
G1 X104.183 Y72.656 E6.52568
G1 X99.456 Y72.656 E6.95552
G1 X95.083 Y64.429 E7.80277
G1 X94.513 Y64.571 E7.85616
G1 X94.513 Y72.656 E8.59135
G1 X91.033 Y72.656 E8.90779
G1 X91.033 Y59.437 E10.10984
G1 X90.486 Y59.285 E10.16147
G1 X86.345 Y66.185 E10.89319
G1 X88.099 Y66.813 E11.06252
G1 X87.776 Y68.105 E11.18360
G1 X87.293 Y69.458 E11.31425
G1 X86.723 Y70.582 E11.42887
G1 X86.074 Y71.476 E11.52929
G1 X85.334 Y72.153 E11.62057
G1 X84.469 Y72.636 E11.71063
G1 X83.468 Y72.927 E11.80540
G1 X82.329 Y73.026 E11.90942
G1 X80.869 Y72.853 E12.04303
G1 X80.080 Y72.534 E12.12048
G1 X79.197 Y72.648 E12.20141
G1 X72.839 Y71.927 E12.78325
G1 X72.839 Y72.656 E12.84958
G1 X69.368 Y72.656 E13.16520
G1 X69.368 Y71.533 E13.26735
G1 X64.045 Y70.929 E13.75447
G1 X64.045 Y72.656 E13.91156
G1 X60.574 Y72.656 E14.22718
G1 X60.574 Y70.535 E14.42010
G1 X57.595 Y70.196 E14.69271
G1 X57.595 Y72.656 E14.91637
G1 X47.960 Y72.656 E15.79248
G1 X47.960 Y69.103 E16.11558
G1 X35.942 Y67.739 E17.21534
G1 X34.489 Y56.483 E18.24729
G1 X33.534 Y56.375 E18.33469
G1 X33.029 Y55.979 E18.39303
G1 X32.539 Y55.160 E18.47975
G1 X32.132 Y53.944 E18.59639
G1 X31.845 Y52.397 E18.73945
G1 X31.700 Y50.597 E18.90370
G1 X31.705 Y48.626 E19.08292
G1 X31.861 Y46.577 E19.26970
G1 X32.161 Y44.543 E19.45669
G1 X32.591 Y42.614 E19.63637
G1 X33.130 Y40.879 E19.80159
G1 X33.753 Y39.419 E19.94595
G1 X34.421 Y38.304 E20.06414
G1 X35.084 Y37.593 E20.15253
G1 X35.668 Y37.300 E20.21191
G1 X36.446 Y37.375 E20.28296
G1 X42.674 Y26.995 E21.38370
G1 X88.991 Y32.252 E25.62234
G1 X90.044 Y40.409 E26.37020
G1 X90.820 Y40.409 E26.44073
G1 X91.071 Y38.008 E26.66024
G1 X92.003 Y38.008 E26.74496
G1 X90.858 Y46.708 E27.54284
G1 X91.481 Y51.537 E27.98562
G1 X93.262 Y51.537 E28.14751
G1 X93.262 Y38.008 E29.37769
G1 X94.041 Y38.008 E29.44853
G1 X94.041 Y45.666 E30.14483
G1 X94.727 Y45.746 E30.20761
G1 X96.574 Y38.008 E30.93103
G1 X97.431 Y38.008 E31.00893
G1 X97.431 Y51.854 E32.26794
G1 X96.648 Y51.854 E32.33914
G1 X96.648 Y44.138 E33.04079
G1 X95.962 Y44.057 E33.10360
G1 X94.180 Y51.537 E33.80278
G1 X94.513 Y51.537 E33.83306
G1 X94.513 Y56.611 E34.29443
G1 X97.120 Y61.013 E34.75963
G1 X100.168 Y51.419 E35.67496
G1 X99.996 Y51.183 E35.70144
G1 X99.650 Y50.390 E35.78013
G1 X99.368 Y49.361 E35.87720
G1 X99.164 Y48.110 E35.99241
G1 X99.041 Y46.643 E36.12627
G1 X98.999 Y44.960 E36.27937
G1 X99.022 Y43.681 E36.39568
G1 X99.093 Y42.526 E36.50093
G1 X99.210 Y41.495 E36.59526
G1 X99.373 Y40.589 E36.67892
G1 X99.542 Y39.911 E36.74249
G1 F1800.000 E35.74249
G92 E0
G1 X105.333 Y50.073 F7800.000
G1 E1.00000 F1800.000
G1 X107.599 Y50.073 E1.20607 F540.000
G1 X107.599 Y51.229 E1.31120
G1 X105.333 Y51.229 E1.51727
G1 X105.333 Y50.167 E1.61388
G1 X105.333 Y45.811 F7800.000
G1 X105.333 Y44.795 E1.70628 F540.000
G1 X107.408 Y44.795 E1.89498
G1 X107.408 Y45.811 E1.98739
G1 X105.427 Y45.811 E2.16756
G1 X105.333 Y39.977 F7800.000
G1 X105.333 Y38.633 E2.28979 F540.000
G1 X107.675 Y38.633 E2.50277
G1 X107.675 Y39.977 E2.62500
G1 X105.427 Y39.977 E2.82945
G1 X105.584 Y40.602 F7800.000
G1 X105.584 Y44.170 E3.15389 F378.000
G1 X108.033 Y44.170 E3.37658
G1 X108.033 Y46.436 E3.58262
G1 X105.584 Y46.436 E3.80531
G1 X105.584 Y49.448 E4.07919
G1 X108.224 Y49.448 E4.31925
G1 X108.224 Y51.854 E4.53802
G1 X104.708 Y51.854 E4.85773
G1 X104.708 Y38.008 E6.11674
G1 X108.300 Y38.008 E6.44336
G1 X108.300 Y40.602 E6.67923
G1 X105.678 Y40.602 E6.91767
G1 F1800.000 E5.91767
G92 E0
G1 X89.557 Y42.081 F7800.000
G1 E1.00000 F1800.000
G1 X89.755 Y42.279 E1.02552 F1080.000
G1 X89.652 Y43.062 E1.09755
G1 X79.440 Y32.850 E2.41433
G1 X78.441 Y32.737 E2.50607
G1 X89.549 Y43.845 E3.93848
G1 X89.446 Y44.628 E4.01050
G1 X77.441 Y32.623 E5.55854
G1 X76.441 Y32.510 E5.65028
G1 X89.342 Y45.411 E7.31393
G1 X89.239 Y46.194 E7.38596
G1 X75.442 Y32.397 E9.16525
G1 X74.442 Y32.283 E9.25699
G1 X89.215 Y47.056 E11.16201
G1 X89.347 Y48.074 E11.25562
G1 X73.442 Y32.170 E13.30657
G1 X72.443 Y32.056 E13.39831
G1 X89.479 Y49.092 E15.59518
G1 X89.611 Y50.110 E15.68880
G1 X71.443 Y31.943 E18.03159
G1 X70.443 Y31.829 E18.12333
G1 X89.743 Y51.129 E20.61205
G1 X89.875 Y52.147 E20.70567
G1 X69.444 Y31.716 E23.34031
G1 X68.444 Y31.602 E23.43205
G1 X92.841 Y56.000 E26.57820
G1 X92.841 Y56.886 E26.65900
G1 X67.444 Y31.489 E29.93406
G1 X66.445 Y31.375 E30.02580
G1 X92.989 Y57.920 E33.44880
G1 X91.763 Y57.580 E33.56477
G1 X65.445 Y31.262 E36.95863
G1 X64.445 Y31.148 E37.05036
G1 X90.538 Y57.241 E40.41507
G1 X89.312 Y56.901 E40.53104
G1 X63.446 Y31.035 E43.86659
G1 X62.446 Y30.921 E43.95833
G1 X89.389 Y57.864 E47.43271
G1 X89.056 Y58.418 E47.49161
G1 X61.446 Y30.808 E51.05205
G1 X60.447 Y30.695 E51.14379
G1 X88.724 Y58.972 E54.79028
G1 X88.392 Y59.526 E54.84917
G1 X59.447 Y30.581 E58.58172
G1 X58.447 Y30.468 E58.67346
G1 X88.059 Y60.080 E62.49207
G1 X87.727 Y60.634 E62.55096
G1 X57.448 Y30.354 E66.45562
G1 X56.448 Y30.241 E66.54736
G1 X87.395 Y61.188 E70.53808
G1 X87.062 Y61.741 E70.59698
G1 X55.448 Y30.127 E74.67375
