; generated by Slic3r 1.0.0RC2 on 2014-02-04 at 19:34:01

; layer_height = 0.25
; perimeters = 1
; top_solid_layers = 2
; bottom_solid_layers = 2
; fill_density = 0.135
; perimeter_speed = 30
; infill_speed = 60
; travel_speed = 130
; nozzle_diameter = 0.35
; filament_diameter = 1.75
; extrusion_multiplier = 1
; perimeters extrusion width = 0.35mm
; infill extrusion width = 0.39mm
; solid infill extrusion width = 0.39mm
; top infill extrusion width = 0.39mm
; first layer extrusion width = 0.70mm

G21 ; set units to millimeters
M107
M104 S220 ; set temperature
G28 ; home all axes
G1 Z5 F5000 ; lift nozzle

M109 S220 ; wait for temperature to be reached
G90 ; use absolute coordinates
G92 E0
M82 ; use absolute distances for extrusion
G1 F1800.000 E-1.00000
G92 E0
G1 Z0.350 F7800.000
G1 X47.133 Y27.071 F7800.000
G1 E1.00000 F1800.000
G1 X47.803 Y25.871 E1.12497 F540.000
G1 X48.173 Y25.281 E1.18830
G1 X48.593 Y24.731 E1.25122
G1 X49.293 Y23.901 E1.34995
G1 X49.553 Y23.601 E1.38605
G1 X56.483 Y16.241 E2.30527
G1 X57.703 Y15.201 E2.45104
G1 X59.123 Y14.461 E2.59664
G1 X60.673 Y14.041 E2.74266
G1 X62.273 Y13.981 E2.88825
G1 X104.333 Y16.921 E6.72208
G1 X105.633 Y17.131 E6.84182
G1 X106.873 Y17.571 E6.96146
G1 X108.013 Y18.241 E7.08170
G1 X109.023 Y19.091 E7.20174
G1 X109.853 Y20.121 E7.32202
G1 X110.483 Y21.281 E7.44205
G1 X110.893 Y22.531 E7.56167
G1 X115.563 Y42.961 E9.46727
G1 X115.733 Y44.281 E9.58829
G1 X115.673 Y45.601 E9.70844
G1 X115.363 Y46.891 E9.82908
G1 X114.833 Y48.101 E9.94920
G1 X107.983 Y60.421 E11.23097
G1 X107.103 Y61.661 E11.36923
G1 X105.993 Y62.701 E11.50754
G1 X104.693 Y63.481 E11.64539
G1 X103.263 Y63.971 E11.78284
G1 X95.313 Y65.791 E12.52444
G1 X94.383 Y65.941 E12.61009
G1 X93.443 Y65.971 E12.69561
G1 X76.433 Y65.381 E14.24325
G1 X75.883 Y65.341 E14.29340
G1 X55.603 Y63.081 E16.14886
G1 X54.123 Y62.751 E16.28674
G1 X52.743 Y62.131 E16.42431
G1 X51.523 Y61.231 E16.56216
G1 X50.513 Y60.091 E16.70065
G1 X49.763 Y58.781 E16.83791
G1 X45.713 Y49.531 E17.75610
G1 X45.483 Y48.951 E17.81283
G1 X45.063 Y47.711 E17.93188
G1 X44.793 Y46.661 E18.03046
G1 X44.513 Y45.101 E18.17458
G1 X44.423 Y44.421 E18.23695
G1 X44.273 Y42.611 E18.40209
G1 X44.253 Y42.011 E18.45668
G1 X44.253 Y40.021 E18.63763
G1 X44.413 Y37.461 E18.87087
G1 X44.463 Y36.971 E18.91565
G1 X44.823 Y34.411 E19.15072
G1 X45.233 Y32.441 E19.33369
G1 X45.383 Y31.861 E19.38817
G1 X45.913 Y30.071 E19.55792
G1 X46.113 Y29.481 E19.61456
G1 X46.713 Y27.951 E19.76400
G1 X47.093 Y27.156 E19.84414
G1 X47.683 Y27.371 F7800.000
G1 X48.353 Y26.171 E19.96911 F540.000
G1 X48.683 Y25.631 E20.02666
G1 X49.073 Y25.131 E20.08432
G1 X49.773 Y24.301 E20.18305
G1 X56.943 Y16.671 E21.13510
G1 X58.053 Y15.721 E21.26795
G1 X59.353 Y15.041 E21.40135
G1 X60.763 Y14.661 E21.53414
G1 X62.223 Y14.601 E21.66701
G1 X104.283 Y17.541 E25.50084
G1 X105.673 Y17.791 E25.62926
G1 X106.973 Y18.321 E25.75691
G1 X108.133 Y19.121 E25.88504
G1 X109.093 Y20.141 E26.01241
G1 X109.823 Y21.341 E26.14013
G1 X110.283 Y22.671 E26.26810
G1 X114.953 Y43.101 E28.17370
G1 X115.113 Y44.711 E28.32082
G1 X114.893 Y46.301 E28.46678
G1 X114.283 Y47.801 E28.61402
G1 X107.433 Y60.121 E29.89578
G1 X106.633 Y61.251 E30.02168
G1 X105.623 Y62.201 E30.14776
G1 X104.433 Y62.911 E30.27376
G1 X103.123 Y63.361 E30.39971
G1 X95.173 Y65.181 E31.14130
G1 X94.323 Y65.311 E31.21949
G1 X93.463 Y65.341 E31.29774
G1 X76.453 Y64.751 E32.84538
G1 X75.953 Y64.711 E32.89099
G1 X55.673 Y62.451 E34.74646
G1 X54.313 Y62.161 E34.87290
G1 X53.053 Y61.591 E34.99865
G1 X51.943 Y60.771 E35.12414
G1 X51.023 Y59.731 E35.25040
G1 X50.333 Y58.531 E35.37626
G1 X46.283 Y49.281 E36.29445
G1 X46.083 Y48.751 E36.34596
G1 X45.663 Y47.511 E36.46500
G1 X45.413 Y46.551 E36.55521
G1 X45.133 Y44.991 E36.69933
G1 X45.053 Y44.371 E36.75617
G1 X44.903 Y42.561 E36.92132
G1 X44.883 Y42.011 E36.97136
G1 X44.893 Y39.571 E37.19323
G1 X45.033 Y37.501 E37.38188
G1 X45.083 Y37.061 E37.42215
G1 X45.433 Y34.541 E37.65349
G1 X45.843 Y32.571 E37.83646
G1 X45.983 Y32.041 E37.88631
G1 X46.513 Y30.251 E38.05606
G1 X46.693 Y29.711 E38.10782
G1 X47.293 Y28.181 E38.25725
G1 X47.643 Y27.455 E38.33048
G1 F1800.000 E37.33048
G92 E0
G1 X76.777 Y41.139 F7800.000
G1 E1.00000 F1800.000
G1 X79.547 Y40.239 E1.26482 F540.000
G1 X81.259 Y42.595 E1.52965
G1 X79.547 Y44.951 E1.79447
G1 X76.777 Y44.051 E2.05929
G1 X76.777 Y41.232 E2.31559
G1 X77.402 Y41.593 F7800.000
G1 X79.308 Y40.973 E2.49785 F540.000
G1 X80.486 Y42.595 E2.68011
G1 X79.308 Y44.216 E2.86237
G1 X77.402 Y43.597 E3.04462
G1 X77.402 Y41.686 E3.21836
G1 X78.027 Y42.047 F7800.000
G1 X79.070 Y41.708 E3.31805 F540.000
G1 X79.714 Y42.595 E3.41774
G1 X79.070 Y43.482 E3.51744
G1 X78.027 Y43.143 E3.61713
G1 X78.027 Y42.140 E3.70830
G1 F1800.000 E2.70830
G92 E0
G1 X80.477 Y55.971 F7800.000
G1 E1.00000 F1800.000
G1 X75.973 Y56.445 E1.41181 F540.000
G1 X57.829 Y54.424 E3.07187
G1 X56.832 Y46.712 E3.77896
G1 X54.093 Y46.407 E4.02955
G1 X53.817 Y45.951 E4.07796
G1 X53.494 Y44.985 E4.17061
G1 X53.241 Y43.614 E4.29737
G1 X53.105 Y41.947 E4.44950
G1 X53.103 Y40.081 E4.61911
G1 X53.239 Y38.121 E4.79776
G1 X53.509 Y36.165 E4.97737
G1 X53.896 Y34.310 E5.14967
G1 X54.379 Y32.654 E5.30651
G1 X54.921 Y31.291 E5.43986
G1 X55.462 Y30.316 E5.54126
G1 X55.915 Y29.783 E5.60490
G1 X58.676 Y30.077 E5.85737
G1 X62.653 Y22.919 E6.60193
G1 X83.096 Y25.196 E8.47232
G1 X83.202 Y25.004 E8.49226
G1 X102.546 Y25.708 E10.25232
G1 X106.801 Y44.345 E11.99050
G1 X100.600 Y55.506 E13.15151
G1 X93.549 Y57.116 E13.80914
G1 X80.427 Y56.638 E15.00312
G1 X80.470 Y56.065 E15.05544
G1 X79.798 Y56.671 F7800.000
G1 X76.171 Y57.053 E15.38706 F540.000
G1 X76.148 Y57.094 E15.39130
G1 X57.272 Y54.991 E17.11830
G1 X56.275 Y47.279 E17.82539
G1 X53.862 Y47.010 E18.04617
G1 X53.616 Y46.827 E18.07401
G1 X53.247 Y46.215 E18.13899
G1 X52.888 Y45.142 E18.24194
G1 X52.621 Y43.697 E18.37556
G1 X52.480 Y41.972 E18.53284
G1 X52.478 Y40.060 E18.70675
G1 X52.618 Y38.057 E18.88932
G1 X52.893 Y36.058 E19.07281
G1 X53.290 Y34.158 E19.24928
G1 X53.787 Y32.450 E19.41103
G1 X54.355 Y31.023 E19.55073
G1 X54.946 Y29.959 E19.66139
G1 X55.475 Y29.335 E19.73578
G1 X55.787 Y29.153 E19.76864
G1 X56.138 Y29.165 E19.80050
G1 X58.332 Y29.410 E20.00127
G1 X62.309 Y22.252 E20.74583
G1 X82.752 Y24.529 E22.61621
G1 X82.842 Y24.366 E22.63317
G1 X103.048 Y25.101 E24.47172
G1 X107.463 Y44.439 E26.27531
G1 X101.011 Y56.053 E27.48343
G1 X93.608 Y57.743 E28.17386
G1 X79.755 Y57.239 E29.43437
G1 X79.791 Y56.764 E29.47765
G1 X79.118 Y57.371 F7800.000
G1 X76.559 Y57.640 E29.71163 F378.000
G1 X76.492 Y57.761 E29.72415
G1 X56.715 Y55.558 E31.53359
G1 X55.718 Y47.846 E32.24069
G1 X53.624 Y47.612 E32.43229
G1 X53.145 Y47.255 E32.48665
G1 X52.676 Y46.479 E32.56904
G1 X52.281 Y45.298 E32.68228
G1 X52.001 Y43.779 E32.82276
G1 X51.855 Y41.998 E32.98520
G1 X51.853 Y40.039 E33.16340
G1 X51.996 Y37.993 E33.34989
G1 X52.277 Y35.951 E33.53726
G1 X52.683 Y34.007 E33.71790
G1 X53.196 Y32.247 E33.88456
G1 X53.789 Y30.754 E34.03061
G1 X54.430 Y29.602 E34.15054
G1 X55.068 Y28.850 E34.24023
G1 X55.628 Y28.522 E34.29926
G1 X56.183 Y28.542 E34.34974
G1 X57.988 Y28.743 E34.51483
G1 X61.964 Y21.585 E35.25939
G1 X82.407 Y23.862 E37.12977
G1 X82.482 Y23.728 E37.14375
G1 X103.551 Y24.494 E39.06078
G1 X108.126 Y44.533 E40.92978
G1 X101.422 Y56.600 E42.18501
G1 X93.667 Y58.371 E42.90824
G1 X79.083 Y57.840 E44.23528
G1 X79.111 Y57.464 E44.26953
G1 X80.188 Y55.577 F7800.000
G1 X55.581 Y30.970 E47.44411 F1080.000
G1 X55.272 Y31.548 E47.50387
G1 X79.386 Y55.662 E50.61481
G1 X78.584 Y55.746 E50.68839
G1 X55.020 Y32.182 E53.72840
G1 X54.770 Y32.819 E53.79078
G1 X77.782 Y55.831 E56.75957
G1 X76.980 Y55.915 E56.83315
G1 X54.570 Y33.505 E59.72427
G1 X54.370 Y34.192 E59.78950
G1 X76.178 Y56.000 E62.60296
G1 X75.230 Y55.938 E62.68964
G1 X54.202 Y34.910 E65.40247
G1 X54.048 Y35.644 E65.47082
G1 X74.232 Y55.827 E68.07471
G1 X73.234 Y55.716 E68.16629
G1 X53.904 Y36.386 E70.66009
G1 X53.797 Y37.165 E70.73186
G1 X72.236 Y55.605 E73.11078
G1 X71.239 Y55.494 E73.20236
G1 X53.689 Y37.944 E75.46640
G1 X53.618 Y38.759 E75.54103
G1 X70.241 Y55.383 E77.68560
G1 X69.243 Y55.271 E77.77718
G1 X53.560 Y39.588 E79.80048
G1 X53.525 Y40.440 E79.87823
G1 X68.245 Y55.160 E81.77733
G1 X67.248 Y55.049 E81.86891
G1 X53.526 Y41.327 E83.63916
G1 X53.552 Y42.240 E83.72245
G1 X66.250 Y54.938 E85.36062
G1 X65.252 Y54.827 E85.45220
G1 X57.275 Y46.849 E86.48141
G1 X57.406 Y47.867 E86.57508
G1 X64.255 Y54.716 E87.45858
G1 X63.257 Y54.605 E87.55016
G1 X57.538 Y48.886 E88.28796
G1 X57.670 Y49.904 E88.38162
G1 X62.259 Y54.493 E88.97371
G1 X61.261 Y54.382 E89.06529
G1 X57.801 Y50.922 E89.51168
G1 X57.933 Y51.941 E89.60534
G1 X60.264 Y54.271 E89.90602
G1 X59.266 Y54.160 E89.99760
G1 X58.065 Y52.959 E90.15257
G1 X58.196 Y53.977 E90.24623
G1 X58.268 Y54.049 E90.25549
G1 X56.698 Y46.273 F7800.000
G1 X53.631 Y43.206 E90.65122 F1080.000
G1 X53.787 Y44.248 E90.74741
G1 X55.701 Y46.162 E90.99427
G1 X54.703 Y46.051 E91.08585
G1 X54.090 Y45.438 E91.16487
G1 F1800.000 E90.16487
G92 E0
G1 X76.355 Y43.765 F7800.000
G1 E1.00000 F1800.000
G1 X60.412 Y27.821 E3.05693 F1080.000
G1 X60.728 Y27.251 E3.11641
G1 X76.355 Y42.879 E5.13249
G1 X76.355 Y41.992 E5.21337
G1 X61.045 Y26.681 E7.18860
G1 X61.361 Y26.111 E7.24808
G1 X76.355 Y41.105 E9.18246
G1 X76.818 Y40.682 E9.23971
G1 X61.678 Y25.542 E11.19298
G1 X61.995 Y24.972 E11.25246
G1 X77.488 Y40.464 E13.25121
G1 X78.157 Y40.247 E13.31539
G1 X62.311 Y24.402 E15.35962
G1 X62.628 Y23.832 E15.41910
G1 X78.826 Y40.030 E17.50881
G1 X79.495 Y39.812 E17.57300
G1 X63.073 Y23.390 E19.69164
G1 X64.071 Y23.501 E19.78322
G1 X96.564 Y55.995 E23.97526
G1 X97.286 Y55.830 E24.04280
G1 X65.068 Y23.612 E28.19925
G1 X66.066 Y23.723 E28.29083
G1 X98.008 Y55.665 E32.41167
G1 X98.730 Y55.500 E32.47921
G1 X67.064 Y23.835 E36.56445
G1 X68.062 Y23.946 E36.65603
G1 X99.452 Y55.336 E40.70567
G1 X100.173 Y55.171 E40.77321
G1 X69.059 Y24.057 E44.78725
G1 X70.057 Y24.168 E44.87884
G1 X100.574 Y54.685 E48.81582
G1 X100.890 Y54.115 E48.87530
G1 X71.055 Y24.279 E52.72442
G1 X72.053 Y24.390 E52.81600
G1 X101.207 Y53.545 E56.57725
G1 X101.524 Y52.975 E56.63672
G1 X73.050 Y24.501 E60.31010
G1 X74.048 Y24.613 E60.40169
G1 X101.840 Y52.405 E63.98720
G1 X102.157 Y51.835 E64.04667
G1 X75.046 Y24.724 E67.54432
G1 X76.044 Y24.835 E67.63590
G1 X102.474 Y51.265 E71.04567
G1 X102.790 Y50.695 E71.10515
G1 X77.041 Y24.946 E74.42705
G1 X78.039 Y25.057 E74.51864
G1 X103.107 Y50.125 E77.75267
G1 X103.424 Y49.555 E77.81215
G1 X79.037 Y25.168 E80.95832
G1 X80.034 Y25.279 E81.04990
G1 X103.740 Y48.985 E84.10820
G1 X104.057 Y48.415 E84.16768
G1 X81.032 Y25.391 E87.13811
G1 X82.030 Y25.502 E87.22969
G1 X104.373 Y47.845 E90.11225
G1 X104.690 Y47.275 E90.17173
G1 X83.028 Y25.613 E92.96642
G1 X83.748 Y25.446 E93.03383
G1 X105.007 Y46.705 E95.77650
G1 X105.323 Y46.135 E95.83597
G1 X84.668 Y25.480 E98.50079
G1 X85.588 Y25.513 E98.58477
G1 X105.640 Y45.565 E101.17174
G1 X105.957 Y44.996 E101.23122
G1 X86.508 Y25.547 E103.74033
G1 X87.428 Y25.580 E103.82432
G1 X106.273 Y44.426 E106.25558
G1 X106.158 Y43.424 E106.34759
G1 X88.348 Y25.614 E108.64527
G1 X89.268 Y25.647 E108.72926
G1 X105.896 Y42.275 E110.87439
G1 X105.633 Y41.126 E110.98190
G1 X90.188 Y25.681 E112.97449
G1 X91.108 Y25.714 E113.05848
G1 X105.371 Y39.977 E114.89854
G1 X105.109 Y38.828 E115.00604
G1 X92.028 Y25.748 E116.69356
G1 X92.948 Y25.781 E116.77755
G1 X104.846 Y37.679 E118.31252
G1 X104.584 Y36.530 E118.42003
G1 X93.868 Y25.815 E119.80246
G1 X94.789 Y25.848 E119.88645
G1 X104.322 Y35.381 E121.11634
G1 X104.059 Y34.232 E121.22385
G1 X95.709 Y25.882 E122.30120
G1 X96.629 Y25.915 E122.38519
G1 X103.797 Y33.083 E123.31000
G1 X103.535 Y31.935 E123.41751
G1 X97.549 Y25.948 E124.18978
G1 X98.469 Y25.982 E124.27377
G1 X103.273 Y30.786 E124.89350
G1 X103.010 Y29.637 E125.00100
G1 X99.389 Y26.015 E125.46819
G1 X100.309 Y26.049 E125.55218
G1 X102.748 Y28.488 E125.86683
G1 X102.486 Y27.339 E125.97433
G1 X101.229 Y26.082 E126.13644
G1 X102.149 Y26.116 E126.22043
G1 X102.223 Y26.190 E126.23000
G1 F1800.000 E125.23000
G92 E0
G1 X80.457 Y40.774 F7800.000
G1 E1.00000 F1800.000
G1 X95.843 Y56.160 E2.98485 F1080.000
G1 X95.121 Y56.324 E3.05239
G1 X81.616 Y42.820 E4.79460
G1 X81.243 Y43.334 E4.85250
G1 X94.399 Y56.489 E6.54971
G1 X93.677 Y56.654 E6.61725
G1 X80.870 Y43.847 E8.26948
G1 X80.497 Y44.361 E8.32739
G1 X92.803 Y56.667 E9.91500
G1 X91.883 Y56.633 E9.99899
G1 X80.124 Y44.874 E11.51604
G1 X79.751 Y45.388 E11.57394
G1 X90.963 Y56.600 E13.02043
G1 X90.043 Y56.566 E13.10441
G1 X78.546 Y45.069 E14.58765
G1 X77.233 Y44.643 F7800.000
G1 X89.123 Y56.533 E16.12161 F1080.000
G1 X88.203 Y56.499 E16.20560
G1 X60.095 Y28.391 E19.83184
G1 X59.778 Y28.961 E19.89131
G1 X87.283 Y56.466 E23.43970
G1 X86.363 Y56.432 E23.52369
G1 X59.462 Y29.531 E26.99422
G1 X59.145 Y30.101 E27.05370
G1 X85.443 Y56.399 E30.44639
G1 X84.523 Y56.365 E30.53038
G1 X58.656 Y30.499 E33.86746
G1 X57.664 Y30.393 E33.95849
G1 X83.603 Y56.332 E37.30489
G1 X82.682 Y56.298 E37.38888
G1 X56.671 Y30.287 E40.74461
G1 X55.923 Y30.425 E40.81403
G1 X81.762 Y56.265 E44.14761
M104 S220 ; set temperature
G1 F1800.000 E43.14761
G92 E0
G1 Z0.600 F7800.000
G1 X81.162 Y49.542 F7800.000
G1 E1.00000 F1800.000
G1 X79.333 Y49.959 E1.06823 F1800
G1 X77.138 Y49.795 E1.14831
G1 X75.089 Y48.990 E1.22839
G1 X73.368 Y47.618 E1.30847
G1 X72.128 Y45.799 E1.38855
G1 X71.479 Y43.696 E1.46863
G1 X71.479 Y41.494 E1.54872
G1 X72.128 Y39.391 E1.62879
G1 X73.368 Y37.572 E1.70888
G1 X75.089 Y36.199 E1.78896
G1 X77.138 Y35.395 E1.86904
G1 X79.333 Y35.231 E1.94912
G1 X81.479 Y35.721 E2.02920
G1 X83.386 Y36.821 E2.10928
G1 X84.883 Y38.435 E2.18936
G1 X86.059 Y40.878 E2.28799
G1 X85.907 Y40.878 E2.29351
G1 X86.166 Y42.595 E2.35669
G1 X85.838 Y44.772 E2.43677
G1 X84.883 Y46.755 E2.51685
G1 X83.386 Y48.369 E2.59693
G1 X81.479 Y49.469 E2.67701
G1 X81.213 Y49.530 E2.68695
G1 X81.084 Y49.201 F7800.000
G1 X79.307 Y49.606 E2.75327 F1800
G1 X77.217 Y49.450 E2.82951
G1 X75.266 Y48.684 E2.90575
G1 X73.627 Y47.377 E2.98199
G1 X72.447 Y45.645 E3.05823
G1 X71.829 Y43.643 E3.13448
G1 X71.829 Y41.547 E3.21072
G1 X72.447 Y39.544 E3.28696
G1 X73.627 Y37.813 E3.36320
G1 X75.266 Y36.506 E3.43944
G1 X77.217 Y35.740 E3.51569
G1 X79.307 Y35.584 E3.59193
G1 X81.350 Y36.050 E3.66817
G1 X83.165 Y37.098 E3.74441
G1 X84.591 Y38.634 E3.82065
G1 X85.502 Y40.528 E3.89710
G1 X85.812 Y42.595 E3.97315
G1 X85.500 Y44.667 E4.04939
G1 X84.591 Y46.556 E4.12563
G1 X83.165 Y48.092 E4.20187
G1 X81.350 Y49.140 E4.27811
G1 X81.135 Y49.189 E4.28613
G1 X81.006 Y48.859 F7800.000
G1 X79.280 Y49.253 E4.35053 F1260
G1 X77.296 Y49.104 E4.42293
G1 X75.443 Y48.377 E4.49533
G1 X73.887 Y47.136 E4.56774
G1 X72.766 Y45.492 E4.64014
G1 X72.179 Y43.590 E4.71255
G1 X72.179 Y41.600 E4.78495
G1 X72.766 Y39.698 E4.85735
G1 X73.887 Y38.053 E4.92976
G1 X75.443 Y36.812 E5.00216
G1 X77.296 Y36.085 E5.07456
G1 X79.280 Y35.937 E5.14697
G1 X81.221 Y36.379 E5.21937
G1 X82.944 Y37.375 E5.29178
G1 X84.298 Y38.834 E5.36418
G1 X85.162 Y40.627 E5.43658
G1 X85.458 Y42.595 E5.50899
G1 X85.162 Y44.563 E5.58139
G1 X84.298 Y46.356 E5.65380
G1 X82.944 Y47.815 E5.72620
G1 X81.221 Y48.810 E5.79860
G1 X81.057 Y48.848 E5.80470
G1 X79.689 Y56.783 F7800.000
G1 X76.233 Y57.147 E5.93113 F1800
G1 X76.203 Y57.200 E5.93335
G1 X57.183 Y55.082 E6.62955
G1 X56.186 Y47.369 E6.91244
G1 X53.824 Y47.106 E6.99890
G1 X53.541 Y46.895 E7.01173
G1 X53.156 Y46.257 E7.03884
G1 X52.791 Y45.167 E7.08069
G1 X52.522 Y43.710 E7.13458
G1 X52.380 Y41.977 E7.19784
G1 X52.378 Y40.057 E7.26769
G1 X52.518 Y38.047 E7.34098
G1 X52.794 Y36.041 E7.41464
G1 X53.193 Y34.134 E7.48550
G1 X53.693 Y32.418 E7.55053
G1 X54.265 Y30.980 E7.60683
G1 X54.864 Y29.902 E7.65169
G1 X55.410 Y29.258 E7.68243
G1 X55.762 Y29.052 E7.69725
G1 X56.145 Y29.065 E7.71119
G1 X58.277 Y29.303 E7.78923
G1 X62.254 Y22.145 E8.08710
G1 X82.697 Y24.422 E8.83539
G1 X82.785 Y24.264 E8.84198
G1 X103.129 Y25.004 E9.58255
G1 X107.569 Y44.454 E10.30830
G1 X101.607 Y55.185 E10.75489
G1 X90.467 Y57.729 E11.17059
G1 X79.648 Y57.335 E11.56444
G1 X79.685 Y56.835 E11.58268
