; generated by Slic3r 1.0.0RC2 on 2014-02-05 at 10:42:04

; layer_height = 0.25
; perimeters = 1
; top_solid_layers = 2
; bottom_solid_layers = 2
; fill_density = 0.135
; perimeter_speed = 30
; infill_speed = 60
; travel_speed = 130
; nozzle_diameter = 0.35
; filament_diameter = 1.75
; extrusion_multiplier = 1
; perimeters extrusion width = 0.35mm
; infill extrusion width = 0.39mm
; solid infill extrusion width = 0.39mm
; top infill extrusion width = 0.39mm
; first layer extrusion width = 0.70mm

G21 ; set units to millimeters
M107
M104 S220 ; set temperature
G28 ; home all axes
G1 Z5 F5000 ; lift nozzle

M109 S220 ; wait for temperature to be reached
G90 ; use absolute coordinates
G92 E0
M82 ; use absolute distances for extrusion
G1 F1800.000 E-1.00000
G92 E0
G1 Z0.350 F7800.000
G1 X25.814 Y16.692 F7800.000
G1 E1.00000 F1800.000
G1 X26.234 Y16.142 E1.06293 F540.000
G1 X27.194 Y15.012 E1.19775
G1 X34.124 Y7.652 E2.11697
G1 X35.284 Y6.662 E2.25564
G1 X36.624 Y5.932 E2.39439
G1 X38.084 Y5.492 E2.53305
G1 X39.604 Y5.372 E2.67169
G1 X81.174 Y6.532 E6.45310
G1 X82.914 Y6.792 E6.61308
G1 X84.534 Y7.462 E6.77249
G1 X85.944 Y8.502 E6.93180
G1 X135.204 Y54.842 E13.08145
G1 X135.794 Y55.472 E13.15994
G1 X136.304 Y56.162 E13.23796
G1 X136.604 Y56.622 E13.28789
G1 X137.024 Y57.342 E13.36369
G1 X137.354 Y58.112 E13.43986
G1 X137.564 Y58.692 E13.49595
G1 X137.764 Y59.352 E13.55866
G1 X137.904 Y60.022 E13.62090
G1 X138.014 Y60.712 E13.68443
G1 X138.104 Y61.952 E13.79748
G1 X138.094 Y62.702 E13.86568
G1 X138.034 Y63.502 E13.93863
G1 X137.934 Y64.302 E14.01194
G1 X137.764 Y65.222 E14.09701
G1 X137.554 Y66.032 E14.17310
G1 X137.264 Y66.922 E14.25822
G1 X136.954 Y67.692 E14.33369
G1 X136.614 Y68.402 E14.40527
G1 X136.234 Y69.112 E14.47850
G1 X135.724 Y69.932 E14.56631
G1 X135.284 Y70.542 E14.63470
G1 X134.584 Y71.372 E14.73343
G1 X134.094 Y71.872 E14.79708
G1 X133.574 Y72.352 E14.86143
G1 X133.014 Y72.782 E14.92563
G1 X132.504 Y73.132 E14.98188
G1 X131.744 Y73.582 E15.06219
G1 X130.934 Y73.942 E15.14279
G1 X130.424 Y74.132 E15.19228
G1 X129.394 Y74.432 E15.28982
G1 X128.334 Y74.582 E15.38717
G1 X127.844 Y74.612 E15.43181
G1 X126.854 Y74.602 E15.52183
G1 X125.874 Y74.462 E15.61185
G1 X32.514 Y54.372 E24.29536
G1 X31.214 Y53.952 E24.41959
G1 X30.004 Y53.302 E24.54448
G1 X28.944 Y52.442 E24.66860
G1 X28.064 Y51.392 E24.79317
G1 X27.404 Y50.192 E24.91770
G1 X23.354 Y40.942 E25.83589
G1 X23.124 Y40.362 E25.89262
G1 X22.704 Y39.122 E26.01167
G1 X22.434 Y38.072 E26.11025
G1 X22.154 Y36.512 E26.25437
G1 X22.064 Y35.832 E26.31674
G1 X21.914 Y34.022 E26.48189
G1 X21.894 Y33.422 E26.53647
G1 X21.894 Y31.432 E26.71742
G1 X22.054 Y28.872 E26.95066
G1 X22.104 Y28.382 E26.99545
G1 X22.464 Y25.822 E27.23052
G1 X22.874 Y23.852 E27.41348
G1 X23.024 Y23.272 E27.46796
G1 X23.554 Y21.482 E27.63771
G1 X23.754 Y20.892 E27.69435
G1 X24.354 Y19.362 E27.84379
G1 X24.774 Y18.482 E27.93246
G1 X25.444 Y17.282 E28.05743
G1 X25.764 Y16.771 E28.11223
G1 X26.324 Y17.042 F7800.000
G1 X26.714 Y16.542 E28.16989 F540.000
G1 X27.654 Y15.442 E28.30146
G1 X34.584 Y8.082 E29.22068
G1 X35.634 Y7.172 E29.34702
G1 X36.864 Y6.502 E29.47438
G1 X38.194 Y6.112 E29.60041
G1 X39.584 Y6.002 E29.72720
G1 X81.154 Y7.162 E33.50861
G1 X82.744 Y7.402 E33.65483
G1 X84.224 Y8.012 E33.80038
G1 X85.514 Y8.952 E33.94552
G1 X134.774 Y55.292 E40.09517
G1 X135.314 Y55.872 E40.16723
G1 X135.784 Y56.502 E40.23870
G1 X136.084 Y56.962 E40.28864
G1 X136.464 Y57.622 E40.35789
G1 X136.764 Y58.322 E40.42714
G1 X136.974 Y58.902 E40.48323
G1 X137.154 Y59.502 E40.54019
G1 X137.284 Y60.122 E40.59779
G1 X137.394 Y60.812 E40.66133
G1 X137.474 Y61.942 E40.76433
G1 X137.464 Y62.692 E40.83254
G1 X137.414 Y63.422 E40.89907
G1 X137.314 Y64.222 E40.97238
G1 X137.154 Y65.062 E41.05013
G1 X136.944 Y65.872 E41.12622
G1 X136.684 Y66.682 E41.20358
G1 X136.374 Y67.452 E41.27905
G1 X136.064 Y68.112 E41.34536
G1 X135.684 Y68.822 E41.41858
G1 X135.214 Y69.572 E41.49906
G1 X134.774 Y70.182 E41.56746
G1 X134.134 Y70.942 E41.65780
G1 X133.644 Y71.442 E41.72146
G1 X133.174 Y71.872 E41.77938
G1 X132.664 Y72.262 E41.83776
G1 X132.154 Y72.612 E41.89401
G1 X131.454 Y73.032 E41.96823
G1 X130.714 Y73.362 E42.04191
G1 X130.204 Y73.552 E42.09140
G1 X129.264 Y73.822 E42.18033
G1 X128.294 Y73.952 E42.26932
G1 X127.804 Y73.982 E42.31396
G1 X126.904 Y73.982 E42.39579
G1 X126.014 Y73.852 E42.47758
G1 X32.654 Y53.762 E51.16109
G1 X31.174 Y53.252 E51.30343
G1 X29.854 Y52.412 E51.44570
G1 X28.764 Y51.292 E51.58781
G1 X27.974 Y49.942 E51.73004
G1 X23.924 Y40.692 E52.64823
G1 X23.724 Y40.162 E52.69974
G1 X23.304 Y38.922 E52.81878
G1 X23.054 Y37.962 E52.90899
G1 X22.774 Y36.402 E53.05310
G1 X22.694 Y35.782 E53.10995
G1 X22.544 Y33.972 E53.27509
G1 X22.524 Y33.422 E53.32514
G1 X22.534 Y30.982 E53.54701
G1 X22.674 Y28.912 E53.73566
G1 X23.074 Y25.952 E54.00726
G1 X23.484 Y23.982 E54.19023
G1 X23.624 Y23.452 E54.24007
G1 X24.154 Y21.662 E54.40982
G1 X24.334 Y21.122 E54.46158
G1 X24.934 Y19.592 E54.61102
G1 X25.324 Y18.782 E54.69276
G1 X25.994 Y17.582 E54.81774
G1 X26.275 Y17.122 E54.86676
G1 F1800.000 E53.86676
G92 E0
G1 X52.043 Y33.004 F7800.000
G1 E1.00000 F1800.000
G1 X53.949 Y32.384 E1.18226 F540.000
G1 X55.127 Y34.006 E1.36452
G1 X53.949 Y35.627 E1.54677
G1 X52.043 Y35.008 E1.72903
G1 X52.043 Y33.097 E1.90277
G1 X52.668 Y33.458 F7800.000
G1 X53.710 Y33.119 E2.00246 F540.000
G1 X54.355 Y34.006 E2.10215
G1 X53.710 Y34.893 E2.20184
G1 X52.668 Y34.554 E2.30153
G1 X52.668 Y33.551 E2.39270
G1 F1800.000 E1.39270
G92 E0
G1 X57.352 Y47.117 F7800.000
G1 E1.00000 F1800.000
G1 X57.227 Y48.104 E1.09050 F540.000
G1 X53.811 Y48.464 E1.40278
G1 X53.789 Y48.505 E1.40701
G1 X34.913 Y46.402 E3.13401
G1 X33.916 Y38.690 E3.84111
G1 X31.502 Y38.421 E4.06189
G1 X31.257 Y38.238 E4.08972
G1 X30.888 Y37.626 E4.15471
G1 X30.529 Y36.553 E4.25765
G1 X30.262 Y35.108 E4.39127
G1 X30.121 Y33.383 E4.54856
G1 X30.119 Y31.471 E4.72246
G1 X30.258 Y29.468 E4.90503
G1 X30.533 Y27.469 E5.08852
G1 X30.930 Y25.569 E5.26500
G1 X31.428 Y23.861 E5.42674
G1 X31.996 Y22.434 E5.56645
G1 X32.587 Y21.370 E5.67711
G1 X33.116 Y20.746 E5.75150
G1 X33.428 Y20.564 E5.78435
G1 X33.778 Y20.576 E5.81622
G1 X35.973 Y20.821 E6.01698
G1 X39.949 Y13.663 E6.76155
G1 X60.291 Y15.929 E8.62269
G1 X60.472 Y15.604 E8.65648
G1 X80.280 Y14.786 E10.45918
G1 X86.590 Y34.107 E12.30738
G1 X81.503 Y43.265 E13.25992
G1 X127.625 Y62.095 E17.78982
G1 X128.158 Y61.358 E17.87256
G1 X128.529 Y60.983 E17.92054
G1 X128.867 Y60.752 E17.95772
G1 X129.120 Y60.658 E17.98228
G1 X129.338 Y60.648 E18.00212
G1 X129.510 Y60.788 E18.02229
G1 X129.662 Y61.020 E18.04750
G1 X129.799 Y61.406 E18.08473
G1 X129.879 Y61.926 E18.13264
G1 X129.878 Y62.545 E18.18890
G1 X129.786 Y63.221 E18.25088
G1 X129.606 Y63.911 E18.31574
G1 X129.346 Y64.575 E18.38058
G1 X129.023 Y65.175 E18.44255
G1 X128.661 Y65.676 E18.49881
G1 X128.290 Y66.051 E18.54674
G1 X127.951 Y66.283 E18.58407
G1 X127.692 Y66.381 E18.60932
G1 X127.471 Y66.393 E18.62937
G1 X127.301 Y66.257 E18.64917
G1 X127.151 Y66.033 E18.67372
G1 X127.014 Y65.647 E18.71091
G1 X126.934 Y65.126 E18.75890
G1 X126.936 Y64.216 E18.84164
G1 X70.357 Y50.328 E24.13901
G1 X69.218 Y49.958 E24.24792
G1 X68.239 Y49.392 E24.35076
G1 X67.399 Y48.635 E24.45362
G1 X67.038 Y48.138 E24.50944
G1 X59.269 Y48.459 E25.21653
G1 X59.231 Y47.207 E25.33043
G1 X57.445 Y47.121 E25.49304
G1 X57.899 Y47.769 F7800.000
G1 X57.785 Y48.674 E25.57600 F378.000
G1 X54.200 Y49.051 E25.90377
G1 X54.133 Y49.172 E25.91629
G1 X34.356 Y46.969 E27.72573
G1 X33.359 Y39.257 E28.43283
G1 X31.265 Y39.023 E28.62443
G1 X30.786 Y38.666 E28.67879
G1 X30.317 Y37.890 E28.76118
G1 X29.922 Y36.709 E28.87442
G1 X29.642 Y35.190 E29.01490
G1 X29.496 Y33.409 E29.17734
G1 X29.494 Y31.450 E29.35554
G1 X29.636 Y29.404 E29.54203
G1 X29.917 Y27.362 E29.72940
G1 X30.324 Y25.418 E29.91004
G1 X30.837 Y23.658 E30.07670
G1 X31.430 Y22.165 E30.22276
G1 X32.071 Y21.013 E30.34268
G1 X32.709 Y20.261 E30.43237
G1 X33.269 Y19.933 E30.49140
G1 X33.824 Y19.953 E30.54188
G1 X35.628 Y20.154 E30.70697
G1 X39.605 Y12.996 E31.45153
G1 X59.947 Y15.262 E33.31268
G1 X60.096 Y14.994 E33.34052
G1 X80.727 Y14.142 E35.21813
G1 X87.269 Y34.172 E37.13415
G1 X82.391 Y42.952 E38.04743
G1 X127.406 Y61.331 E42.46863
G1 X127.680 Y60.952 E42.51111
G1 X128.127 Y60.501 E42.56889
G1 X128.576 Y60.193 E42.61838
G1 X128.995 Y60.038 E42.65902
G1 X129.366 Y60.022 E42.69274
G1 X129.689 Y60.129 E42.72373
G1 X129.979 Y60.364 E42.75765
G1 X130.226 Y60.740 E42.79855
G1 X130.408 Y61.253 E42.84805
G1 X130.504 Y61.880 E42.90572
G1 X130.502 Y62.588 E42.97014
G1 X130.400 Y63.342 E43.03931
G1 X130.201 Y64.104 E43.11095
G1 X129.914 Y64.838 E43.18257
G1 X129.554 Y65.508 E43.25175
G1 X129.139 Y66.082 E43.31617
G1 X128.692 Y66.532 E43.37385
G1 X128.243 Y66.841 E43.42346
G1 X127.821 Y67.000 E43.46440
G1 X127.450 Y67.020 E43.49822
G1 X127.126 Y66.917 E43.52915
G1 X126.836 Y66.686 E43.56286
G1 X126.588 Y66.314 E43.60350
G1 X126.406 Y65.801 E43.65300
G1 X126.309 Y65.173 E43.71078
G1 X126.310 Y64.706 E43.75326
G1 X70.186 Y50.930 E49.00807
G1 X68.963 Y50.532 E49.12505
G1 X67.869 Y49.901 E49.23985
G1 X66.931 Y49.055 E49.35467
G1 X66.729 Y48.776 E49.38600
G1 X58.663 Y49.109 E50.12009
G1 X58.624 Y47.803 E50.23891
G1 X57.993 Y47.773 E50.29637
G1 X59.656 Y47.310 F7800.000
G1 X60.339 Y47.993 E50.38435 F1080.000
G1 X64.591 Y47.817 F7800.000
G1 X52.313 Y35.539 E51.96624 F1080.000
G1 X53.625 Y35.965 E52.09188
G1 X65.441 Y47.782 E53.61434
G1 X66.291 Y47.747 E53.69187
G1 X54.345 Y35.800 E55.23109
G1 X54.717 Y35.287 E55.28884
G1 X68.398 Y48.968 E57.05150
G1 X70.125 Y49.809 F7800.000
G1 X55.090 Y34.775 E58.98858 F1080.000
G1 X55.463 Y34.262 E59.04633
G1 X71.335 Y50.134 E61.09133
G1 X72.508 Y50.422 E61.20141
G1 X38.759 Y16.673 E65.54965
G1 X38.443 Y17.242 E65.60897
G1 X53.340 Y32.139 E67.52826
G1 X52.671 Y32.356 E67.59227
G1 X38.127 Y17.812 E69.46620
G1 X37.811 Y18.381 E69.52552
G1 X52.003 Y32.573 E71.35409
G1 X51.621 Y33.077 E71.41166
G1 X37.494 Y18.950 E73.23175
G1 X37.178 Y19.519 E73.29107
G1 X51.621 Y33.962 E75.15190
G1 X51.621 Y34.847 E75.23256
G1 X36.862 Y20.088 E77.13413
G1 X36.546 Y20.658 E77.19345
G1 X63.740 Y47.852 E80.69725
G1 X62.890 Y47.887 E80.77478
G1 X36.230 Y21.227 E84.20976
G1 X35.286 Y21.168 E84.29590
G1 X62.040 Y47.923 E87.74291
G1 X61.190 Y47.958 E87.82044
G1 X34.289 Y21.057 E91.28629
G1 X33.410 Y21.063 E91.36644
G1 X59.126 Y46.780 E94.67978
G1 X58.196 Y46.735 E94.76461
G1 X32.998 Y21.537 E98.01114
G1 X32.668 Y22.092 E98.07000
G1 X57.266 Y46.690 E101.23924
G1 X56.913 Y47.223 E101.29744
G1 X32.357 Y22.667 E104.46126
G1 X32.105 Y23.300 E104.52337
G1 X56.556 Y47.751 E107.67360
G1 X55.755 Y47.835 E107.74698
G1 X31.853 Y23.934 E110.82646
G1 X31.648 Y24.614 E110.89119
G1 X54.954 Y47.920 E113.89390
G1 X54.153 Y48.004 E113.96728
G1 X31.448 Y25.300 E116.89252
G1 X31.270 Y26.007 E116.95896
G1 X53.288 Y48.024 E119.79575
G1 X52.291 Y47.913 E119.88709
G1 X31.117 Y26.739 E122.61522
G1 X30.964 Y27.471 E122.68338
G1 X51.295 Y47.802 E125.30285
G1 X50.298 Y47.691 E125.39419
G1 X30.852 Y28.245 E127.89964
G1 X30.745 Y29.024 E127.97122
G1 X49.302 Y47.580 E130.36209
G1 X48.306 Y47.469 E130.45343
G1 X30.657 Y29.820 E132.72734
G1 X30.599 Y30.648 E132.80293
G1 X47.309 Y47.358 E134.95589
G1 X46.313 Y47.248 E135.04723
G1 X30.541 Y31.476 E137.07923
G1 X30.542 Y32.362 E137.15992
G1 X45.316 Y47.137 E139.06351
G1 X44.320 Y47.026 E139.15485
G1 X30.542 Y33.248 E140.92993
G1 X30.611 Y34.202 E141.01706
G1 X43.323 Y46.915 E142.65494
G1 X42.327 Y46.804 E142.74628
G1 X34.360 Y38.836 E143.77278
G1 X34.491 Y39.853 E143.86620
G1 X41.331 Y46.693 E144.74737
G1 X40.334 Y46.582 E144.83871
G1 X34.623 Y40.870 E145.57457
G1 X34.754 Y41.887 E145.66799
G1 X39.338 Y46.471 E146.25852
G1 X38.341 Y46.360 E146.34986
G1 X34.886 Y42.904 E146.79506
G1 X35.017 Y43.921 E146.88848
G1 X37.345 Y46.249 E147.18836
G1 X36.348 Y46.138 E147.27970
G1 X35.149 Y44.938 E147.43427
G1 X35.280 Y45.955 E147.52768
G1 X35.352 Y46.027 E147.53692
G1 X33.773 Y38.250 F7800.000
G1 X30.704 Y35.181 E147.93232 F1080.000
G1 X30.905 Y36.267 E148.03291
G1 X32.777 Y38.139 E148.27412
G1 X31.780 Y38.028 E148.36546
G1 X31.382 Y37.630 E148.41672
G1 X73.682 Y50.710 F7800.000
G1 X39.076 Y16.104 E152.87541 F1080.000
G1 X39.392 Y15.535 E152.93473
G1 X74.855 Y50.998 E157.50387
G1 X76.029 Y51.286 E157.61395
G1 X39.708 Y14.966 E162.29353
G1 X40.024 Y14.396 E162.35285
G1 X77.202 Y51.574 E167.14288
G1 X78.376 Y51.862 E167.25296
G1 X40.682 Y14.169 E172.10942
G1 X41.678 Y14.280 E172.20076
G1 X79.549 Y52.150 E177.08004
G1 X80.722 Y52.438 E177.19012
G1 X42.675 Y14.391 E182.09220
G1 X43.671 Y14.502 E182.18354
G1 X81.896 Y52.726 E187.10843
G1 X83.069 Y53.014 E187.21851
G1 X44.668 Y14.613 E192.16621
G1 X45.664 Y14.724 E192.25755
G1 X84.243 Y53.302 E197.22806
G1 X85.416 Y53.590 E197.33814
G1 X46.661 Y14.835 E202.33146
G1 X47.657 Y14.946 E202.42280
G1 X86.590 Y53.878 E207.43893
G1 X87.763 Y54.166 E207.54901
G1 X48.653 Y15.057 E212.58794
G1 X49.650 Y15.168 E212.67928
G1 X88.937 Y54.454 E217.74103
G1 X90.110 Y54.743 E217.85111
G1 X50.646 Y15.279 E222.93567
G1 X51.643 Y15.390 E223.02701
G1 X91.284 Y55.031 E228.13437
G1 X92.457 Y55.319 E228.24445
G1 X52.639 Y15.501 E233.37463
G1 X53.635 Y15.612 E233.46597
G1 X81.116 Y43.092 E237.00660
G1 X81.432 Y42.523 E237.06592
G1 X54.632 Y15.723 E240.51892
G1 X55.628 Y15.834 E240.61025
G1 X81.749 Y41.954 E243.97561
G1 X82.065 Y41.385 E244.03493
G1 X56.625 Y15.945 E247.31266
G1 X57.621 Y16.056 E247.40400
G1 X82.381 Y40.815 E250.59408
G1 X82.697 Y40.246 E250.65340
G1 X58.618 Y16.167 E253.75585
G1 X59.614 Y16.278 E253.84719
G1 X83.013 Y39.677 E256.86200
G1 X83.330 Y39.108 E256.92132
G1 X60.551 Y16.329 E259.85611
G1 X61.107 Y16.000 E259.91498
G1 X83.646 Y38.539 E262.81892
G1 X83.962 Y37.969 E262.87824
G1 X61.957 Y15.965 E265.71336
G1 X62.808 Y15.930 E265.79090
G1 X84.278 Y37.400 E268.55721
G1 X84.595 Y36.831 E268.61653
G1 X63.658 Y15.894 E271.31403
G1 X64.508 Y15.859 E271.39156
G1 X84.911 Y36.262 E274.02025
G1 X85.227 Y35.693 E274.07957
G1 X65.359 Y15.824 E276.63945
G1 X66.209 Y15.789 E276.71698
G1 X85.543 Y35.123 E279.20804
G1 X85.859 Y34.554 E279.26737
G1 X67.059 Y15.754 E281.68962
G1 X67.909 Y15.719 E281.76715
G1 X86.073 Y33.883 E284.10740
G1 X85.644 Y32.568 E284.23341
G1 X68.760 Y15.684 E286.40879
G1 X69.610 Y15.649 E286.48632
G1 X85.215 Y31.253 E288.49681
G1 X84.785 Y29.938 E288.62282
G1 X70.460 Y15.613 E290.46844
G1 X71.311 Y15.578 E290.54597
G1 X84.356 Y28.623 E292.22671
G1 X83.926 Y27.309 E292.35272
G1 X72.161 Y15.543 E293.86858
G1 X73.011 Y15.508 E293.94611
G1 X83.497 Y25.994 E295.29709
G1 X83.068 Y24.679 E295.42310
G1 X73.862 Y15.473 E296.60921
G1 X74.712 Y15.438 E296.68674
G1 X82.638 Y23.364 E297.70796
G1 X82.209 Y22.049 E297.83397
G1 X75.562 Y15.403 E298.69032
G1 X76.413 Y15.368 E298.76785
G1 X81.779 Y20.735 E299.45932
G1 X81.350 Y19.420 E299.58533
G1 X77.263 Y15.333 E300.11192
G1 X78.113 Y15.297 E300.18945
G1 X80.921 Y18.105 E300.55116
G1 X80.491 Y16.790 E300.67717
G1 X78.963 Y15.262 E300.87400
G1 X79.814 Y15.227 E300.95153
G1 X80.062 Y15.475 E300.98349
G1 X81.910 Y43.886 F7800.000
G1 X93.630 Y55.607 E302.49353 F1080.000
G1 X94.804 Y55.895 E302.60361
G1 X83.407 Y44.497 E304.07205
G1 X84.903 Y45.108 F7800.000
G1 X95.977 Y56.183 E305.49888 F1080.000
G1 X97.151 Y56.471 E305.60896
G1 X86.399 Y45.719 E306.99420
G1 X87.896 Y46.330 F7800.000
G1 X98.324 Y56.759 E308.33783 F1080.000
G1 X99.498 Y57.047 E308.44791
G1 X89.392 Y46.941 E309.74994
G1 X90.888 Y47.552 F7800.000
G1 X100.671 Y57.335 E311.01036 F1080.000
G1 X101.845 Y57.623 E311.12044
G1 X92.385 Y48.163 E312.33926
G1 X93.881 Y48.774 F7800.000
G1 X103.018 Y57.911 E313.51649 F1080.000
G1 X104.192 Y58.199 E313.62657
G1 X95.377 Y49.385 E314.76218
G1 X96.874 Y49.996 F7800.000
G1 X105.365 Y58.487 E315.85620 F1080.000
G1 X106.538 Y58.775 E315.96628
G1 X98.370 Y50.607 E317.01869
G1 X99.866 Y51.218 F7800.000
G1 X107.712 Y59.063 E318.02950 F1080.000
G1 X108.885 Y59.351 E318.13958
G1 X101.363 Y51.828 E319.10879
G1 X102.859 Y52.439 F7800.000
G1 X110.059 Y59.639 E320.03640 F1080.000
G1 X111.232 Y59.927 E320.14648
