; generated by Slic3r 1.0.0RC2 on 2014-02-05 at 18:08:46

; layer_height = 0.25
; perimeters = 1
; top_solid_layers = 2
; bottom_solid_layers = 2
; fill_density = 0.135
; perimeter_speed = 30
; infill_speed = 60
; travel_speed = 130
; nozzle_diameter = 0.35
; filament_diameter = 1.75
; extrusion_multiplier = 1
; perimeters extrusion width = 0.35mm
; infill extrusion width = 0.39mm
; solid infill extrusion width = 0.39mm
; top infill extrusion width = 0.39mm
; first layer extrusion width = 0.70mm

G21 ; set units to millimeters
M107
M104 S220 ; set temperature
G28 ; home all axes
G1 Z5 F5000 ; lift nozzle

M109 S220 ; wait for temperature to be reached
G90 ; use absolute coordinates
G92 E0
M82 ; use absolute distances for extrusion
G1 F1800.000 E-1.00000
G92 E0
G1 Z0.350 F7800.000
G1 X78.507 Y129.568 F7800.000
G1 E1.00000 F1800.000
G1 X79.797 Y128.848 E1.13433 F540.000
G1 X81.197 Y128.408 E1.26777
G1 X82.668 Y128.258 E1.40213
G1 X123.977 Y128.268 E5.15844
G1 X151.647 Y129.628 E7.67749
G1 X153.017 Y129.828 E7.80339
G1 X154.327 Y130.288 E7.92964
G1 X155.527 Y130.988 E8.05596
G1 X156.567 Y131.898 E8.18162
G1 X157.417 Y132.998 E8.30802
G1 X158.037 Y134.228 E8.43327
G1 X174.087 Y175.328 E12.44533
G1 X174.368 Y176.188 E12.52757
G1 X174.537 Y176.858 E12.59042
G1 X174.718 Y177.878 E12.68460
G1 X174.798 Y178.638 E12.75409
G1 X174.827 Y179.668 E12.84779
G1 X174.798 Y180.468 E12.92058
G1 X174.718 Y181.338 E13.00003
G1 X174.587 Y182.158 E13.07552
G1 X174.417 Y182.948 E13.14900
G1 X174.238 Y183.598 E13.21033
G1 X173.907 Y184.588 E13.30522
G1 X173.597 Y185.338 E13.37901
G1 X173.157 Y186.228 E13.46929
G1 X172.777 Y186.878 E13.53775
G1 X172.188 Y187.738 E13.63258
G1 X171.757 Y188.278 E13.69535
G1 X171.267 Y188.828 E13.76233
G1 X170.727 Y189.328 E13.82925
G1 X170.248 Y189.728 E13.88606
G1 X169.597 Y190.208 E13.95954
G1 X168.897 Y190.618 E14.03330
G1 X168.407 Y190.868 E14.08332
G1 X167.317 Y191.318 E14.19055
G1 X166.167 Y191.578 E14.29776
G1 X165.688 Y191.648 E14.34187
G1 X164.577 Y191.728 E14.44306
G1 X163.468 Y191.628 E14.54440
G1 X76.138 Y177.318 E22.59118
G1 X74.748 Y176.948 E22.72198
G1 X73.448 Y176.308 E22.85373
G1 X72.317 Y175.428 E22.98397
G1 X71.377 Y174.328 E23.11553
G1 X70.668 Y173.078 E23.24625
G1 X66.617 Y163.828 E24.16444
G1 X66.388 Y163.248 E24.22117
G1 X65.968 Y162.008 E24.34022
G1 X65.698 Y160.958 E24.43880
G1 X65.418 Y159.398 E24.58292
G1 X65.328 Y158.718 E24.64529
G1 X65.177 Y156.908 E24.81043
G1 X65.157 Y156.308 E24.86502
G1 X65.157 Y154.318 E25.04597
G1 X65.317 Y151.758 E25.27921
G1 X65.367 Y151.268 E25.32399
G1 X65.727 Y148.708 E25.55906
G1 X66.138 Y146.738 E25.74203
G1 X66.287 Y146.158 E25.79651
G1 X66.817 Y144.368 E25.96626
G1 X67.017 Y143.778 E26.02290
G1 X67.617 Y142.248 E26.17234
G1 X68.037 Y141.368 E26.26100
G1 X68.707 Y140.168 E26.38598
G1 X69.078 Y139.578 E26.44930
G1 X69.498 Y139.028 E26.51223
G1 X70.457 Y137.898 E26.64705
G1 X77.388 Y130.538 E27.56627
G1 X78.437 Y129.629 E27.69247
G1 X78.867 Y130.088 F7800.000
G1 X80.037 Y129.428 E27.81462 F540.000
G1 X81.328 Y129.018 E27.93770
G1 X82.668 Y128.888 E28.06012
G1 X124.308 Y128.898 E31.84643
G1 X151.618 Y130.248 E34.33275
G1 X152.868 Y130.438 E34.44771
G1 X154.067 Y130.848 E34.56302
G1 X155.157 Y131.488 E34.67796
G1 X156.108 Y132.328 E34.79327
G1 X156.887 Y133.328 E34.90858
G1 X157.457 Y134.458 E35.02367
G1 X173.507 Y175.558 E39.03573
G1 X173.757 Y176.338 E39.11020
G1 X173.928 Y177.008 E39.17306
G1 X174.097 Y177.948 E39.25992
G1 X174.178 Y178.708 E39.32941
G1 X174.207 Y179.648 E39.41492
G1 X174.178 Y180.448 E39.48772
G1 X174.097 Y181.238 E39.55992
G1 X173.968 Y182.058 E39.63541
G1 X173.808 Y182.788 E39.70337
G1 X173.607 Y183.528 E39.77307
G1 X173.327 Y184.348 E39.85186
G1 X173.017 Y185.098 E39.92565
G1 X172.618 Y185.908 E40.00780
G1 X172.238 Y186.558 E40.07626
G1 X171.697 Y187.348 E40.16327
G1 X171.267 Y187.888 E40.22604
G1 X170.827 Y188.388 E40.28660
G1 X170.327 Y188.848 E40.34838
G1 X169.847 Y189.248 E40.40520
G1 X169.257 Y189.688 E40.47212
G1 X168.618 Y190.058 E40.53934
G1 X168.127 Y190.308 E40.58936
G1 X167.127 Y190.718 E40.68764
G1 X166.077 Y190.968 E40.78578
G1 X165.597 Y191.038 E40.82989
G1 X164.577 Y191.098 E40.92280
G1 X163.567 Y191.018 E41.01492
G1 X76.237 Y176.708 E49.06171
G1 X74.968 Y176.368 E49.18125
G1 X73.787 Y175.778 E49.30122
G1 X72.748 Y174.968 E49.42108
G1 X71.888 Y173.978 E49.54032
G1 X71.237 Y172.828 E49.66044
G1 X67.188 Y163.578 E50.57863
G1 X66.987 Y163.048 E50.63014
G1 X66.567 Y161.808 E50.74918
G1 X66.317 Y160.848 E50.83938
G1 X66.037 Y159.288 E50.98350
G1 X65.957 Y158.668 E51.04034
G1 X65.808 Y156.858 E51.20549
G1 X65.787 Y156.308 E51.25554
G1 X65.797 Y153.868 E51.47741
G1 X65.938 Y151.798 E51.66606
G1 X66.338 Y148.838 E51.93766
G1 X66.748 Y146.868 E52.12063
G1 X66.888 Y146.338 E52.17047
G1 X67.418 Y144.548 E52.34022
G1 X67.597 Y144.008 E52.39198
G1 X68.198 Y142.478 E52.54142
G1 X68.588 Y141.668 E52.62316
G1 X69.257 Y140.468 E52.74813
G1 X69.588 Y139.928 E52.80568
G1 X69.977 Y139.428 E52.86334
G1 X70.918 Y138.328 E52.99491
G1 X77.847 Y130.968 E53.91413
G1 X78.797 Y130.149 E54.02810
G1 F1800.000 E53.02810
G92 E0
G1 X124.691 Y138.828 F7800.000
G1 E1.00000 F1800.000
G1 X125.910 Y138.828 E1.11084 F540.000
G1 X125.910 Y140.474 E1.26055
G1 X125.262 Y140.577 E1.32018
G1 X124.720 Y138.917 E1.47901
G1 F1800.000 E0.47901
G92 E0
G1 X144.110 Y140.555 F7800.000
G1 E1.00000 F1800.000
G1 X144.147 Y140.250 E1.02799 F540.000
G1 X144.245 Y139.760 E1.07336
G1 X144.308 Y139.558 E1.09267
G1 X144.468 Y139.222 E1.12645
G1 X144.679 Y138.953 E1.15761
G1 X144.814 Y138.846 E1.17322
G1 X144.964 Y138.767 E1.18867
G1 X145.128 Y138.719 E1.20416
G1 X145.295 Y138.702 E1.21944
G1 X145.454 Y138.715 E1.23393
G1 X145.607 Y138.753 E1.24833
G1 X145.752 Y138.819 E1.26282
G1 X145.881 Y138.907 E1.27698
G1 X145.994 Y139.016 E1.29130
G1 X146.173 Y139.277 E1.32008
G1 X146.300 Y139.577 E1.34967
G1 X146.402 Y139.922 E1.38232
G1 X146.515 Y140.426 E1.42934
G1 X147.717 Y139.629 E1.56047
G1 X147.717 Y146.490 E2.18432
G1 X146.340 Y146.490 E2.30954
G1 X146.748 Y145.515 E2.40562
G1 X146.895 Y145.019 E2.45268
G1 X147.074 Y144.272 E2.52255
G1 X146.459 Y143.970 E2.58485
G1 X146.252 Y144.520 E2.63832
G1 X146.055 Y144.845 E2.67282
G1 X145.937 Y144.976 E2.68885
G1 X145.791 Y145.093 E2.70587
G1 X145.533 Y145.204 E2.73138
G1 X145.341 Y145.227 E2.74895
G1 X145.147 Y145.204 E2.76670
G1 X144.962 Y145.136 E2.78466
G1 X144.796 Y145.030 E2.80263
G1 X144.651 Y144.890 E2.82090
G1 X144.531 Y144.726 E2.83935
G1 X144.429 Y144.543 E2.85846
G1 X144.263 Y144.113 E2.90037
G1 X144.167 Y143.708 E2.93818
G1 X144.101 Y143.225 E2.98252
G1 X144.057 Y142.724 E3.02821
G1 X144.051 Y142.005 E3.09364
G1 X144.066 Y141.209 E3.16605
G1 X144.102 Y140.649 E3.21708
G1 F1800.000 E2.21708
G92 E0
G1 X131.097 Y139.031 F7800.000
G1 E1.00000 F1800.000
G1 X131.097 Y146.222 E1.65393 F540.000
G1 X130.199 Y146.358 E1.73645
G1 X129.658 Y146.503 E1.78738
G1 X129.145 Y146.704 E1.83749
G1 X128.303 Y147.152 E1.92427
G1 X128.303 Y139.031 E2.66276
G1 X131.003 Y139.031 E2.90829
G1 F1800.000 E1.90829
G92 E0
G1 X141.063 Y142.044 F7800.000
G1 E1.00000 F1800.000
G1 X141.320 Y141.222 E1.07825 F540.000
G1 X141.974 Y141.322 E1.13835
G1 X141.974 Y146.705 E1.62779
G1 X142.628 Y146.705 E1.68726
G1 X142.628 Y143.495 E1.97913
G1 X143.363 Y143.447 E2.04615
G1 X143.449 Y144.099 E2.10597
G1 X143.592 Y144.831 E2.17377
G1 X143.781 Y145.453 E2.23289
G1 X144.040 Y146.015 E2.28912
G1 X144.196 Y146.257 E2.31536
G1 X144.360 Y146.455 E2.33879
G1 X144.531 Y146.612 E2.35983
G1 X144.708 Y146.728 E2.37912
G1 X144.895 Y146.810 E2.39767
G1 X145.391 Y146.934 E2.44416
G1 X141.889 Y153.577 E3.12700
G1 X139.323 Y150.667 E3.47982
G1 X139.323 Y146.705 E3.84007
G1 X139.613 Y146.705 E3.86647
G1 X141.036 Y142.133 E4.30183
G1 F1800.000 E3.30183
G92 E0
G1 X109.163 Y156.892 F7800.000
G1 E1.00000 F1800.000
G1 X107.451 Y159.248 E1.26482 F540.000
G1 X104.681 Y158.348 E1.52965
G1 X104.681 Y155.435 E1.79447
G1 X107.451 Y154.535 E2.05929
G1 X109.108 Y156.816 E2.31559
G1 X108.391 Y156.892 F7800.000
G1 X107.213 Y158.513 E2.49785 F540.000
G1 X105.306 Y157.894 E2.68011
G1 X105.306 Y155.889 E2.86237
G1 X107.213 Y155.270 E3.04462
G1 X108.336 Y156.816 E3.21836
G1 X107.618 Y156.892 F7800.000
G1 X106.974 Y157.779 E3.31805 F540.000
G1 X105.931 Y157.440 E3.41774
G1 X105.931 Y156.343 E3.51744
G1 X106.974 Y156.005 E3.61713
G1 X107.563 Y156.816 E3.70830
G1 F1800.000 E2.70830
G92 E0
G1 X102.169 Y169.584 F7800.000
G1 E1.00000 F1800.000
G1 X95.604 Y169.855 E1.59742 F540.000
G1 X95.569 Y168.657 E1.70641
G1 X92.534 Y168.511 E1.98270
G1 X92.399 Y169.581 E2.08073
G1 X89.344 Y169.903 E2.36001
G1 X78.733 Y168.721 E3.33083
G1 X77.736 Y161.009 E4.03792
G1 X74.997 Y160.704 E4.28851
G1 X74.722 Y160.248 E4.33692
G1 X74.399 Y159.282 E4.42957
G1 X74.146 Y157.911 E4.55633
G1 X74.009 Y156.243 E4.70846
G1 X74.007 Y154.378 E4.87807
G1 X74.144 Y152.418 E5.05672
G1 X74.413 Y150.461 E5.23633
G1 X74.801 Y148.607 E5.40863
G1 X75.283 Y146.951 E5.56548
G1 X75.825 Y145.588 E5.69883
G1 X76.367 Y144.613 E5.80022
G1 X76.820 Y144.079 E5.86387
G1 X79.580 Y144.374 E6.11633
G1 X83.557 Y137.216 E6.86089
G1 X96.365 Y138.642 E8.03276
G1 X96.578 Y138.260 E8.07250
G1 X122.837 Y137.176 E10.46224
G1 X124.405 Y141.979 E10.92168
G1 X125.399 Y141.821 E11.01319
G1 X125.399 Y145.022 E11.30426
G1 X126.061 Y147.050 E11.49822
G1 X127.053 Y146.892 E11.58954
G1 X127.053 Y149.232 E11.80236
G1 X127.210 Y149.149 E11.81856
G1 X127.337 Y149.271 E11.83459
G1 X127.006 Y149.941 E11.90254
G1 X128.915 Y155.788 E12.46183
G1 X123.889 Y164.835 E13.40283
G1 X122.689 Y165.227 E13.51767
G1 X122.724 Y167.613 E13.73470
G1 X164.622 Y179.952 E17.70624
G1 X165.300 Y178.782 E17.82923
G1 X165.753 Y178.220 E17.89481
G1 X165.936 Y178.928 E17.96127
G1 X165.988 Y179.455 E18.00940
G1 X165.968 Y180.056 E18.06414
G1 X165.870 Y180.688 E18.12223
G1 X165.699 Y181.303 E18.18029
G1 X165.469 Y181.859 E18.23506
G1 X165.203 Y182.317 E18.28317
G1 X164.744 Y182.886 E18.34964
G1 X164.564 Y182.188 E18.41516
G1 X164.429 Y180.843 E18.53815
G1 X106.274 Y172.679 E23.87804
G1 X105.190 Y172.444 E23.97888
G1 X104.278 Y172.035 E24.06976
G1 X103.472 Y171.444 E24.16068
G1 X102.805 Y170.697 E24.25164
G1 X102.215 Y169.665 E24.35974
G1 X101.815 Y170.224 F7800.000
G1 X94.998 Y170.506 E24.98009 F540.000
G1 X94.961 Y169.253 E25.09400
G1 X93.081 Y169.163 E25.26513
G1 X92.957 Y170.151 E25.35563
G1 X89.541 Y170.511 E25.66791
G1 X89.519 Y170.551 E25.67213
G1 X78.176 Y169.288 E26.70986
G1 X77.179 Y161.576 E27.41695
G1 X74.766 Y161.307 E27.63773
G1 X74.521 Y161.124 E27.66557
G1 X74.151 Y160.512 E27.73055
G1 X73.792 Y159.438 E27.83350
G1 X73.525 Y157.993 E27.96711
G1 X73.384 Y156.269 E28.12440
G1 X73.382 Y154.357 E28.29831
G1 X73.522 Y152.354 E28.48088
G1 X73.797 Y150.355 E28.66437
G1 X74.194 Y148.455 E28.84084
G1 X74.692 Y146.747 E29.00259
G1 X75.259 Y145.320 E29.14229
G1 X75.850 Y144.256 E29.25295
G1 X76.380 Y143.632 E29.32734
G1 X76.692 Y143.450 E29.36020
G1 X77.042 Y143.462 E29.39206
G1 X79.236 Y143.706 E29.59283
G1 X83.213 Y136.548 E30.33739
G1 X96.021 Y137.975 E31.50925
G1 X96.202 Y137.650 E31.54304
G1 X123.284 Y136.532 E34.00769
G1 X124.834 Y141.278 E34.46168
G1 X126.024 Y141.089 E34.57127
G1 X126.024 Y144.922 E34.91987
G1 X126.490 Y146.349 E35.05631
G1 X127.678 Y146.160 E35.16571
G1 X127.678 Y148.192 E35.35053
G1 X129.545 Y147.199 E35.54287
G1 X129.806 Y147.605 E35.58674
G1 X128.870 Y148.319 E35.69377
G1 X128.545 Y148.630 E35.73465
G1 X128.243 Y148.987 E35.77719
G1 X127.969 Y149.403 E35.82252
G1 X127.679 Y149.990 E35.88199
G1 X129.594 Y155.853 E36.44288
G1 X124.316 Y165.352 E37.43098
G1 X123.320 Y165.678 E37.52626
G1 X123.342 Y167.144 E37.65958
G1 X164.327 Y179.214 E41.54463
G1 X164.783 Y178.426 E41.62736
G1 X165.115 Y178.016 E41.67536
G1 X165.427 Y177.752 E41.71253
G1 X165.670 Y177.633 E41.73709
G1 X165.885 Y177.601 E41.75691
G1 X166.071 Y177.723 E41.77710
G1 X166.246 Y177.938 E41.80231
G1 X166.421 Y178.308 E41.83953
G1 X166.553 Y178.818 E41.88744
G1 X166.614 Y179.434 E41.94372
G1 X166.592 Y180.115 E42.00567
G1 X166.482 Y180.820 E42.07053
G1 X166.291 Y181.507 E42.13538
G1 X166.030 Y182.137 E42.19735
G1 X165.720 Y182.672 E42.25362
G1 X165.389 Y183.082 E42.30153
G1 X165.076 Y183.347 E42.33881
G1 X164.827 Y183.471 E42.36413
G1 X164.609 Y183.505 E42.38417
G1 X164.426 Y183.387 E42.40398
G1 X164.254 Y183.179 E42.42853
G1 X164.079 Y182.810 E42.46571
G1 X163.947 Y182.298 E42.51371
G1 X163.856 Y181.393 E42.59644
G1 X106.164 Y173.294 E47.89379
G1 X104.993 Y173.041 E48.00270
G1 X103.962 Y172.577 E48.10554
G1 X103.049 Y171.909 E48.20841
G1 X102.296 Y171.065 E48.31133
G1 X101.861 Y170.305 E48.39084
G1 X131.661 Y147.321 F7800.000
G1 X131.833 Y146.779 E48.44252 F540.000
G1 X132.988 Y147.106 E48.55166
G1 X133.327 Y147.236 E48.58468
G1 X133.644 Y147.392 E48.61679
G1 X133.939 Y147.576 E48.64845
G1 X134.218 Y147.788 E48.68032
G1 X134.479 Y148.032 E48.71278
G1 X134.726 Y148.312 E48.74673
G1 X134.957 Y148.627 E48.78229
G1 X135.172 Y148.982 E48.81998
G1 X135.373 Y149.379 E48.86042
G1 X135.620 Y149.971 E48.91883
G1 X134.918 Y150.218 E48.98653
G1 X134.696 Y149.692 E49.03845
G1 X134.518 Y149.343 E49.07406
G1 X134.317 Y149.021 E49.10859
G1 X134.094 Y148.722 E49.14254
G1 X133.844 Y148.451 E49.17600
G1 X133.582 Y148.216 E49.20801
G1 X133.305 Y148.010 E49.23943
G1 X133.009 Y147.832 E49.27081
G1 X132.697 Y147.685 E49.30218
G1 X131.750 Y147.352 E49.39349
G1 F1800.000 E48.39349
G92 E0
G1 X138.004 Y147.115 F7800.000
G1 E1.00000 F1800.000
G1 X138.698 Y147.115 E1.06313 F540.000
G1 X138.698 Y159.711 E2.20849
G1 X138.004 Y159.711 E2.27162
G1 X138.004 Y147.208 E3.40847
G1 F1800.000 E2.40847
G92 E0
G1 X142.599 Y142.871 F7800.000
G1 E1.00000 F1800.000
G1 X142.599 Y141.109 E1.16017 F540.000
G1 X143.442 Y141.163 E1.23705
G1 X143.433 Y142.816 E1.38731
G1 X142.692 Y142.864 E1.45483
G1 X146.002 Y147.115 F7800.000
G1 X147.134 Y147.115 E1.55774 F540.000
G1 X142.382 Y155.233 E2.41307
G1 X141.872 Y154.949 E2.46619
G1 X145.959 Y147.197 E3.26298
G1 X142.901 Y155.659 F7800.000
G1 X146.426 Y159.711 E3.75136 F540.000
G1 X145.471 Y159.711 E3.83819
G1 X142.443 Y156.047 E4.27037
G1 X142.829 Y155.719 E4.31647
G1 F1800.000 E3.31647
G92 E0
G1 X135.542 Y157.358 F7800.000
G1 E1.00000 F1800.000
G1 X135.203 Y158.047 E1.06976 F540.000
G1 X134.895 Y158.495 E1.11922
G1 X134.732 Y158.679 E1.14157
G1 X134.413 Y158.984 E1.18169
G1 X134.078 Y159.240 E1.22004
G1 X133.723 Y159.456 E1.25786
G1 X133.344 Y159.634 E1.29591
G1 X132.939 Y159.773 E1.33487
G1 X131.868 Y160.022 E1.43487
G1 X131.722 Y159.484 E1.48558
G1 X132.711 Y159.176 E1.57977
G1 X133.015 Y159.046 E1.60984
G1 X133.304 Y158.890 E1.63967
G1 X133.580 Y158.705 E1.66989
G1 X133.833 Y158.498 E1.69968
G1 X134.071 Y158.269 E1.72974
G1 X134.289 Y158.017 E1.75996
G1 X134.485 Y157.747 E1.79032
G1 X134.805 Y157.162 E1.85096
G1 X135.451 Y157.334 E1.91172
G1 X135.690 Y156.751 F7800.000
G1 X136.348 Y156.924 E1.97359 F378.000
G1 X136.056 Y157.735 E2.05191
G1 X135.742 Y158.364 E2.11588
G1 X135.381 Y158.889 E2.17383
G1 X135.183 Y159.113 E2.20097
G1 X134.820 Y159.459 E2.24663
G1 X134.432 Y159.756 E2.29107
G1 X134.019 Y160.008 E2.33502
G1 X133.579 Y160.214 E2.37919
G1 X133.112 Y160.375 E2.42412
G1 X132.616 Y160.490 E2.47041
G1 X132.090 Y160.560 E2.51862
G1 X131.536 Y160.582 E2.56911
G1 X130.896 Y160.553 E2.62730
G1 X130.295 Y160.464 E2.68260
G1 X129.728 Y160.316 E2.73584
G1 X129.195 Y160.110 E2.78784
G1 X128.693 Y159.846 E2.83941
G1 X128.256 Y159.547 E2.88752
G1 X124.743 Y165.870 E3.54523
G1 X123.952 Y166.129 E3.62096
G1 X123.960 Y166.674 E3.67057
G1 X164.033 Y178.475 E7.46911
G1 X164.267 Y178.071 E7.51159
G1 X164.666 Y177.577 E7.56938
G1 X165.082 Y177.225 E7.61887
G1 X165.483 Y177.028 E7.65951
G1 X165.850 Y176.975 E7.69322
G1 X166.182 Y177.049 E7.72417
G1 X166.495 Y177.253 E7.75813
G1 X166.779 Y177.602 E7.79903
G1 X167.011 Y178.094 E7.84853
G1 X167.170 Y178.708 E7.90620
G1 X167.240 Y179.413 E7.97063
G1 X167.215 Y180.174 E8.03979
G1 X167.094 Y180.952 E8.11143
G1 X166.883 Y181.711 E8.18306
G1 X166.592 Y182.414 E8.25224
G1 X166.236 Y183.027 E8.31665
G1 X165.838 Y183.521 E8.37433
G1 X165.423 Y183.873 E8.42387
