; generated by Slic3r 1.0.0RC2 on 2014-02-03 at 14:25:12

; layer_height = 0.25
; perimeters = 1
; top_solid_layers = 3
; bottom_solid_layers = 3
; fill_density = 0.14
; perimeter_speed = 30
; infill_speed = 60
; travel_speed = 130
; nozzle_diameter = 0.35
; filament_diameter = 1.75
; extrusion_multiplier = 1
; perimeters extrusion width = 0.35mm
; infill extrusion width = 0.39mm
; solid infill extrusion width = 0.39mm
; top infill extrusion width = 0.39mm
; first layer extrusion width = 0.70mm

G21 ; set units to millimeters
M107
M104 S220 ; set temperature
G28 ; home all axes
G1 Z5 F5000 ; lift nozzle

M109 S220 ; wait for temperature to be reached
G90 ; use absolute coordinates
G92 E0
M82 ; use absolute distances for extrusion
G1 F1800.000 E-1.00000
G92 E0
G1 Z0.350 F7800.000
G1 X37.960 Y24.312 F7800.000
G1 E1.00000 F1800.000
G1 X38.280 Y23.832 E1.05246 F540.000
G1 X46.620 Y12.362 E2.34198
G1 X47.640 Y11.222 E2.48107
G1 X48.880 Y10.332 E2.61986
G1 X50.270 Y9.712 E2.75826
G1 X51.770 Y9.412 E2.89735
G1 X53.300 Y9.422 E3.03648
G1 X100.120 Y14.732 E7.32110
G1 X100.740 Y14.832 E7.37820
G1 X101.360 Y14.982 E7.43620
G1 X120.700 Y20.702 E9.27008
G1 X121.930 Y21.192 E9.39048
G1 X123.050 Y21.902 E9.51106
G1 X124.030 Y22.802 E9.63204
G1 X124.820 Y23.862 E9.75225
G1 X125.410 Y25.052 E9.87303
G1 X125.770 Y26.332 E9.99393
G1 X125.890 Y27.652 E10.11446
G1 X125.890 Y31.002 E10.41907
G1 X125.820 Y42.252 E11.44205
G1 X125.700 Y43.492 E11.55533
G1 X121.930 Y64.292 E13.47748
G1 X121.540 Y65.662 E13.60700
G1 X120.900 Y66.932 E13.73632
G1 X120.010 Y68.042 E13.86569
G1 X118.930 Y68.962 E13.99469
G1 X117.690 Y69.652 E14.12372
G1 X116.330 Y70.092 E14.25370
G1 X114.920 Y70.252 E14.38273
G1 X92.440 Y70.622 E16.42711
G1 X57.520 Y70.252 E19.60255
G1 X56.150 Y70.102 E19.72786
G1 X54.830 Y69.702 E19.85328
G1 X42.860 Y64.752 E21.03110
G1 X41.690 Y64.142 E21.15108
G1 X40.650 Y63.322 E21.27151
G1 X39.780 Y62.332 E21.39135
G1 X39.100 Y61.202 E21.51127
G1 X38.640 Y59.972 E21.63068
G1 X34.800 Y45.952 E22.95246
G1 X34.670 Y45.372 E23.00651
G1 X34.370 Y43.782 E23.15364
G1 X34.260 Y42.992 E23.22617
G1 X34.120 Y41.152 E23.39396
G1 X34.100 Y40.602 E23.44401
G1 X34.100 Y38.612 E23.62496
G1 X34.120 Y38.052 E23.67591
G1 X34.280 Y35.972 E23.86560
G1 X34.640 Y33.432 E24.09887
G1 X34.740 Y32.872 E24.15060
G1 X35.180 Y30.922 E24.33237
G1 X35.330 Y30.372 E24.38420
G1 X35.880 Y28.602 E24.55274
G1 X36.120 Y27.942 E24.61660
G1 X36.750 Y26.442 E24.76454
G1 X37.250 Y25.472 E24.86377
G1 X37.911 Y24.392 E24.97891
G1 X38.490 Y24.632 F7800.000
G1 X38.780 Y24.192 E25.02683 F540.000
G1 X47.120 Y12.722 E26.31635
G1 X48.060 Y11.692 E26.44315
G1 X49.190 Y10.872 E26.57010
G1 X50.460 Y10.312 E26.69631
G1 X51.830 Y10.032 E26.82346
G1 X53.230 Y10.042 E26.95076
G1 X100.050 Y15.352 E31.23538
G1 X100.620 Y15.442 E31.28785
G1 X101.180 Y15.582 E31.34034
G1 X120.520 Y21.302 E33.17422
G1 X121.820 Y21.842 E33.30222
G1 X122.980 Y22.652 E33.43087
G1 X123.950 Y23.692 E33.56018
G1 X124.670 Y24.902 E33.68821
G1 X125.110 Y26.242 E33.81646
G1 X125.260 Y27.652 E33.94539
G1 X125.260 Y30.992 E34.24910
G1 X125.190 Y42.242 E35.27208
G1 X125.090 Y43.382 E35.37613
G1 X121.320 Y64.182 E37.29828
G1 X120.960 Y65.432 E37.41657
G1 X120.370 Y66.592 E37.53490
G1 X119.560 Y67.612 E37.65334
G1 X118.570 Y68.452 E37.77140
G1 X117.440 Y69.082 E37.88904
G1 X116.200 Y69.482 E38.00751
G1 X114.910 Y69.622 E38.12550
G1 X92.430 Y69.992 E40.16987
G1 X57.530 Y69.622 E43.34349
G1 X56.270 Y69.492 E43.45867
G1 X55.070 Y69.122 E43.57286
G1 X43.100 Y64.172 E44.75068
G1 X41.780 Y63.442 E44.88784
G1 X40.660 Y62.432 E45.02497
G1 X39.800 Y61.202 E45.16145
G1 X39.240 Y59.802 E45.29855
G1 X35.400 Y45.782 E46.62034
G1 X35.280 Y45.262 E46.66886
G1 X34.980 Y43.672 E46.81599
G1 X34.880 Y42.942 E46.88299
G1 X34.740 Y41.102 E47.05079
G1 X34.740 Y38.102 E47.32358
G1 X34.900 Y36.022 E47.51327
G1 X35.250 Y33.522 E47.74281
G1 X35.350 Y33.012 E47.79007
G1 X35.920 Y30.552 E48.01968
G1 X36.470 Y28.782 E48.18821
G1 X36.690 Y28.182 E48.24632
G1 X37.320 Y26.682 E48.39426
G1 X37.780 Y25.792 E48.48536
G1 X38.441 Y24.712 E48.60050
G1 F1800.000 E47.60050
G92 E0
G1 X60.439 Y39.912 F7800.000
G1 E1.00000 F1800.000
G1 X63.208 Y39.012 E1.26482 F540.000
G1 X64.920 Y41.368 E1.52965
G1 X63.208 Y43.724 E1.79447
G1 X60.439 Y42.824 E2.05929
G1 X60.439 Y40.006 E2.31559
G1 X61.063 Y40.366 F7800.000
G1 X62.970 Y39.747 E2.49785 F540.000
G1 X64.148 Y41.368 E2.68011
G1 X62.970 Y42.990 E2.86237
G1 X61.063 Y42.370 E3.04462
G1 X61.063 Y40.460 E3.21836
G1 X61.688 Y40.820 F7800.000
G1 X62.731 Y40.481 E3.31805 F540.000
G1 X63.376 Y41.368 E3.41774
G1 X62.731 Y42.255 E3.51743
G1 X61.688 Y41.916 E3.61713
G1 X61.688 Y40.914 E3.70830
G1 F1800.000 E2.70830
G92 E0
G1 X45.603 Y45.352 F7800.000
G1 E1.00000 F1800.000
G1 X44.002 Y45.170 E1.14652 F540.000
G1 X43.681 Y44.635 E1.20327
G1 X43.345 Y43.630 E1.29961
G1 X43.086 Y42.233 E1.42884
G1 X42.950 Y40.548 E1.58254
G1 X42.955 Y38.675 E1.75287
G1 X43.104 Y36.716 E1.93148
G1 X43.390 Y34.770 E2.11031
G1 X43.799 Y32.936 E2.28116
G1 X44.305 Y31.311 E2.43596
G1 X44.869 Y29.988 E2.56673
G1 X45.425 Y29.060 E2.66510
G1 X45.877 Y28.576 E2.72529
G1 X47.111 Y28.695 E2.83808
G1 X53.332 Y18.328 E3.93747
G1 X97.877 Y23.384 E8.01394
G1 X98.946 Y31.659 E8.77266
G1 X100.261 Y31.659 E8.89230
G1 X99.597 Y36.706 E9.35520
G1 X100.383 Y42.787 E9.91271
G1 X103.263 Y42.787 E10.17463
G1 X103.263 Y46.953 E10.55347
G1 X107.467 Y54.051 E11.30357
G1 X111.044 Y42.787 E12.37817
G1 X112.706 Y42.787 E12.52931
G1 X108.103 Y54.934 E13.71047
G1 X111.979 Y61.406 E14.39644
G1 X110.208 Y61.406 E14.55749
G1 X105.728 Y52.980 E15.42526
G1 X103.263 Y53.594 E15.65622
G1 X103.263 Y61.406 E16.36655
G1 X102.283 Y61.406 E16.45570
G1 X102.283 Y48.486 E17.63056
G1 X99.903 Y47.827 E17.85508
G1 X94.489 Y56.849 E18.81187
G1 X96.625 Y57.612 E19.01809
G1 X96.142 Y58.963 E19.14852
G1 X95.653 Y59.929 E19.24694
G1 X95.138 Y60.639 E19.32678
G1 X94.598 Y61.133 E19.39333
G1 X93.984 Y61.476 E19.45726
G1 X93.237 Y61.693 E19.52793
G1 X92.348 Y61.770 E19.60906
G1 X91.182 Y61.632 E19.71584
G1 X90.613 Y61.402 E19.77165
G1 X89.998 Y61.482 E19.82806
G1 X81.589 Y60.527 E20.59758
G1 X81.589 Y61.406 E20.67754
G1 X80.618 Y61.406 E20.76587
G1 X80.618 Y60.417 E20.85586
G1 X72.795 Y59.529 E21.57172
G1 X72.795 Y61.406 E21.74244
G1 X71.824 Y61.406 E21.83077
G1 X71.824 Y59.419 E22.01152
G1 X66.345 Y58.797 E22.51288
G1 X66.345 Y61.406 E22.75016
G1 X59.210 Y61.406 E23.39899
G1 X59.210 Y57.987 E23.70992
G1 X47.056 Y56.607 E24.82210
G1 X45.615 Y45.445 E25.84553
G1 X45.046 Y45.918 F7800.000
G1 X43.780 Y45.774 E25.96134 F540.000
G1 X43.506 Y45.559 E25.99306
G1 X43.110 Y44.898 E26.06311
G1 X42.738 Y43.787 E26.16960
G1 X42.466 Y42.315 E26.30575
G1 X42.325 Y40.572 E26.46472
G1 X42.330 Y38.650 E26.63950
G1 X42.482 Y36.647 E26.82219
G1 X42.776 Y34.657 E27.00510
G1 X43.195 Y32.775 E27.18036
G1 X43.718 Y31.095 E27.34037
G1 X44.311 Y29.703 E27.47794
G1 X44.923 Y28.682 E27.58622
G1 X45.465 Y28.102 E27.65842
G1 X45.787 Y27.940 E27.69123
G1 X46.779 Y28.035 E27.78178
G1 X53.003 Y17.661 E28.88184
G1 X98.434 Y22.818 E33.03940
G1 X99.495 Y31.034 E33.79269
G1 X100.974 Y31.034 E33.92716
G1 X100.228 Y36.707 E34.44744
G1 X100.932 Y42.162 E34.94758
G1 X103.888 Y42.162 E35.21636
G1 X103.888 Y46.782 E35.63646
G1 X107.294 Y52.532 E36.24412
G1 X110.859 Y41.307 E37.31501
G1 X110.542 Y40.871 E37.36404
G1 X110.046 Y39.737 E37.47659
G1 X111.185 Y40.085 E37.58484
G1 X111.663 Y40.014 E37.62880
G1 X112.359 Y39.682 E37.69898
G1 X111.340 Y42.162 E37.94280
G1 X113.611 Y42.162 E38.14931
G1 X108.795 Y54.872 E39.38524
G1 X113.081 Y62.031 E40.14395
G1 X109.832 Y62.031 E40.43939
G1 X105.405 Y53.704 E41.29690
G1 X103.888 Y54.083 E41.43907
G1 X103.888 Y62.031 E42.16184
G1 X101.658 Y62.031 E42.36463
G1 X101.658 Y48.961 E43.55308
G1 X100.194 Y48.556 E43.69116
G1 X95.417 Y56.517 E44.53541
G1 X97.356 Y57.210 E44.72256
G1 X97.178 Y57.923 E44.78945
G1 X96.718 Y59.210 E44.91372
G1 X96.188 Y60.255 E45.02024
G1 X95.606 Y61.057 E45.11037
G1 X94.966 Y61.643 E45.18929
G1 X94.226 Y62.056 E45.26628
G1 X93.353 Y62.310 E45.34900
G1 X92.339 Y62.398 E45.44157
G1 X91.026 Y62.242 E45.56177
G1 X90.531 Y62.043 E45.61029
G1 X90.003 Y62.111 E45.65873
G1 X82.214 Y61.227 E46.37150
G1 X82.214 Y62.031 E46.44465
G1 X79.993 Y62.031 E46.64663
G1 X79.993 Y60.975 E46.74269
G1 X73.420 Y60.229 E47.34419
G1 X73.420 Y62.031 E47.50809
G1 X71.199 Y62.031 E47.71007
G1 X71.199 Y59.977 E47.89690
G1 X66.970 Y59.497 E48.28389
G1 X66.970 Y62.031 E48.51436
G1 X58.585 Y62.031 E49.27682
G1 X58.585 Y58.545 E49.59384
G1 X46.499 Y57.173 E50.69981
G1 X45.058 Y46.011 E51.72324
G1 F1800.000 E50.72324
G92 E0
G1 X103.887 Y38.243 F7800.000
G1 E1.00000 F1800.000
G1 X103.887 Y36.277 E1.17883 F540.000
G1 X104.766 Y36.380 E1.25934
G1 X104.310 Y38.293 E1.43816
G1 X103.980 Y38.254 E1.46836
G1 X105.924 Y33.424 F7800.000
G1 X106.383 Y31.497 E1.64840 F540.000
G1 X106.806 Y31.547 E1.68713
G1 X106.806 Y33.527 E1.86716
G1 X106.017 Y33.434 E1.93942
G1 F1800.000 E0.93942
G92 E0
G1 X110.152 Y30.033 F7800.000
G1 E1.00000 F1800.000
G1 X110.361 Y29.385 E1.06187 F540.000
G1 X110.551 Y28.949 E1.10512
G1 X110.715 Y28.681 E1.13370
G1 X110.853 Y28.534 E1.15204
G1 X110.981 Y28.449 E1.16602
G1 X111.118 Y28.400 E1.17924
G1 X111.296 Y28.381 E1.19547
G1 X111.403 Y28.392 E1.20525
G1 X111.553 Y28.469 E1.22062
G1 X111.657 Y28.578 E1.23431
G1 X111.790 Y28.777 E1.25608
G1 X111.937 Y29.067 E1.28560
G1 X112.083 Y29.441 E1.32209
G1 X112.253 Y30.001 E1.37533
G1 X111.187 Y29.774 E1.47440
G1 X110.243 Y30.010 E1.56293
G1 X109.568 Y29.808 F7800.000
G1 X109.776 Y29.164 E1.62450 F378.000
G1 X109.995 Y28.659 E1.67454
G1 X110.216 Y28.299 E1.71298
G1 X110.447 Y28.054 E1.74360
G1 X110.698 Y27.886 E1.77106
G1 X110.978 Y27.787 E1.79802
G1 X111.295 Y27.752 E1.82706
G1 X111.543 Y27.779 E1.84974
G1 X111.760 Y27.856 E1.87064
G1 X111.957 Y27.988 E1.89224
G1 X112.146 Y28.186 E1.91711
G1 X112.330 Y28.460 E1.94719
G1 X112.508 Y28.811 E1.98294
G1 X112.674 Y29.236 E2.02439
G1 X112.825 Y29.733 E2.07167
G1 X112.960 Y30.304 E2.12497
G1 X113.076 Y30.945 E2.18422
G1 X113.234 Y32.265 E2.30509
G1 X112.534 Y32.869 E2.38923
G1 X112.335 Y31.823 E2.48610
G1 X112.217 Y31.387 E2.52719
G1 X112.067 Y31.014 E2.56370
G1 X111.856 Y30.708 E2.59754
G1 X111.563 Y30.493 E2.63060
G1 X111.199 Y30.415 E2.66444
G1 X110.819 Y30.510 E2.70003
G1 X110.519 Y30.769 E2.73606
G1 X110.306 Y31.125 E2.77377
G1 X110.144 Y31.572 E2.81697
G1 X110.024 Y32.159 E2.87148
G1 X109.941 Y32.921 E2.94120
G1 X109.892 Y33.863 E3.02699
G1 X109.875 Y34.990 E3.12946
G1 X109.889 Y35.915 E3.21354
G1 X109.930 Y36.712 E3.28615
G1 X110.000 Y37.385 E3.34770
G1 X110.100 Y37.939 E3.39881
G1 X110.272 Y38.524 E3.45423
G1 X110.498 Y38.984 E3.50088
G1 X110.818 Y39.319 E3.54305
G1 X111.233 Y39.446 E3.58248
G1 X111.479 Y39.410 E3.60510
G1 X111.676 Y39.316 E3.62490
G1 X111.840 Y39.178 E3.64441
G1 X111.975 Y39.010 E3.66399
G1 X112.089 Y38.819 E3.68423
G1 X112.273 Y38.368 E3.72855
G1 X112.453 Y37.645 E3.79630
G1 X113.174 Y38.101 E3.87386
G1 X113.056 Y38.945 E3.95138
G1 X112.873 Y39.848 E4.03519
G1 X112.660 Y40.595 E4.10582
G1 X112.272 Y41.537 E4.19841
G1 X114.516 Y41.537 E4.40242
G1 X109.487 Y54.811 E5.69311
G1 X114.183 Y62.656 E6.52457
G1 X109.456 Y62.656 E6.95441
G1 X105.083 Y54.429 E7.80166
G1 X104.513 Y54.571 E7.85505
G1 X104.513 Y62.656 E8.59024
G1 X101.033 Y62.656 E8.90667
G1 X101.033 Y49.437 E10.10873
G1 X100.486 Y49.285 E10.16036
G1 X96.345 Y56.185 E10.89208
G1 X98.099 Y56.813 E11.06141
G1 X97.776 Y58.105 E11.18249
G1 X97.293 Y59.458 E11.31314
G1 X96.723 Y60.582 E11.42776
G1 X96.075 Y61.476 E11.52818
G1 X95.334 Y62.153 E11.61946
G1 X94.469 Y62.636 E11.70952
G1 X93.468 Y62.927 E11.80429
G1 X92.329 Y63.026 E11.90831
G1 X90.869 Y62.853 E12.04192
G1 X90.449 Y62.683 E12.08315
G1 X90.008 Y62.740 E12.12362
G1 X82.839 Y61.927 E12.77965
G1 X82.839 Y62.656 E12.84598
G1 X79.368 Y62.656 E13.16159
G1 X79.368 Y61.533 E13.26375
G1 X74.045 Y60.929 E13.75087
G1 X74.045 Y62.656 E13.90796
G1 X70.574 Y62.656 E14.22358
G1 X70.574 Y60.535 E14.41650
G1 X67.595 Y60.196 E14.68911
G1 X67.595 Y62.656 E14.91277
G1 X57.960 Y62.656 E15.78888
G1 X57.960 Y59.103 E16.11198
G1 X45.942 Y57.739 E17.21174
G1 X44.489 Y46.483 E18.24369
G1 X43.534 Y46.375 E18.33109
G1 X43.029 Y45.979 E18.38943
G1 X42.539 Y45.160 E18.47615
G1 X42.191 Y44.122 E18.57570
G1 X42.165 Y44.122 E18.57814
G1 X41.845 Y42.397 E18.73767
G1 X41.700 Y40.597 E18.90192
G1 X41.705 Y38.626 E19.08115
G1 X41.861 Y36.577 E19.26793
G1 X42.161 Y34.543 E19.45491
G1 X42.591 Y32.614 E19.63459
G1 X43.130 Y30.879 E19.79981
G1 X43.753 Y29.419 E19.94417
G1 X44.421 Y28.304 E20.06236
G1 X45.084 Y27.593 E20.15075
G1 X45.668 Y27.300 E20.21014
G1 X46.446 Y27.375 E20.28118
G1 X52.674 Y16.995 E21.38192
G1 X98.991 Y22.252 E25.62056
G1 X100.044 Y30.409 E26.36842
G1 X100.820 Y30.409 E26.43895
G1 X101.071 Y28.008 E26.65846
G1 X102.003 Y28.008 E26.74318
G1 X100.858 Y36.708 E27.54106
G1 X101.481 Y41.537 E27.98384
G1 X103.262 Y41.537 E28.14573
G1 X103.262 Y28.008 E29.37592
G1 X104.041 Y28.008 E29.44675
G1 X104.041 Y35.666 E30.14305
G1 X104.727 Y35.746 E30.20583
G1 X106.574 Y28.008 E30.92925
G1 X107.431 Y28.008 E31.00716
G1 X107.431 Y41.854 E32.26617
G1 X106.648 Y41.854 E32.33736
G1 X106.648 Y34.138 E33.03901
G1 X105.962 Y34.057 E33.10182
G1 X104.180 Y41.537 E33.80100
G1 X104.513 Y41.537 E33.83128
G1 X104.513 Y46.611 E34.29265
G1 X107.120 Y51.013 E34.75785
G1 X110.168 Y41.419 E35.67319
G1 X109.996 Y41.183 E35.69967
G1 X109.650 Y40.390 E35.77835
G1 X109.368 Y39.361 E35.87542
G1 X109.164 Y38.110 E35.99063
G1 X109.041 Y36.643 E36.12449
G1 X108.999 Y34.960 E36.27759
G1 X109.022 Y33.681 E36.39391
G1 X109.093 Y32.526 E36.49915
G1 X109.210 Y31.495 E36.59348
G1 X109.373 Y30.589 E36.67715
G1 X109.545 Y29.899 E36.74182
G1 F1800.000 E35.74182
G92 E0
G1 X115.333 Y40.073 F7800.000
G1 E1.00000 F1800.000
G1 X117.599 Y40.073 E1.20607 F540.000
G1 X117.599 Y41.229 E1.31120
G1 X115.333 Y41.229 E1.51727
G1 X115.333 Y40.167 E1.61388
G1 X115.333 Y35.811 F7800.000
G1 X115.333 Y34.795 E1.70628 F540.000
G1 X117.408 Y34.795 E1.89498
G1 X117.408 Y35.811 E1.98739
G1 X115.427 Y35.811 E2.16756
G1 X115.333 Y29.977 F7800.000
G1 X115.333 Y28.633 E2.28979 F540.000
G1 X117.675 Y28.633 E2.50277
G1 X117.675 Y29.977 E2.62500
G1 X115.427 Y29.977 E2.82945
G1 X115.584 Y30.602 F7800.000
G1 X115.584 Y34.170 E3.15389 F378.000
G1 X118.033 Y34.170 E3.37658
G1 X118.033 Y36.436 E3.58262
G1 X115.584 Y36.436 E3.80531
G1 X115.584 Y39.448 E4.07919
G1 X118.224 Y39.448 E4.31925
G1 X118.224 Y41.854 E4.53802
G1 X114.708 Y41.854 E4.85773
G1 X114.708 Y28.008 E6.11674
G1 X118.300 Y28.008 E6.44336
G1 X118.300 Y30.602 E6.67923
G1 X115.678 Y30.602 E6.91767
G1 F1800.000 E5.91767
G92 E0
G1 X99.755 Y32.279 F7800.000
G1 E1.00000 F1800.000
G1 X99.557 Y32.081 E1.02552 F1080.000
G1 X97.438 Y23.758 F7800.000
G1 X97.509 Y23.830 E1.03477 F1080.000
G1 X97.641 Y24.848 E1.12834
G1 X96.438 Y23.645 E1.28345
G1 X95.438 Y23.531 E1.37519
G1 X97.772 Y25.865 E1.67616
G1 X97.904 Y26.883 E1.76972
G1 X94.439 Y23.418 E2.21655
G1 X93.439 Y23.304 E2.30829
G1 X98.035 Y27.900 E2.90097
G1 X98.166 Y28.918 E2.99453
G1 X92.439 Y23.191 E3.73308
G1 X91.440 Y23.077 E3.82482
G1 X98.298 Y29.936 E4.70922
G1 X98.429 Y30.953 E4.80278
G1 X90.440 Y22.964 E5.83303
G1 X89.440 Y22.850 E5.92477
G1 X99.652 Y33.062 E7.24155
G1 X99.549 Y33.845 E7.31358
G1 X88.441 Y22.737 E8.74599
G1 X87.441 Y22.623 E8.83773
G1 X99.446 Y34.628 E10.38576
G1 X99.342 Y35.411 E10.45779
G1 X86.441 Y22.510 E12.12145
G1 X85.442 Y22.397 E12.21319
G1 X99.239 Y36.194 E13.99248
G1 X99.218 Y37.059 E14.07133
G1 X84.442 Y22.283 E15.97674
G1 X83.442 Y22.170 E16.06848
G1 X99.349 Y38.077 E18.11974
G1 X99.481 Y39.094 E18.21330
G1 X82.443 Y22.056 E20.41042
G1 X81.443 Y21.943 E20.50216
G1 X99.612 Y40.112 E22.84513
G1 X99.743 Y41.129 E22.93869
G1 X80.443 Y21.829 E25.42753
G1 X79.444 Y21.716 E25.51927
G1 X99.875 Y42.147 E28.15396
G1 X102.709 Y43.209 F7800.000
G1 X102.841 Y43.341 E28.17104 F1080.000
G1 X102.841 Y44.227 E28.25185
G1 X101.823 Y43.209 E28.38322
G1 X100.937 Y43.209 E28.46403
G1 X102.841 Y45.114 E28.70967
G1 X102.841 Y46.000 E28.79048
