; generated by Slic3r 1.0.0RC2 on 2014-02-05 at 14:14:45

; layer_height = 0.25
; perimeters = 1
; top_solid_layers = 2
; bottom_solid_layers = 2
; fill_density = 0.135
; perimeter_speed = 30
; infill_speed = 60
; travel_speed = 130
; nozzle_diameter = 0.35
; filament_diameter = 1.75
; extrusion_multiplier = 1
; perimeters extrusion width = 0.35mm
; infill extrusion width = 0.39mm
; solid infill extrusion width = 0.39mm
; top infill extrusion width = 0.39mm
; first layer extrusion width = 0.70mm

G21 ; set units to millimeters
M107
M104 S220 ; set temperature
G28 ; home all axes
G1 Z5 F5000 ; lift nozzle

M109 S220 ; wait for temperature to be reached
G90 ; use absolute coordinates
G92 E0
M82 ; use absolute distances for extrusion
G1 F1800.000 E-1.00000
G92 E0
G1 Z0.350 F7800.000
G1 X29.087 Y19.860 F7800.000
G1 E1.00000 F1800.000
G1 X29.527 Y19.290 E1.06548 F540.000
G1 X30.457 Y18.210 E1.19507
G1 X37.387 Y10.840 E2.11495
G1 X38.468 Y9.900 E2.24514
G1 X39.718 Y9.190 E2.37586
G1 X41.087 Y8.730 E2.50727
G1 X42.517 Y8.560 E2.63821
G1 X71.297 Y7.950 E5.25576
G1 X93.957 Y7.960 E7.31622
G1 X95.097 Y8.050 E7.42020
G1 X96.058 Y8.240 E7.50919
G1 X96.697 Y8.430 E7.56989
G1 X97.397 Y8.710 E7.63845
G1 X98.447 Y9.260 E7.74623
G1 X99.267 Y9.830 E7.83704
G1 X100.017 Y10.500 E7.92848
G1 X100.767 Y11.340 E8.03088
G1 X132.827 Y53.320 E12.83396
G1 X133.248 Y53.930 E12.90130
G1 X133.597 Y54.570 E12.96763
G1 X133.868 Y55.130 E13.02416
G1 X134.147 Y55.800 E13.09019
G1 X134.368 Y56.500 E13.15691
G1 X134.537 Y57.170 E13.21976
G1 X134.718 Y58.190 E13.31395
G1 X134.798 Y58.950 E13.38343
G1 X134.827 Y59.980 E13.47713
G1 X134.798 Y60.780 E13.54993
G1 X134.718 Y61.650 E13.62937
G1 X134.587 Y62.470 E13.70486
G1 X134.417 Y63.250 E13.77745
G1 X134.197 Y64.050 E13.85290
G1 X133.897 Y64.930 E13.93744
G1 X133.587 Y65.670 E14.01039
G1 X133.218 Y66.430 E14.08725
G1 X132.707 Y67.310 E14.17974
G1 X132.188 Y68.050 E14.26198
G1 X131.757 Y68.590 E14.32474
G1 X131.267 Y69.140 E14.39172
G1 X130.727 Y69.640 E14.45864
G1 X130.248 Y70.040 E14.51546
G1 X129.548 Y70.550 E14.59421
G1 X128.798 Y70.980 E14.67282
G1 X128.308 Y71.220 E14.72243
G1 X127.328 Y71.610 E14.81834
G1 X126.307 Y71.860 E14.91383
G1 X125.828 Y71.940 E14.95808
G1 X124.647 Y72.040 E15.06576
G1 X123.468 Y71.940 E15.17345
G1 X36.137 Y57.630 E23.22023
G1 X34.748 Y57.260 E23.35102
G1 X33.447 Y56.620 E23.48278
G1 X32.317 Y55.740 E23.61301
G1 X31.377 Y54.640 E23.74458
G1 X30.668 Y53.390 E23.87530
G1 X26.617 Y44.140 E24.79348
G1 X26.387 Y43.560 E24.85022
G1 X25.968 Y42.320 E24.96926
G1 X25.697 Y41.270 E25.06784
G1 X25.418 Y39.710 E25.21196
G1 X25.328 Y39.030 E25.27433
G1 X25.177 Y37.210 E25.44039
G1 X25.157 Y36.610 E25.49497
G1 X25.157 Y34.630 E25.67501
G1 X25.317 Y32.070 E25.90825
G1 X25.367 Y31.590 E25.95213
G1 X25.727 Y29.010 E26.18900
G1 X26.137 Y27.040 E26.37197
G1 X26.287 Y26.460 E26.42645
G1 X26.817 Y24.670 E26.59619
G1 X27.017 Y24.080 E26.65284
G1 X27.617 Y22.550 E26.80228
G1 X28.037 Y21.670 E26.89094
G1 X28.707 Y20.470 E27.01591
G1 X29.038 Y19.939 E27.07274
G1 X29.598 Y20.220 F7800.000
G1 X29.997 Y19.700 E27.13239 F540.000
G1 X30.907 Y18.640 E27.25943
G1 X37.837 Y11.270 E28.17931
G1 X38.828 Y10.410 E28.29855
G1 X39.977 Y9.760 E28.41867
G1 X41.218 Y9.340 E28.53771
G1 X42.527 Y9.190 E28.65761
G1 X71.308 Y8.580 E31.27515
G1 X93.947 Y8.590 E33.33379
G1 X94.998 Y8.670 E33.42955
G1 X95.907 Y8.840 E33.51373
G1 X96.487 Y9.020 E33.56895
G1 X97.147 Y9.280 E33.63345
G1 X98.108 Y9.790 E33.73229
G1 X98.877 Y10.320 E33.81729
G1 X99.578 Y10.950 E33.90293
G1 X100.277 Y11.720 E33.99755
G1 X132.337 Y53.700 E38.80063
G1 X132.718 Y54.250 E38.86142
G1 X133.037 Y54.840 E38.92245
G1 X133.308 Y55.400 E38.97898
G1 X133.567 Y56.020 E39.04011
G1 X133.757 Y56.650 E39.09995
G1 X133.928 Y57.320 E39.16280
G1 X134.097 Y58.260 E39.24966
G1 X134.178 Y59.020 E39.31915
G1 X134.207 Y59.960 E39.40467
G1 X134.178 Y60.760 E39.47746
G1 X134.097 Y61.550 E39.54966
G1 X133.968 Y62.370 E39.62516
G1 X133.817 Y63.090 E39.69203
G1 X133.597 Y63.890 E39.76748
G1 X133.317 Y64.690 E39.84455
G1 X133.007 Y65.430 E39.91750
G1 X132.667 Y66.120 E39.98744
G1 X132.178 Y66.980 E40.07745
G1 X131.697 Y67.660 E40.15313
G1 X131.267 Y68.200 E40.21590
G1 X130.827 Y68.700 E40.27646
G1 X130.327 Y69.160 E40.33824
G1 X129.847 Y69.560 E40.39505
G1 X129.207 Y70.030 E40.46726
G1 X128.517 Y70.420 E40.53933
G1 X128.027 Y70.660 E40.58894
G1 X127.137 Y71.020 E40.67624
G1 X126.207 Y71.240 E40.76313
G1 X125.727 Y71.320 E40.80738
G1 X124.647 Y71.410 E40.90593
G1 X123.567 Y71.330 E41.00440
G1 X36.237 Y57.020 E49.05118
G1 X34.968 Y56.680 E49.17073
G1 X33.788 Y56.090 E49.29069
G1 X32.748 Y55.280 E49.41056
G1 X31.887 Y54.290 E49.52980
G1 X31.237 Y53.140 E49.64992
G1 X27.188 Y43.890 E50.56810
G1 X26.987 Y43.360 E50.61961
G1 X26.567 Y42.120 E50.73866
G1 X26.317 Y41.160 E50.82886
G1 X26.037 Y39.600 E50.97298
G1 X25.957 Y38.970 E51.03072
G1 X25.807 Y37.150 E51.19678
G1 X25.787 Y36.610 E51.24591
G1 X25.797 Y34.180 E51.46687
G1 X25.977 Y31.670 E51.69569
G1 X26.258 Y29.600 E51.88563
G1 X26.337 Y29.140 E51.92809
G1 X26.747 Y27.170 E52.11106
G1 X26.887 Y26.640 E52.16090
G1 X27.417 Y24.850 E52.33065
G1 X27.598 Y24.310 E52.38241
G1 X28.197 Y22.780 E52.53185
G1 X28.587 Y21.970 E52.61359
G1 X29.258 Y20.770 E52.73856
G1 X29.548 Y20.299 E52.78883
G1 F1800.000 E51.78883
G92 E0
G1 X86.804 Y27.620 F7800.000
G1 E1.00000 F1800.000
G1 X87.710 Y26.939 E1.10305 F540.000
G1 X88.198 Y26.644 E1.15492
G1 X88.716 Y26.405 E1.20679
G1 X89.257 Y26.219 E1.25875
G1 X89.819 Y26.089 E1.31127
G1 X90.401 Y26.011 E1.36465
G1 X91.002 Y25.985 E1.41933
G1 X91.601 Y26.011 E1.47391
G1 X92.184 Y26.087 E1.52732
G1 X92.744 Y26.218 E1.57963
G1 X93.283 Y26.401 E1.63139
G1 X93.798 Y26.641 E1.68306
G1 X94.281 Y26.932 E1.73435
G1 X94.733 Y27.274 E1.78582
G1 X95.160 Y27.670 E1.83885
G1 X95.552 Y28.129 E1.89371
G1 X95.893 Y28.639 E1.94946
G1 X96.174 Y29.194 E2.00608
G1 X96.400 Y29.786 E2.06372
G1 X96.573 Y30.419 E2.12335
G1 X96.694 Y31.086 E2.18501
G1 X96.764 Y31.789 E2.24925
G1 X96.788 Y32.527 E2.31638
G1 X96.765 Y33.258 E2.38283
G1 X96.696 Y33.949 E2.44598
G1 X96.579 Y34.607 E2.50681
G1 X96.410 Y35.228 E2.56526
G1 X96.190 Y35.814 E2.62218
G1 X95.912 Y36.360 E2.67797
G1 X95.578 Y36.862 E2.73271
G1 X95.193 Y37.307 E2.78626
G1 X94.775 Y37.698 E2.83833
G1 X94.320 Y38.036 E2.88984
G1 X93.835 Y38.323 E2.94111
G1 X93.317 Y38.556 E2.99273
G1 X92.773 Y38.735 E3.04477
G1 X92.204 Y38.862 E3.09780
G1 X91.613 Y38.935 E3.15203
G1 X91.002 Y38.959 E3.20762
G1 X90.388 Y38.935 E3.26347
G1 X89.797 Y38.859 E3.31761
G1 X88.282 Y38.523 E3.45879
G1 X89.594 Y36.161 E3.70443
G1 X86.833 Y27.709 E4.51294
G1 X87.537 Y27.851 F7800.000
G1 X88.060 Y27.457 E4.57244 F540.000
G1 X88.491 Y27.197 E4.61828
G1 X88.949 Y26.985 E4.66413
G1 X89.429 Y26.821 E4.71027
G1 X89.932 Y26.704 E4.75718
G1 X90.456 Y26.634 E4.80528
G1 X91.002 Y26.610 E4.85495
G1 X91.547 Y26.634 E4.90460
G1 X92.072 Y26.703 E4.95269
G1 X92.572 Y26.820 E4.99943
G1 X93.050 Y26.982 E5.04534
G1 X93.504 Y27.193 E5.09088
G1 X93.930 Y27.451 E5.13613
G1 X94.331 Y27.753 E5.18177
G1 X94.709 Y28.104 E5.22865
G1 X95.053 Y28.507 E5.27687
G1 X95.352 Y28.955 E5.32584
G1 X95.602 Y29.448 E5.37609
G1 X95.806 Y29.981 E5.42798
G1 X95.963 Y30.557 E5.48232
G1 X96.075 Y31.173 E5.53922
G1 X96.140 Y31.831 E5.59930
G1 X96.163 Y32.528 E5.66271
G1 X96.141 Y33.217 E5.72540
G1 X96.077 Y33.863 E5.78445
G1 X95.969 Y34.470 E5.84056
G1 X95.815 Y35.035 E5.89380
G1 X95.617 Y35.561 E5.94487
G1 X95.371 Y36.045 E5.99420
G1 X95.080 Y36.483 E6.04206
G1 X94.742 Y36.874 E6.08901
G1 X94.374 Y37.218 E6.13484
G1 X93.974 Y37.515 E6.18012
G1 X93.547 Y37.767 E6.22525
G1 X93.091 Y37.972 E6.27076
G1 X92.607 Y38.131 E6.31706
G1 X92.098 Y38.246 E6.36453
G1 X91.562 Y38.312 E6.41360
G1 X91.002 Y38.334 E6.46459
G1 X90.440 Y38.312 E6.51567
G1 X89.905 Y38.243 E6.56472
G1 X89.235 Y38.094 E6.62718
G1 X90.272 Y36.227 E6.82145
G1 X87.566 Y27.940 E7.61413
G1 F1800.000 E6.61413
G92 E0
G1 X69.163 Y37.200 F7800.000
G1 E1.00000 F1800.000
G1 X67.451 Y39.556 E1.26482 F540.000
G1 X64.681 Y38.656 E1.52965
G1 X64.681 Y35.743 E1.79447
G1 X67.451 Y34.844 E2.05929
G1 X69.108 Y37.124 E2.31559
G1 X68.391 Y37.200 F7800.000
G1 X67.213 Y38.821 E2.49785 F540.000
G1 X65.306 Y38.202 E2.68011
G1 X65.306 Y36.198 E2.86237
G1 X67.213 Y35.578 E3.04462
G1 X68.336 Y37.124 E3.21836
G1 X67.618 Y37.200 F7800.000
G1 X66.974 Y38.087 E3.31805 F540.000
G1 X65.931 Y37.748 E3.41774
G1 X65.931 Y36.652 E3.51743
G1 X66.974 Y36.313 E3.61713
G1 X67.563 Y37.124 E3.70830
G1 F1800.000 E2.70830
G92 E0
G1 X62.169 Y49.892 F7800.000
G1 E1.00000 F1800.000
G1 X55.604 Y50.163 E1.59742 F540.000
G1 X55.569 Y48.965 E1.70641
G1 X52.534 Y48.820 E1.98270
G1 X52.399 Y49.889 E2.08073
G1 X49.344 Y50.211 E2.36001
G1 X38.733 Y49.029 E3.33083
G1 X37.736 Y41.317 E4.03792
G1 X34.997 Y41.012 E4.28851
G1 X34.722 Y40.556 E4.33692
G1 X34.399 Y39.590 E4.42957
G1 X34.146 Y38.219 E4.55633
G1 X34.009 Y36.551 E4.70846
G1 X34.007 Y34.686 E4.87807
G1 X34.144 Y32.726 E5.05672
G1 X34.413 Y30.769 E5.23633
G1 X34.801 Y28.915 E5.40863
G1 X35.283 Y27.259 E5.56548
G1 X35.825 Y25.896 E5.69882
G1 X36.367 Y24.921 E5.80022
G1 X36.820 Y24.387 E5.86387
G1 X39.580 Y24.682 E6.11633
G1 X43.557 Y17.524 E6.86089
G1 X56.365 Y18.950 E8.03276
G1 X56.578 Y18.568 E8.07250
G1 X70.780 Y17.982 E9.36499
G1 X71.369 Y16.674 E9.49540
G1 X71.972 Y17.933 E9.62224
G1 X79.690 Y17.614 E10.32465
G1 X80.275 Y16.615 E10.42993
G1 X80.891 Y17.564 E10.53289
G1 X82.837 Y17.484 E10.70990
G1 X83.587 Y19.783 E10.92982
G1 X83.144 Y20.119 E10.98037
G1 X83.812 Y20.469 E11.04892
G1 X83.875 Y20.663 E11.06743
G1 X84.179 Y20.663 E11.09510
G1 X85.389 Y21.299 E11.21942
G1 X85.505 Y21.599 E11.24865
G1 X85.574 Y21.884 E11.27533
G1 X85.623 Y22.262 E11.31004
G1 X85.641 Y22.737 E11.35325
G1 X85.617 Y23.274 E11.40212
G1 X85.580 Y23.560 E11.42829
G1 X85.500 Y23.897 E11.45979
G1 X85.169 Y24.625 E11.53257
G1 X88.915 Y36.096 E12.62983
G1 X83.889 Y45.143 E13.57083
G1 X82.689 Y45.535 E13.68567
G1 X82.724 Y47.921 E13.90270
G1 X124.622 Y60.260 E17.87424
G1 X125.300 Y59.090 E17.99723
G1 X125.753 Y58.528 E18.06282
G1 X125.936 Y59.236 E18.12927
G1 X125.988 Y59.763 E18.17741
G1 X125.968 Y60.364 E18.23215
G1 X125.870 Y60.996 E18.29024
G1 X125.699 Y61.611 E18.34830
G1 X125.469 Y62.167 E18.40306
G1 X125.203 Y62.625 E18.45118
G1 X124.744 Y63.194 E18.51764
G1 X124.564 Y62.496 E18.58317
G1 X124.429 Y61.151 E18.70615
G1 X66.615 Y53.035 E24.01468
G1 X66.615 Y53.061 E24.01703
G1 X65.190 Y52.753 E24.14965
G1 X64.278 Y52.343 E24.24053
G1 X63.472 Y51.752 E24.33145
G1 X62.805 Y51.005 E24.42242
G1 X62.215 Y49.973 E24.53051
G1 X61.815 Y50.532 F7800.000
G1 X54.998 Y50.814 E25.15087 F540.000
G1 X54.961 Y49.562 E25.26477
G1 X53.081 Y49.471 E25.43590
G1 X52.957 Y50.459 E25.52640
G1 X49.541 Y50.819 E25.83868
G1 X49.519 Y50.859 E25.84290
G1 X38.176 Y49.596 E26.88063
G1 X37.179 Y41.884 E27.58772
G1 X34.766 Y41.615 E27.80850
G1 X34.521 Y41.432 E27.83634
G1 X34.151 Y40.820 E27.90132
G1 X33.792 Y39.746 E28.00427
G1 X33.525 Y38.301 E28.13789
G1 X33.384 Y36.577 E28.29518
G1 X33.382 Y34.665 E28.46908
G1 X33.522 Y32.662 E28.65165
G1 X33.797 Y30.663 E28.83514
G1 X34.194 Y28.763 E29.01161
G1 X34.692 Y27.055 E29.17336
G1 X35.259 Y25.628 E29.31306
G1 X35.850 Y24.564 E29.42372
G1 X36.380 Y23.940 E29.49811
G1 X36.692 Y23.758 E29.53097
G1 X37.042 Y23.770 E29.56283
G1 X39.236 Y24.014 E29.76360
G1 X43.213 Y16.857 E30.50816
G1 X56.021 Y18.283 E31.68002
G1 X56.202 Y17.958 E31.71382
G1 X70.369 Y17.373 E33.00311
G1 X70.638 Y16.775 E33.06281
G1 X70.851 Y16.424 E33.10010
G1 X70.950 Y16.324 E33.11292
G1 X71.052 Y16.258 E33.12401
G1 X71.179 Y16.208 E33.13642
G1 X71.346 Y16.180 E33.15177
G1 X71.524 Y16.178 E33.16797
G1 X71.670 Y16.210 E33.18159
G1 X71.763 Y16.264 E33.19132
G1 X71.848 Y16.346 E33.20205
G1 X72.067 Y16.684 E33.23868
G1 X72.357 Y17.291 E33.29989
G1 X79.323 Y17.004 E33.93382
G1 X79.619 Y16.498 E33.98711
G1 X79.757 Y16.321 E34.00751
G1 X79.908 Y16.246 E34.02281
G1 X80.352 Y16.176 E34.06369
G1 X80.584 Y16.195 E34.08486
G1 X80.716 Y16.246 E34.09768
G1 X80.796 Y16.301 E34.10651
G1 X80.896 Y16.424 E34.12098
G1 X81.221 Y16.925 E34.17529
G1 X83.510 Y16.831 E34.38354
G1 X83.510 Y17.533 E34.44737
G1 X84.320 Y20.012 E34.68455
G1 X84.305 Y20.023 E34.68618
G1 X85.793 Y20.815 E34.83945
G1 X85.879 Y20.915 E34.85144
G1 X85.956 Y21.047 E34.86530
G1 X86.101 Y21.412 E34.90103
G1 X86.189 Y21.770 E34.93459
G1 X86.246 Y22.211 E34.97501
G1 X86.266 Y22.737 E35.02281
G1 X86.240 Y23.332 E35.07701
G1 X86.196 Y23.667 E35.10769
G1 X86.095 Y24.086 E35.14690
G1 X86.015 Y24.303 E35.16794
G1 X85.840 Y24.669 E35.20482
G1 X86.362 Y26.267 E35.35763
G1 X87.843 Y25.664 E35.50305
G1 X88.596 Y25.440 E35.57443
G1 X88.596 Y24.364 E35.67231
G1 X90.501 Y24.364 E35.84555
G1 X90.501 Y25.157 E35.91767
G1 X93.293 Y25.258 E36.17173
G1 X93.164 Y24.786 E36.21621
G1 X94.102 Y24.848 E36.30168
G1 X93.733 Y25.495 E36.36941
G1 X94.797 Y25.934 E36.47406
G1 X95.403 Y26.261 E36.53671
G1 X95.965 Y26.646 E36.59865
G1 X96.483 Y27.088 E36.66056
G1 X96.948 Y27.584 E36.72234
G1 X97.349 Y28.122 E36.78338
G1 X97.687 Y28.706 E36.84477
G1 X97.968 Y29.343 E36.90808
G1 X98.190 Y30.032 E36.97388
G1 X98.349 Y30.780 E37.04337
G1 X98.447 Y31.585 E37.11716
G1 X98.480 Y32.451 E37.19593
G1 X98.447 Y33.324 E37.27540
G1 X98.348 Y34.136 E37.34978
G1 X98.187 Y34.888 E37.41968
G1 X97.963 Y35.581 E37.48596
G1 X97.680 Y36.221 E37.54954
G1 X97.336 Y36.807 E37.61134
G1 X96.932 Y37.346 E37.67258
G1 X96.461 Y37.844 E37.73494
G1 X95.939 Y38.291 E37.79742
G1 X95.373 Y38.678 E37.85976
G1 X94.765 Y39.007 E37.92262
G1 X94.110 Y39.277 E37.98703
G1 X93.403 Y39.490 E38.05417
G1 X92.645 Y39.645 E38.12456
G1 X91.833 Y39.738 E38.19885
G1 X90.958 Y39.770 E38.27848
G1 X90.479 Y39.761 E38.32205
G1 X89.557 Y39.689 E38.40617
G1 X88.705 Y39.546 E38.48465
G1 X87.832 Y39.333 E38.56642
G1 X84.316 Y45.661 E39.22462
G1 X83.320 Y45.986 E39.31990
G1 X83.342 Y47.452 E39.45322
G1 X124.327 Y59.522 E43.33827
G1 X124.784 Y58.734 E43.42100
G1 X125.115 Y58.324 E43.46900
G1 X125.427 Y58.060 E43.50617
G1 X125.670 Y57.941 E43.53073
G1 X125.885 Y57.909 E43.55055
G1 X126.071 Y58.031 E43.57074
G1 X126.246 Y58.246 E43.59595
G1 X126.421 Y58.616 E43.63317
G1 X126.553 Y59.126 E43.68108
G1 X126.614 Y59.742 E43.73736
G1 X126.592 Y60.423 E43.79931
G1 X126.482 Y61.128 E43.86417
G1 X126.291 Y61.815 E43.92902
G1 X126.030 Y62.445 E43.99099
G1 X125.720 Y62.980 E44.04726
G1 X125.389 Y63.390 E44.09518
G1 X125.076 Y63.655 E44.13245
G1 X124.827 Y63.779 E44.15777
G1 X124.609 Y63.813 E44.17781
G1 X124.426 Y63.696 E44.19762
G1 X124.254 Y63.487 E44.22217
G1 X124.079 Y63.118 E44.25935
G1 X123.947 Y62.607 E44.30735
G1 X123.856 Y61.701 E44.39008
G1 X66.164 Y53.602 E49.68743
G1 X64.993 Y53.349 E49.79634
G1 X63.962 Y52.885 E49.89918
G1 X63.049 Y52.217 E50.00205
G1 X62.296 Y51.373 E50.10497
G1 X61.861 Y50.613 E50.18448
G1 X61.461 Y51.172 F7800.000
G1 X54.393 Y51.464 E50.82777 F378.000
G1 X54.354 Y50.158 E50.94658
G1 X53.629 Y50.123 E51.01257
G1 X53.515 Y51.028 E51.09552
G1 X49.930 Y51.406 E51.42330
G1 X49.863 Y51.526 E51.43581
G1 X37.620 Y50.162 E52.55597
G1 X36.622 Y42.450 E53.26307
G1 X34.528 Y42.217 E53.45467
G1 X34.049 Y41.859 E53.50903
G1 X33.580 Y41.084 E53.59143
G1 X33.186 Y39.903 E53.70466
G1 X32.905 Y38.384 E53.84514
G1 X32.760 Y36.603 E54.00758
G1 X32.758 Y34.643 E54.18578
G1 X32.900 Y32.597 E54.37227
G1 X33.181 Y30.556 E54.55964
G1 X33.587 Y28.611 E54.74028
G1 X34.100 Y26.852 E54.90694
G1 X34.694 Y25.359 E55.05300
G1 X35.334 Y24.206 E55.17292
G1 X35.972 Y23.454 E55.26261
G1 X36.533 Y23.127 E55.32164
G1 X37.088 Y23.146 E55.37212
G1 X38.892 Y23.347 E55.53721
G1 X42.869 Y16.189 E56.28178
G1 X55.677 Y17.616 E57.45364
G1 X55.826 Y17.349 E57.48148
G1 X63.220 Y17.043 E58.15439
G1 X63.220 Y15.731 E58.27374
G1 X63.965 Y15.731 E58.34148
G1 X63.965 Y17.012 E58.45803
G1 X67.531 Y16.865 E58.78256
G1 X67.531 Y15.731 E58.88571
G1 X68.272 Y15.731 E58.95309
G1 X68.272 Y16.835 E59.05346
G1 X69.958 Y16.765 E59.20689
G1 X70.172 Y16.319 E59.25186
G1 X70.364 Y16.032 E59.28329
G1 X70.457 Y15.927 E59.29607
G1 X70.658 Y15.763 E59.31966
G1 X70.888 Y15.646 E59.34311
