; generated by Slic3r 1.0.0RC2 on 2014-02-05 at 17:37:05

; layer_height = 0.25
; perimeters = 1
; top_solid_layers = 2
; bottom_solid_layers = 2
; fill_density = 0.135
; perimeter_speed = 30
; infill_speed = 60
; travel_speed = 130
; nozzle_diameter = 0.35
; filament_diameter = 1.75
; extrusion_multiplier = 1
; perimeters extrusion width = 0.35mm
; infill extrusion width = 0.39mm
; solid infill extrusion width = 0.39mm
; top infill extrusion width = 0.39mm
; first layer extrusion width = 0.70mm

G21 ; set units to millimeters
M107
M104 S220 ; set temperature
G28 ; home all axes
G1 Z5 F5000 ; lift nozzle

M109 S220 ; wait for temperature to be reached
G90 ; use absolute coordinates
G92 E0
M82 ; use absolute distances for extrusion
G1 F1800.000 E-1.00000
G92 E0
G1 Z0.350 F7800.000
G1 X69.498 Y59.028 F7800.000
G1 E1.00000 F1800.000
G1 X70.457 Y57.898 E1.13482 F540.000
G1 X77.388 Y50.538 E2.05404
G1 X78.507 Y49.568 E2.18877
G1 X79.797 Y48.848 E2.32310
G1 X81.197 Y48.408 E2.45654
G1 X82.668 Y48.258 E2.59090
G1 X123.977 Y48.268 E6.34720
G1 X151.647 Y49.628 E8.86626
G1 X153.017 Y49.828 E8.99216
G1 X154.327 Y50.288 E9.11841
G1 X155.527 Y50.988 E9.24473
G1 X156.567 Y51.898 E9.37039
G1 X157.417 Y52.998 E9.49679
G1 X158.037 Y54.228 E9.62204
G1 X174.087 Y95.328 E13.63410
G1 X174.368 Y96.188 E13.71634
G1 X174.537 Y96.858 E13.77919
G1 X174.718 Y97.878 E13.87337
G1 X174.798 Y98.638 E13.94286
G1 X174.827 Y99.668 E14.03656
G1 X174.798 Y100.468 E14.10935
G1 X174.718 Y101.338 E14.18880
G1 X174.587 Y102.158 E14.26429
G1 X174.417 Y102.948 E14.33777
G1 X174.238 Y103.598 E14.39910
G1 X173.907 Y104.588 E14.49399
G1 X173.597 Y105.338 E14.56778
G1 X173.157 Y106.228 E14.65806
G1 X172.777 Y106.878 E14.72652
G1 X172.188 Y107.738 E14.82135
G1 X171.757 Y108.278 E14.88412
G1 X171.267 Y108.828 E14.95110
G1 X170.727 Y109.328 E15.01802
G1 X170.248 Y109.728 E15.07483
G1 X169.597 Y110.208 E15.14831
G1 X168.897 Y110.618 E15.22207
G1 X168.407 Y110.868 E15.27209
G1 X167.317 Y111.318 E15.37932
G1 X166.167 Y111.578 E15.48653
G1 X165.688 Y111.648 E15.53064
G1 X164.577 Y111.728 E15.63183
G1 X163.468 Y111.628 E15.73317
G1 X76.138 Y97.318 E23.77995
G1 X74.748 Y96.948 E23.91075
G1 X73.448 Y96.308 E24.04250
G1 X72.317 Y95.428 E24.17273
G1 X71.377 Y94.328 E24.30430
G1 X70.668 Y93.078 E24.43502
G1 X66.617 Y83.828 E25.35321
G1 X66.388 Y83.248 E25.40994
G1 X65.968 Y82.008 E25.52899
G1 X65.698 Y80.958 E25.62757
G1 X65.418 Y79.398 E25.77169
G1 X65.328 Y78.718 E25.83406
G1 X65.177 Y76.908 E25.99920
G1 X65.157 Y76.308 E26.05379
G1 X65.157 Y74.318 E26.23474
G1 X65.317 Y71.758 E26.46798
G1 X65.367 Y71.268 E26.51276
G1 X65.727 Y68.708 E26.74783
G1 X66.138 Y66.738 E26.93080
G1 X66.287 Y66.158 E26.98528
G1 X66.817 Y64.368 E27.15502
G1 X67.017 Y63.778 E27.21167
G1 X67.617 Y62.248 E27.36111
G1 X68.037 Y61.368 E27.44977
G1 X68.707 Y60.168 E27.57474
G1 X69.078 Y59.578 E27.63807
G1 X69.441 Y59.102 E27.69247
G1 X69.977 Y59.428 F7800.000
G1 X70.918 Y58.328 E27.82404 F540.000
G1 X77.847 Y50.968 E28.74326
G1 X78.867 Y50.088 E28.86576
G1 X80.037 Y49.428 E28.98790
G1 X81.328 Y49.018 E29.11098
G1 X82.668 Y48.888 E29.23340
G1 X124.308 Y48.898 E33.01971
G1 X151.618 Y50.248 E35.50603
G1 X152.868 Y50.438 E35.62100
G1 X154.067 Y50.848 E35.73630
G1 X155.157 Y51.488 E35.85124
G1 X156.108 Y52.328 E35.96655
G1 X156.887 Y53.328 E36.08187
G1 X157.457 Y54.458 E36.19695
G1 X173.507 Y95.558 E40.20901
G1 X173.757 Y96.338 E40.28349
G1 X173.928 Y97.008 E40.34634
G1 X174.097 Y97.948 E40.43320
G1 X174.178 Y98.708 E40.50269
G1 X174.207 Y99.648 E40.58821
G1 X174.178 Y100.448 E40.66100
G1 X174.097 Y101.238 E40.73320
G1 X173.968 Y102.058 E40.80870
G1 X173.808 Y102.788 E40.87665
G1 X173.607 Y103.528 E40.94635
G1 X173.327 Y104.348 E41.02514
G1 X173.017 Y105.098 E41.09894
G1 X172.618 Y105.908 E41.18108
G1 X172.238 Y106.558 E41.24954
G1 X171.697 Y107.348 E41.33656
G1 X171.267 Y107.888 E41.39932
G1 X170.827 Y108.388 E41.45989
G1 X170.327 Y108.848 E41.52166
G1 X169.847 Y109.248 E41.57848
G1 X169.257 Y109.688 E41.64540
G1 X168.618 Y110.058 E41.71262
G1 X168.127 Y110.308 E41.76264
G1 X167.127 Y110.718 E41.86092
G1 X166.077 Y110.968 E41.95906
G1 X165.597 Y111.038 E42.00317
G1 X164.577 Y111.098 E42.09608
G1 X163.567 Y111.018 E42.18821
G1 X76.237 Y96.708 E50.23499
G1 X74.968 Y96.368 E50.35454
G1 X73.787 Y95.778 E50.47450
G1 X72.748 Y94.968 E50.59436
G1 X71.888 Y93.978 E50.71361
G1 X71.237 Y92.828 E50.83372
G1 X67.188 Y83.578 E51.75191
G1 X66.987 Y83.048 E51.80342
G1 X66.567 Y81.808 E51.92246
G1 X66.317 Y80.848 E52.01267
G1 X66.037 Y79.288 E52.15678
G1 X65.957 Y78.668 E52.21363
G1 X65.808 Y76.858 E52.37877
G1 X65.787 Y76.308 E52.42882
G1 X65.797 Y73.868 E52.65069
G1 X65.938 Y71.798 E52.83934
G1 X66.338 Y68.838 E53.11094
G1 X66.748 Y66.868 E53.29391
G1 X66.888 Y66.338 E53.34376
G1 X67.418 Y64.548 E53.51351
G1 X67.597 Y64.008 E53.56526
G1 X68.198 Y62.478 E53.71470
G1 X68.588 Y61.668 E53.79645
G1 X69.257 Y60.468 E53.92142
G1 X69.588 Y59.928 E53.97896
G1 X69.920 Y59.502 E54.02810
G1 F1800.000 E53.02810
G92 E0
G1 X124.691 Y58.828 F7800.000
G1 E1.00000 F1800.000
G1 X125.910 Y58.828 E1.11084 F540.000
G1 X125.910 Y60.474 E1.26055
G1 X125.262 Y60.577 E1.32018
G1 X124.720 Y58.917 E1.47901
G1 F1800.000 E0.47901
G92 E0
G1 X144.110 Y60.555 F7800.000
G1 E1.00000 F1800.000
G1 X144.147 Y60.250 E1.02799 F540.000
G1 X144.245 Y59.760 E1.07336
G1 X144.308 Y59.558 E1.09267
G1 X144.468 Y59.222 E1.12645
G1 X144.679 Y58.953 E1.15761
G1 X144.814 Y58.846 E1.17322
G1 X144.964 Y58.767 E1.18867
G1 X145.128 Y58.719 E1.20416
G1 X145.295 Y58.702 E1.21944
G1 X145.454 Y58.715 E1.23393
G1 X145.607 Y58.753 E1.24833
G1 X145.752 Y58.819 E1.26282
G1 X145.881 Y58.907 E1.27698
G1 X145.994 Y59.016 E1.29130
G1 X146.173 Y59.277 E1.32008
G1 X146.300 Y59.577 E1.34967
G1 X146.402 Y59.922 E1.38232
G1 X146.515 Y60.426 E1.42934
G1 X147.717 Y59.629 E1.56047
G1 X147.717 Y66.490 E2.18432
G1 X146.340 Y66.490 E2.30954
G1 X146.748 Y65.515 E2.40562
G1 X146.895 Y65.019 E2.45268
G1 X147.074 Y64.272 E2.52255
G1 X146.459 Y63.970 E2.58485
G1 X146.252 Y64.520 E2.63832
G1 X146.055 Y64.845 E2.67282
G1 X145.937 Y64.976 E2.68885
G1 X145.791 Y65.093 E2.70587
G1 X145.533 Y65.204 E2.73138
G1 X145.341 Y65.227 E2.74895
G1 X145.147 Y65.204 E2.76670
G1 X144.962 Y65.136 E2.78466
G1 X144.796 Y65.030 E2.80263
G1 X144.651 Y64.890 E2.82090
G1 X144.531 Y64.726 E2.83935
G1 X144.429 Y64.543 E2.85846
G1 X144.263 Y64.113 E2.90037
G1 X144.167 Y63.708 E2.93818
G1 X144.101 Y63.225 E2.98252
G1 X144.057 Y62.724 E3.02821
G1 X144.051 Y62.005 E3.09364
G1 X144.066 Y61.209 E3.16605
G1 X144.102 Y60.649 E3.21708
G1 F1800.000 E2.21708
G92 E0
G1 X131.097 Y59.031 F7800.000
G1 E1.00000 F1800.000
G1 X131.097 Y66.222 E1.65393 F540.000
G1 X130.199 Y66.358 E1.73645
G1 X129.658 Y66.503 E1.78738
G1 X129.145 Y66.704 E1.83749
G1 X128.303 Y67.152 E1.92427
G1 X128.303 Y59.031 E2.66276
G1 X131.003 Y59.031 E2.90829
G1 F1800.000 E1.90829
G92 E0
G1 X141.063 Y62.043 F7800.000
G1 E1.00000 F1800.000
G1 X141.320 Y61.222 E1.07825 F540.000
G1 X141.974 Y61.322 E1.13835
G1 X141.974 Y66.705 E1.62779
G1 X142.628 Y66.705 E1.68726
G1 X142.628 Y63.495 E1.97913
G1 X143.363 Y63.447 E2.04615
G1 X143.449 Y64.099 E2.10597
G1 X143.592 Y64.831 E2.17377
G1 X143.781 Y65.453 E2.23289
G1 X144.040 Y66.015 E2.28912
G1 X144.196 Y66.257 E2.31536
G1 X144.360 Y66.455 E2.33879
G1 X144.531 Y66.612 E2.35983
G1 X144.708 Y66.728 E2.37912
G1 X144.895 Y66.810 E2.39767
G1 X145.391 Y66.934 E2.44416
G1 X141.889 Y73.577 E3.12700
G1 X139.323 Y70.667 E3.47982
G1 X139.323 Y66.705 E3.84007
G1 X139.613 Y66.705 E3.86647
G1 X141.036 Y62.133 E4.30183
G1 F1800.000 E3.30183
G92 E0
G1 X109.163 Y76.892 F7800.000
G1 E1.00000 F1800.000
G1 X107.451 Y79.248 E1.26482 F540.000
G1 X104.681 Y78.348 E1.52965
G1 X104.681 Y75.435 E1.79447
G1 X107.451 Y74.535 E2.05929
G1 X109.108 Y76.816 E2.31559
G1 X108.391 Y76.892 F7800.000
G1 X107.213 Y78.513 E2.49785 F540.000
G1 X105.306 Y77.894 E2.68011
G1 X105.306 Y75.889 E2.86237
G1 X107.213 Y75.270 E3.04462
G1 X108.336 Y76.816 E3.21836
G1 X107.618 Y76.892 F7800.000
G1 X106.974 Y77.779 E3.31805 F540.000
G1 X105.931 Y77.440 E3.41774
G1 X105.931 Y76.343 E3.51744
G1 X106.974 Y76.005 E3.61713
G1 X107.563 Y76.816 E3.70830
G1 F1800.000 E2.70830
G92 E0
G1 X102.169 Y89.584 F7800.000
G1 E1.00000 F1800.000
G1 X95.604 Y89.855 E1.59742 F540.000
G1 X95.569 Y88.657 E1.70641
G1 X92.534 Y88.511 E1.98270
G1 X92.399 Y89.581 E2.08073
G1 X89.344 Y89.903 E2.36001
G1 X78.733 Y88.721 E3.33083
G1 X77.736 Y81.009 E4.03792
G1 X74.997 Y80.704 E4.28851
G1 X74.722 Y80.248 E4.33692
G1 X74.399 Y79.282 E4.42957
G1 X74.146 Y77.911 E4.55633
G1 X74.009 Y76.243 E4.70846
G1 X74.007 Y74.378 E4.87807
G1 X74.144 Y72.418 E5.05672
G1 X74.413 Y70.461 E5.23633
G1 X74.801 Y68.607 E5.40863
G1 X75.283 Y66.951 E5.56548
G1 X75.825 Y65.588 E5.69883
G1 X76.367 Y64.613 E5.80022
G1 X76.820 Y64.079 E5.86387
G1 X79.580 Y64.374 E6.11633
G1 X83.557 Y57.216 E6.86089
G1 X96.365 Y58.642 E8.03276
G1 X96.578 Y58.260 E8.07250
G1 X122.837 Y57.176 E10.46224
G1 X124.405 Y61.979 E10.92168
G1 X125.399 Y61.821 E11.01319
G1 X125.399 Y65.022 E11.30426
G1 X126.061 Y67.050 E11.49822
G1 X127.053 Y66.892 E11.58954
G1 X127.053 Y69.232 E11.80236
G1 X127.210 Y69.149 E11.81856
G1 X127.337 Y69.271 E11.83459
G1 X127.006 Y69.941 E11.90254
G1 X128.915 Y75.788 E12.46183
G1 X123.889 Y84.835 E13.40283
G1 X122.689 Y85.227 E13.51767
G1 X122.724 Y87.613 E13.73470
G1 X164.622 Y99.952 E17.70624
G1 X165.300 Y98.782 E17.82923
G1 X165.753 Y98.220 E17.89481
G1 X165.936 Y98.928 E17.96127
G1 X165.988 Y99.455 E18.00940
G1 X165.968 Y100.056 E18.06414
G1 X165.870 Y100.688 E18.12223
G1 X165.699 Y101.303 E18.18029
G1 X165.469 Y101.859 E18.23506
G1 X165.203 Y102.317 E18.28317
G1 X164.744 Y102.886 E18.34964
G1 X164.564 Y102.188 E18.41516
G1 X164.429 Y100.843 E18.53815
G1 X106.274 Y92.679 E23.87804
G1 X105.190 Y92.444 E23.97888
G1 X104.278 Y92.035 E24.06976
G1 X103.472 Y91.444 E24.16068
G1 X102.805 Y90.697 E24.25164
G1 X102.215 Y89.665 E24.35974
G1 X101.815 Y90.224 F7800.000
G1 X94.998 Y90.506 E24.98009 F540.000
G1 X94.961 Y89.253 E25.09400
G1 X93.081 Y89.163 E25.26513
G1 X92.957 Y90.151 E25.35563
G1 X89.541 Y90.511 E25.66791
G1 X89.519 Y90.551 E25.67213
G1 X78.176 Y89.288 E26.70986
G1 X77.179 Y81.576 E27.41695
G1 X74.766 Y81.307 E27.63773
G1 X74.521 Y81.124 E27.66557
G1 X74.151 Y80.512 E27.73055
G1 X73.792 Y79.438 E27.83350
G1 X73.525 Y77.993 E27.96711
G1 X73.384 Y76.269 E28.12440
G1 X73.382 Y74.357 E28.29831
G1 X73.522 Y72.354 E28.48088
G1 X73.797 Y70.355 E28.66437
G1 X74.194 Y68.455 E28.84084
G1 X74.692 Y66.747 E29.00259
G1 X75.259 Y65.320 E29.14229
G1 X75.850 Y64.256 E29.25295
G1 X76.380 Y63.632 E29.32734
G1 X76.692 Y63.450 E29.36020
G1 X77.042 Y63.462 E29.39206
G1 X79.236 Y63.706 E29.59283
G1 X83.213 Y56.548 E30.33739
G1 X96.021 Y57.975 E31.50925
G1 X96.202 Y57.650 E31.54304
G1 X123.284 Y56.532 E34.00769
G1 X124.834 Y61.278 E34.46168
G1 X126.024 Y61.089 E34.57127
G1 X126.024 Y64.922 E34.91987
G1 X126.490 Y66.349 E35.05631
G1 X127.678 Y66.160 E35.16571
G1 X127.678 Y68.192 E35.35053
G1 X129.545 Y67.199 E35.54287
G1 X129.806 Y67.605 E35.58674
G1 X128.870 Y68.319 E35.69377
G1 X128.545 Y68.630 E35.73465
G1 X128.243 Y68.987 E35.77719
G1 X127.969 Y69.403 E35.82252
G1 X127.679 Y69.990 E35.88199
G1 X129.594 Y75.853 E36.44288
G1 X124.316 Y85.352 E37.43098
G1 X123.320 Y85.678 E37.52626
G1 X123.342 Y87.144 E37.65958
G1 X164.327 Y99.214 E41.54463
G1 X164.783 Y98.426 E41.62736
G1 X165.115 Y98.016 E41.67536
G1 X165.427 Y97.752 E41.71253
G1 X165.670 Y97.633 E41.73709
G1 X165.885 Y97.601 E41.75691
G1 X166.071 Y97.723 E41.77710
G1 X166.246 Y97.938 E41.80231
G1 X166.421 Y98.308 E41.83953
G1 X166.553 Y98.818 E41.88744
G1 X166.614 Y99.434 E41.94372
G1 X166.592 Y100.115 E42.00567
G1 X166.482 Y100.820 E42.07053
G1 X166.291 Y101.507 E42.13538
G1 X166.030 Y102.137 E42.19735
G1 X165.720 Y102.672 E42.25362
G1 X165.389 Y103.082 E42.30153
G1 X165.076 Y103.347 E42.33881
G1 X164.827 Y103.471 E42.36413
G1 X164.609 Y103.505 E42.38417
G1 X164.426 Y103.387 E42.40398
G1 X164.254 Y103.179 E42.42853
G1 X164.079 Y102.810 E42.46571
G1 X163.947 Y102.298 E42.51371
G1 X163.856 Y101.393 E42.59644
G1 X106.164 Y93.294 E47.89379
G1 X104.993 Y93.041 E48.00270
G1 X103.962 Y92.577 E48.10554
G1 X103.049 Y91.909 E48.20841
G1 X102.296 Y91.065 E48.31133
G1 X101.861 Y90.305 E48.39084
G1 X131.661 Y67.321 F7800.000
G1 X131.833 Y66.779 E48.44252 F540.000
G1 X132.988 Y67.106 E48.55166
G1 X133.327 Y67.236 E48.58468
G1 X133.644 Y67.392 E48.61679
G1 X133.939 Y67.576 E48.64845
G1 X134.218 Y67.788 E48.68032
G1 X134.479 Y68.032 E48.71278
G1 X134.726 Y68.312 E48.74673
G1 X134.957 Y68.627 E48.78229
G1 X135.172 Y68.982 E48.81998
G1 X135.373 Y69.379 E48.86042
G1 X135.620 Y69.971 E48.91883
G1 X134.918 Y70.218 E48.98653
G1 X134.696 Y69.692 E49.03845
G1 X134.518 Y69.343 E49.07406
G1 X134.317 Y69.021 E49.10859
G1 X134.094 Y68.722 E49.14254
G1 X133.844 Y68.451 E49.17600
G1 X133.582 Y68.216 E49.20801
G1 X133.305 Y68.010 E49.23943
G1 X133.009 Y67.832 E49.27081
G1 X132.697 Y67.685 E49.30218
G1 X131.750 Y67.352 E49.39349
G1 F1800.000 E48.39349
G92 E0
G1 X138.004 Y67.115 F7800.000
G1 E1.00000 F1800.000
G1 X138.698 Y67.115 E1.06313 F540.000
G1 X138.698 Y79.711 E2.20849
G1 X138.004 Y79.711 E2.27162
G1 X138.004 Y67.208 E3.40847
G1 F1800.000 E2.40847
G92 E0
G1 X142.599 Y62.871 F7800.000
G1 E1.00000 F1800.000
G1 X142.599 Y61.109 E1.16017 F540.000
G1 X143.442 Y61.163 E1.23705
G1 X143.433 Y62.816 E1.38731
G1 X142.692 Y62.864 E1.45483
G1 X146.002 Y67.115 F7800.000
G1 X147.134 Y67.115 E1.55774 F540.000
G1 X142.382 Y75.233 E2.41307
G1 X141.872 Y74.949 E2.46619
G1 X145.959 Y67.197 E3.26298
G1 X142.901 Y75.659 F7800.000
G1 X146.426 Y79.711 E3.75136 F540.000
G1 X145.471 Y79.711 E3.83819
G1 X142.443 Y76.047 E4.27037
G1 X142.829 Y75.719 E4.31647
G1 F1800.000 E3.31647
G92 E0
G1 X135.542 Y77.358 F7800.000
G1 E1.00000 F1800.000
G1 X135.203 Y78.047 E1.06976 F540.000
G1 X134.895 Y78.495 E1.11922
G1 X134.732 Y78.679 E1.14157
G1 X134.413 Y78.984 E1.18169
G1 X134.078 Y79.240 E1.22004
G1 X133.723 Y79.456 E1.25786
G1 X133.344 Y79.634 E1.29591
G1 X132.939 Y79.773 E1.33487
G1 X131.868 Y80.022 E1.43487
G1 X131.722 Y79.484 E1.48558
G1 X132.711 Y79.176 E1.57977
G1 X133.015 Y79.046 E1.60984
G1 X133.304 Y78.890 E1.63967
G1 X133.580 Y78.705 E1.66989
G1 X133.833 Y78.498 E1.69968
G1 X134.071 Y78.269 E1.72974
G1 X134.289 Y78.017 E1.75996
G1 X134.485 Y77.747 E1.79032
G1 X134.805 Y77.162 E1.85096
G1 X135.451 Y77.334 E1.91172
G1 X135.690 Y76.751 F7800.000
G1 X136.348 Y76.924 E1.97359 F378.000
G1 X136.056 Y77.735 E2.05191
G1 X135.742 Y78.364 E2.11588
G1 X135.381 Y78.889 E2.17383
G1 X135.183 Y79.113 E2.20097
G1 X134.820 Y79.459 E2.24663
G1 X134.432 Y79.756 E2.29107
G1 X134.019 Y80.008 E2.33502
G1 X133.579 Y80.214 E2.37919
G1 X133.112 Y80.375 E2.42412
G1 X132.616 Y80.490 E2.47041
G1 X132.090 Y80.560 E2.51862
G1 X131.536 Y80.582 E2.56911
G1 X130.896 Y80.553 E2.62730
G1 X130.295 Y80.464 E2.68260
G1 X129.728 Y80.316 E2.73584
G1 X129.195 Y80.110 E2.78784
G1 X128.693 Y79.846 E2.83941
G1 X128.256 Y79.547 E2.88752
G1 X124.743 Y85.870 E3.54523
G1 X123.952 Y86.129 E3.62096
G1 X123.960 Y86.674 E3.67057
G1 X164.033 Y98.475 E7.46911
G1 X164.267 Y98.071 E7.51159
G1 X164.666 Y97.577 E7.56938
G1 X165.082 Y97.225 E7.61887
G1 X165.483 Y97.028 E7.65951
G1 X165.850 Y96.975 E7.69322
G1 X166.182 Y97.049 E7.72417
G1 X166.495 Y97.253 E7.75813
G1 X166.779 Y97.602 E7.79903
G1 X167.011 Y98.094 E7.84853
G1 X167.170 Y98.708 E7.90620
G1 X167.240 Y99.413 E7.97063
G1 X167.215 Y100.174 E8.03979
G1 X167.094 Y100.952 E8.11143
G1 X166.883 Y101.711 E8.18306
G1 X166.592 Y102.414 E8.25224
G1 X166.236 Y103.027 E8.31665
G1 X165.838 Y103.521 E8.37433
G1 X165.423 Y103.873 E8.42387
G1 X165.019 Y104.074 E8.46489
G1 X164.651 Y104.131 E8.49870
G1 X164.318 Y104.061 E8.52963
G1 X164.006 Y103.861 E8.56335
G1 X163.722 Y103.516 E8.60398
G1 X163.489 Y103.024 E8.65348
G1 X163.330 Y102.409 E8.71127
G1 X163.283 Y101.944 E8.75375
G1 X106.054 Y93.910 E14.00855
G1 X104.797 Y93.638 E14.12553
G1 X103.646 Y93.120 E14.24033
G1 X102.627 Y92.374 E14.35516
G1 X101.786 Y91.432 E14.47001
