; generated by Slic3r 1.0.0RC2 on 2014-02-05 at 14:55:48

; layer_height = 0.25
; perimeters = 1
; top_solid_layers = 2
; bottom_solid_layers = 2
; fill_density = 0.135
; perimeter_speed = 30
; infill_speed = 60
; travel_speed = 130
; nozzle_diameter = 0.35
; filament_diameter = 1.75
; extrusion_multiplier = 1
; perimeters extrusion width = 0.35mm
; infill extrusion width = 0.39mm
; solid infill extrusion width = 0.39mm
; top infill extrusion width = 0.39mm
; first layer extrusion width = 0.70mm

G21 ; set units to millimeters
M107
M104 S220 ; set temperature
G28 ; home all axes
G1 Z5 F5000 ; lift nozzle

M109 S220 ; wait for temperature to be reached
G90 ; use absolute coordinates
G92 E0
M82 ; use absolute distances for extrusion
G1 F1800.000 E-1.00000
G92 E0
G1 Z0.350 F7800.000
G1 X69.528 Y59.290 F7800.000
G1 E1.00000 F1800.000
G1 X70.457 Y58.210 E1.12960 F540.000
G1 X77.388 Y50.840 E2.04948
G1 X78.468 Y49.900 E2.17967
G1 X79.718 Y49.190 E2.31039
G1 X81.088 Y48.730 E2.44179
G1 X82.517 Y48.560 E2.57274
G1 X111.297 Y47.950 E5.19028
G1 X133.957 Y47.960 E7.25074
G1 X135.097 Y48.050 E7.35473
G1 X136.058 Y48.240 E7.44371
G1 X136.697 Y48.430 E7.50442
G1 X137.397 Y48.710 E7.57297
G1 X138.447 Y49.260 E7.68075
G1 X139.267 Y49.830 E7.77156
G1 X140.017 Y50.500 E7.86301
G1 X140.767 Y51.340 E7.96540
G1 X172.827 Y93.320 E12.76848
G1 X173.248 Y93.930 E12.83583
G1 X173.597 Y94.570 E12.90216
G1 X173.868 Y95.130 E12.95869
G1 X174.147 Y95.800 E13.02472
G1 X174.368 Y96.500 E13.09144
G1 X174.537 Y97.170 E13.15429
G1 X174.718 Y98.190 E13.24847
G1 X174.798 Y98.950 E13.31796
G1 X174.827 Y99.980 E13.41166
G1 X174.798 Y100.780 E13.48445
G1 X174.718 Y101.650 E13.56389
G1 X174.587 Y102.470 E13.63939
G1 X174.417 Y103.250 E13.71198
G1 X174.197 Y104.050 E13.78742
G1 X173.897 Y104.930 E13.87196
G1 X173.587 Y105.670 E13.94491
G1 X173.218 Y106.430 E14.02178
G1 X172.707 Y107.310 E14.11426
G1 X172.188 Y108.050 E14.19650
G1 X171.757 Y108.590 E14.25927
G1 X171.267 Y109.140 E14.32625
G1 X170.727 Y109.640 E14.39317
G1 X170.248 Y110.040 E14.44998
G1 X169.548 Y110.550 E14.52873
G1 X168.798 Y110.980 E14.60734
G1 X168.308 Y111.220 E14.65696
G1 X167.327 Y111.610 E14.75287
G1 X166.308 Y111.860 E14.84836
G1 X165.827 Y111.940 E14.89261
G1 X164.647 Y112.040 E15.00029
G1 X163.468 Y111.940 E15.10797
G1 X76.138 Y97.630 E23.15475
G1 X74.748 Y97.260 E23.28555
G1 X73.448 Y96.620 E23.41730
G1 X72.317 Y95.740 E23.54754
G1 X71.377 Y94.640 E23.67910
G1 X70.668 Y93.390 E23.80982
G1 X66.617 Y84.140 E24.72801
G1 X66.388 Y83.560 E24.78474
G1 X65.968 Y82.320 E24.90379
G1 X65.698 Y81.270 E25.00237
G1 X65.418 Y79.710 E25.14649
G1 X65.328 Y79.030 E25.20886
G1 X65.177 Y77.210 E25.37491
G1 X65.157 Y76.610 E25.42950
G1 X65.157 Y74.630 E25.60954
G1 X65.317 Y72.070 E25.84277
G1 X65.367 Y71.590 E25.88665
G1 X65.727 Y69.010 E26.12353
G1 X66.138 Y67.040 E26.30650
G1 X66.287 Y66.460 E26.36097
G1 X66.817 Y64.670 E26.53072
G1 X67.017 Y64.080 E26.58737
G1 X67.617 Y62.550 E26.73680
G1 X68.037 Y61.670 E26.82547
G1 X68.707 Y60.470 E26.95044
G1 X69.088 Y59.860 E27.01579
G1 X69.470 Y59.364 E27.07274
G1 X69.998 Y59.700 F7800.000
G1 X70.907 Y58.640 E27.19977 F540.000
G1 X77.838 Y51.270 E28.11965
G1 X78.828 Y50.410 E28.23890
G1 X79.977 Y49.760 E28.35901
G1 X81.218 Y49.340 E28.47806
G1 X82.528 Y49.190 E28.59795
G1 X111.308 Y48.580 E31.21549
G1 X133.947 Y48.590 E33.27414
G1 X134.998 Y48.670 E33.36989
G1 X135.907 Y48.840 E33.45407
G1 X136.488 Y49.020 E33.50929
G1 X137.147 Y49.280 E33.57379
G1 X138.108 Y49.790 E33.67264
G1 X138.877 Y50.320 E33.75764
G1 X139.577 Y50.950 E33.84327
G1 X140.277 Y51.720 E33.93789
G1 X172.337 Y93.700 E38.74098
G1 X172.718 Y94.250 E38.80176
G1 X173.037 Y94.840 E38.86280
G1 X173.308 Y95.400 E38.91933
G1 X173.567 Y96.020 E38.98046
G1 X173.757 Y96.650 E39.04029
G1 X173.928 Y97.320 E39.10315
G1 X174.097 Y98.260 E39.19001
G1 X174.178 Y99.020 E39.25949
G1 X174.207 Y99.960 E39.34501
G1 X174.178 Y100.760 E39.41781
G1 X174.097 Y101.550 E39.49001
G1 X173.968 Y102.370 E39.56550
G1 X173.817 Y103.090 E39.63238
G1 X173.597 Y103.890 E39.70782
G1 X173.317 Y104.690 E39.78489
G1 X173.007 Y105.430 E39.85785
G1 X172.667 Y106.120 E39.92779
G1 X172.178 Y106.980 E40.01779
G1 X171.697 Y107.660 E40.09348
G1 X171.267 Y108.200 E40.15624
G1 X170.827 Y108.700 E40.21681
G1 X170.327 Y109.160 E40.27859
G1 X169.847 Y109.560 E40.33540
G1 X169.207 Y110.030 E40.40760
G1 X168.517 Y110.420 E40.47967
G1 X168.027 Y110.660 E40.52928
G1 X167.137 Y111.020 E40.61658
G1 X166.207 Y111.240 E40.70348
G1 X165.727 Y111.320 E40.74773
G1 X164.647 Y111.410 E40.84627
G1 X163.567 Y111.330 E40.94475
G1 X76.237 Y97.020 E48.99153
G1 X74.968 Y96.680 E49.11108
G1 X73.787 Y96.090 E49.23104
G1 X72.748 Y95.280 E49.35090
G1 X71.888 Y94.290 E49.47015
G1 X71.237 Y93.140 E49.59026
G1 X67.188 Y83.890 E50.50845
G1 X66.987 Y83.360 E50.55996
G1 X66.567 Y82.120 E50.67900
G1 X66.317 Y81.160 E50.76921
G1 X66.037 Y79.600 E50.91332
G1 X65.957 Y78.970 E50.97107
G1 X65.808 Y77.150 E51.13712
G1 X65.787 Y76.610 E51.18626
G1 X65.797 Y74.180 E51.40722
G1 X65.977 Y71.670 E51.63604
G1 X66.257 Y69.600 E51.82598
G1 X66.338 Y69.140 E51.86843
G1 X66.748 Y67.170 E52.05140
G1 X66.888 Y66.640 E52.10125
G1 X67.418 Y64.850 E52.27100
G1 X67.597 Y64.310 E52.32275
G1 X68.198 Y62.780 E52.47219
G1 X68.588 Y61.970 E52.55394
G1 X69.257 Y60.770 E52.67891
G1 X69.597 Y60.220 E52.73770
G1 X69.940 Y59.774 E52.78883
G1 F1800.000 E51.78883
G92 E0
G1 X126.804 Y67.620 F7800.000
G1 E1.00000 F1800.000
G1 X127.710 Y66.939 E1.10305 F540.000
G1 X128.198 Y66.644 E1.15492
G1 X128.716 Y66.405 E1.20679
G1 X129.257 Y66.219 E1.25875
G1 X129.819 Y66.089 E1.31127
G1 X130.401 Y66.011 E1.36465
G1 X131.002 Y65.985 E1.41933
G1 X131.601 Y66.011 E1.47391
G1 X132.184 Y66.087 E1.52732
G1 X132.744 Y66.218 E1.57963
G1 X133.283 Y66.401 E1.63139
G1 X133.798 Y66.641 E1.68306
G1 X134.281 Y66.932 E1.73435
G1 X134.733 Y67.274 E1.78582
G1 X135.160 Y67.670 E1.83885
G1 X135.552 Y68.129 E1.89371
G1 X135.893 Y68.639 E1.94946
G1 X136.174 Y69.194 E2.00608
G1 X136.400 Y69.786 E2.06372
G1 X136.573 Y70.419 E2.12335
G1 X136.694 Y71.086 E2.18501
G1 X136.764 Y71.789 E2.24925
G1 X136.788 Y72.527 E2.31638
G1 X136.765 Y73.258 E2.38283
G1 X136.696 Y73.949 E2.44598
G1 X136.579 Y74.607 E2.50681
G1 X136.410 Y75.228 E2.56526
G1 X136.190 Y75.814 E2.62218
G1 X135.912 Y76.360 E2.67797
G1 X135.578 Y76.862 E2.73271
G1 X135.193 Y77.307 E2.78626
G1 X134.775 Y77.698 E2.83833
G1 X134.320 Y78.036 E2.88984
G1 X133.835 Y78.323 E2.94111
G1 X133.317 Y78.556 E2.99273
G1 X132.773 Y78.735 E3.04477
G1 X132.204 Y78.862 E3.09780
G1 X131.613 Y78.935 E3.15203
G1 X131.002 Y78.959 E3.20762
G1 X130.388 Y78.935 E3.26347
G1 X129.797 Y78.859 E3.31761
G1 X128.282 Y78.523 E3.45879
G1 X129.594 Y76.161 E3.70443
G1 X126.833 Y67.709 E4.51294
G1 X127.537 Y67.851 F7800.000
G1 X128.060 Y67.457 E4.57244 F540.000
G1 X128.491 Y67.197 E4.61828
G1 X128.949 Y66.985 E4.66413
G1 X129.429 Y66.821 E4.71027
G1 X129.932 Y66.704 E4.75718
G1 X130.456 Y66.634 E4.80528
G1 X131.002 Y66.610 E4.85495
G1 X131.547 Y66.634 E4.90460
G1 X132.072 Y66.703 E4.95269
G1 X132.572 Y66.820 E4.99943
G1 X133.050 Y66.982 E5.04534
G1 X133.504 Y67.193 E5.09088
G1 X133.930 Y67.451 E5.13613
G1 X134.331 Y67.753 E5.18177
G1 X134.709 Y68.104 E5.22865
G1 X135.053 Y68.507 E5.27687
G1 X135.352 Y68.955 E5.32584
G1 X135.602 Y69.448 E5.37609
G1 X135.806 Y69.981 E5.42798
G1 X135.963 Y70.557 E5.48232
G1 X136.075 Y71.173 E5.53922
G1 X136.140 Y71.831 E5.59930
G1 X136.163 Y72.528 E5.66271
G1 X136.141 Y73.217 E5.72540
G1 X136.077 Y73.863 E5.78445
G1 X135.969 Y74.470 E5.84056
G1 X135.815 Y75.035 E5.89380
G1 X135.617 Y75.561 E5.94487
G1 X135.371 Y76.045 E5.99420
G1 X135.080 Y76.483 E6.04206
G1 X134.742 Y76.874 E6.08901
G1 X134.374 Y77.218 E6.13484
G1 X133.974 Y77.515 E6.18012
G1 X133.547 Y77.767 E6.22525
G1 X133.091 Y77.972 E6.27076
G1 X132.607 Y78.131 E6.31706
G1 X132.098 Y78.246 E6.36453
G1 X131.562 Y78.312 E6.41360
G1 X131.002 Y78.334 E6.46459
G1 X130.440 Y78.312 E6.51567
G1 X129.905 Y78.243 E6.56472
G1 X129.235 Y78.094 E6.62718
G1 X130.272 Y76.227 E6.82145
G1 X127.566 Y67.940 E7.61413
G1 F1800.000 E6.61413
G92 E0
G1 X109.163 Y77.200 F7800.000
G1 E1.00000 F1800.000
G1 X107.451 Y79.556 E1.26482 F540.000
G1 X104.681 Y78.656 E1.52965
G1 X104.681 Y75.743 E1.79447
G1 X107.451 Y74.844 E2.05929
G1 X109.108 Y77.124 E2.31559
G1 X108.391 Y77.200 F7800.000
G1 X107.213 Y78.821 E2.49785 F540.000
G1 X105.306 Y78.202 E2.68011
G1 X105.306 Y76.198 E2.86237
G1 X107.213 Y75.578 E3.04462
G1 X108.336 Y77.124 E3.21836
G1 X107.618 Y77.200 F7800.000
G1 X106.974 Y78.087 E3.31805 F540.000
G1 X105.931 Y77.748 E3.41774
G1 X105.931 Y76.652 E3.51743
G1 X106.974 Y76.313 E3.61713
G1 X107.563 Y77.124 E3.70830
G1 F1800.000 E2.70830
G92 E0
G1 X102.169 Y89.892 F7800.000
G1 E1.00000 F1800.000
G1 X95.604 Y90.163 E1.59742 F540.000
G1 X95.569 Y88.965 E1.70641
G1 X92.534 Y88.820 E1.98270
G1 X92.399 Y89.889 E2.08073
G1 X89.344 Y90.211 E2.36001
G1 X78.733 Y89.029 E3.33083
G1 X77.736 Y81.317 E4.03792
G1 X74.997 Y81.012 E4.28851
G1 X74.722 Y80.556 E4.33692
G1 X74.399 Y79.590 E4.42957
G1 X74.146 Y78.219 E4.55633
G1 X74.009 Y76.551 E4.70846
G1 X74.007 Y74.686 E4.87807
G1 X74.144 Y72.726 E5.05672
G1 X74.413 Y70.769 E5.23633
G1 X74.801 Y68.915 E5.40863
G1 X75.283 Y67.259 E5.56548
G1 X75.825 Y65.896 E5.69882
G1 X76.367 Y64.921 E5.80022
G1 X76.820 Y64.387 E5.86387
G1 X79.580 Y64.682 E6.11633
G1 X83.557 Y57.524 E6.86089
G1 X96.365 Y58.950 E8.03276
G1 X96.578 Y58.568 E8.07250
G1 X110.780 Y57.982 E9.36499
G1 X111.369 Y56.674 E9.49540
G1 X111.972 Y57.933 E9.62224
G1 X119.690 Y57.614 E10.32465
G1 X120.275 Y56.615 E10.42993
G1 X120.891 Y57.564 E10.53289
G1 X122.837 Y57.484 E10.70990
G1 X123.587 Y59.783 E10.92982
G1 X123.144 Y60.119 E10.98037
G1 X123.812 Y60.469 E11.04892
G1 X123.875 Y60.663 E11.06743
G1 X124.179 Y60.663 E11.09510
G1 X125.389 Y61.299 E11.21942
G1 X125.505 Y61.599 E11.24865
G1 X125.574 Y61.884 E11.27533
G1 X125.623 Y62.262 E11.31004
G1 X125.641 Y62.737 E11.35325
G1 X125.617 Y63.274 E11.40212
G1 X125.580 Y63.560 E11.42829
G1 X125.500 Y63.897 E11.45979
G1 X125.169 Y64.625 E11.53257
G1 X128.915 Y76.096 E12.62983
G1 X123.889 Y85.143 E13.57083
G1 X122.689 Y85.535 E13.68567
G1 X122.724 Y87.921 E13.90270
G1 X164.622 Y100.260 E17.87424
G1 X165.300 Y99.090 E17.99723
G1 X165.753 Y98.528 E18.06282
G1 X165.936 Y99.236 E18.12927
G1 X165.988 Y99.763 E18.17741
G1 X165.968 Y100.364 E18.23215
G1 X165.870 Y100.996 E18.29024
G1 X165.699 Y101.611 E18.34830
G1 X165.469 Y102.167 E18.40306
G1 X165.203 Y102.625 E18.45118
G1 X164.744 Y103.194 E18.51764
G1 X164.564 Y102.496 E18.58317
G1 X164.429 Y101.151 E18.70615
G1 X106.615 Y93.035 E24.01468
G1 X106.615 Y93.061 E24.01703
G1 X105.190 Y92.753 E24.14965
G1 X104.278 Y92.343 E24.24053
G1 X103.472 Y91.752 E24.33145
G1 X102.805 Y91.005 E24.42242
G1 X102.215 Y89.973 E24.53051
G1 X101.815 Y90.532 F7800.000
G1 X94.998 Y90.814 E25.15087 F540.000
G1 X94.961 Y89.562 E25.26477
G1 X93.081 Y89.471 E25.43590
G1 X92.957 Y90.459 E25.52640
G1 X89.541 Y90.819 E25.83868
G1 X89.519 Y90.859 E25.84290
G1 X78.176 Y89.596 E26.88063
G1 X77.179 Y81.884 E27.58772
G1 X74.766 Y81.615 E27.80850
G1 X74.521 Y81.432 E27.83634
G1 X74.151 Y80.820 E27.90132
G1 X73.792 Y79.746 E28.00427
G1 X73.525 Y78.301 E28.13789
G1 X73.384 Y76.577 E28.29518
G1 X73.382 Y74.665 E28.46908
G1 X73.522 Y72.662 E28.65165
G1 X73.797 Y70.663 E28.83514
G1 X74.194 Y68.763 E29.01161
G1 X74.692 Y67.055 E29.17336
G1 X75.259 Y65.628 E29.31306
G1 X75.850 Y64.564 E29.42372
G1 X76.380 Y63.940 E29.49811
G1 X76.692 Y63.758 E29.53097
G1 X77.042 Y63.770 E29.56283
G1 X79.236 Y64.014 E29.76360
G1 X83.213 Y56.857 E30.50816
G1 X96.021 Y58.283 E31.68002
G1 X96.202 Y57.958 E31.71382
G1 X110.369 Y57.373 E33.00311
G1 X110.638 Y56.775 E33.06281
G1 X110.851 Y56.424 E33.10010
G1 X110.950 Y56.324 E33.11292
G1 X111.052 Y56.258 E33.12401
G1 X111.179 Y56.208 E33.13642
G1 X111.346 Y56.180 E33.15177
G1 X111.524 Y56.178 E33.16797
G1 X111.670 Y56.210 E33.18159
G1 X111.763 Y56.264 E33.19132
G1 X111.848 Y56.346 E33.20205
G1 X112.067 Y56.684 E33.23868
G1 X112.357 Y57.291 E33.29989
G1 X119.323 Y57.004 E33.93382
G1 X119.619 Y56.498 E33.98711
G1 X119.757 Y56.321 E34.00751
G1 X119.908 Y56.246 E34.02281
G1 X120.352 Y56.176 E34.06369
G1 X120.584 Y56.195 E34.08486
G1 X120.716 Y56.246 E34.09768
G1 X120.796 Y56.301 E34.10651
G1 X120.896 Y56.424 E34.12098
G1 X121.221 Y56.925 E34.17529
G1 X123.510 Y56.831 E34.38354
G1 X123.510 Y57.533 E34.44737
G1 X124.320 Y60.012 E34.68455
G1 X124.305 Y60.023 E34.68618
G1 X125.793 Y60.815 E34.83945
G1 X125.879 Y60.915 E34.85144
G1 X125.956 Y61.047 E34.86530
G1 X126.101 Y61.412 E34.90103
G1 X126.189 Y61.770 E34.93459
G1 X126.246 Y62.211 E34.97501
G1 X126.266 Y62.737 E35.02281
G1 X126.240 Y63.332 E35.07701
G1 X126.196 Y63.667 E35.10769
G1 X126.095 Y64.086 E35.14690
G1 X126.015 Y64.303 E35.16794
G1 X125.840 Y64.669 E35.20482
G1 X126.362 Y66.267 E35.35763
G1 X127.843 Y65.664 E35.50305
G1 X128.596 Y65.440 E35.57443
G1 X128.596 Y64.364 E35.67231
G1 X130.501 Y64.364 E35.84555
G1 X130.501 Y65.157 E35.91767
G1 X133.293 Y65.258 E36.17173
G1 X133.164 Y64.786 E36.21621
G1 X134.102 Y64.848 E36.30168
G1 X133.733 Y65.495 E36.36941
G1 X134.797 Y65.934 E36.47406
G1 X135.403 Y66.261 E36.53671
G1 X135.965 Y66.646 E36.59865
G1 X136.483 Y67.088 E36.66056
G1 X136.948 Y67.584 E36.72234
G1 X137.349 Y68.122 E36.78338
G1 X137.687 Y68.706 E36.84477
G1 X137.968 Y69.343 E36.90808
G1 X138.190 Y70.032 E36.97388
G1 X138.349 Y70.780 E37.04337
G1 X138.447 Y71.585 E37.11716
G1 X138.480 Y72.451 E37.19593
G1 X138.447 Y73.324 E37.27540
G1 X138.348 Y74.136 E37.34978
G1 X138.187 Y74.888 E37.41968
G1 X137.963 Y75.581 E37.48596
G1 X137.680 Y76.221 E37.54954
G1 X137.336 Y76.807 E37.61134
G1 X136.932 Y77.346 E37.67258
G1 X136.461 Y77.844 E37.73494
G1 X135.939 Y78.291 E37.79742
G1 X135.373 Y78.678 E37.85976
G1 X134.765 Y79.007 E37.92262
G1 X134.110 Y79.277 E37.98703
G1 X133.403 Y79.490 E38.05417
G1 X132.645 Y79.645 E38.12456
G1 X131.833 Y79.738 E38.19885
G1 X130.958 Y79.770 E38.27848
G1 X130.479 Y79.761 E38.32205
G1 X129.557 Y79.689 E38.40617
G1 X128.705 Y79.546 E38.48465
G1 X127.832 Y79.333 E38.56642
G1 X124.316 Y85.661 E39.22462
G1 X123.320 Y85.986 E39.31990
G1 X123.342 Y87.452 E39.45322
G1 X164.327 Y99.522 E43.33827
G1 X164.784 Y98.734 E43.42100
G1 X165.115 Y98.324 E43.46900
G1 X165.427 Y98.060 E43.50617
G1 X165.670 Y97.941 E43.53073
G1 X165.885 Y97.909 E43.55055
G1 X166.071 Y98.031 E43.57074
G1 X166.246 Y98.246 E43.59595
G1 X166.421 Y98.616 E43.63317
G1 X166.553 Y99.126 E43.68108
G1 X166.614 Y99.742 E43.73736
G1 X166.592 Y100.423 E43.79931
G1 X166.482 Y101.128 E43.86417
G1 X166.291 Y101.815 E43.92902
G1 X166.030 Y102.445 E43.99099
G1 X165.720 Y102.980 E44.04726
G1 X165.389 Y103.390 E44.09518
G1 X165.076 Y103.655 E44.13245
G1 X164.827 Y103.779 E44.15777
G1 X164.609 Y103.813 E44.17781
G1 X164.426 Y103.696 E44.19762
G1 X164.254 Y103.487 E44.22217
G1 X164.079 Y103.118 E44.25935
G1 X163.947 Y102.607 E44.30735
G1 X163.856 Y101.701 E44.39008
G1 X106.164 Y93.602 E49.68743
G1 X104.993 Y93.349 E49.79634
G1 X103.962 Y92.885 E49.89918
G1 X103.049 Y92.217 E50.00205
G1 X102.296 Y91.373 E50.10497
G1 X101.861 Y90.613 E50.18448
G1 X101.461 Y91.172 F7800.000
G1 X94.393 Y91.464 E50.82777 F378.000
G1 X94.354 Y90.158 E50.94658
G1 X93.629 Y90.123 E51.01257
G1 X93.515 Y91.028 E51.09552
G1 X89.930 Y91.406 E51.42330
G1 X89.863 Y91.526 E51.43581
G1 X77.620 Y90.162 E52.55597
G1 X76.622 Y82.450 E53.26307
G1 X74.528 Y82.217 E53.45467
G1 X74.049 Y81.859 E53.50903
G1 X73.580 Y81.084 E53.59143
G1 X73.186 Y79.903 E53.70466
G1 X72.905 Y78.384 E53.84514
G1 X72.760 Y76.603 E54.00758
G1 X72.758 Y74.643 E54.18578
G1 X72.900 Y72.597 E54.37227
G1 X73.181 Y70.556 E54.55964
G1 X73.587 Y68.611 E54.74028
G1 X74.100 Y66.852 E54.90694
G1 X74.694 Y65.359 E55.05300
G1 X75.334 Y64.206 E55.17292
G1 X75.972 Y63.454 E55.26261
G1 X76.533 Y63.127 E55.32164
G1 X77.088 Y63.146 E55.37212
G1 X78.892 Y63.347 E55.53721
G1 X82.869 Y56.189 E56.28178
G1 X95.677 Y57.616 E57.45364
G1 X95.826 Y57.349 E57.48148
G1 X103.220 Y57.043 E58.15439
G1 X103.220 Y55.731 E58.27374
