; generated by Slic3r 1.0.0RC2 on 2014-02-03 at 15:21:56

; layer_height = 0.25
; perimeters = 1
; top_solid_layers = 3
; bottom_solid_layers = 3
; fill_density = 0.14
; perimeter_speed = 30
; infill_speed = 60
; travel_speed = 130
; nozzle_diameter = 0.35
; filament_diameter = 1.75
; extrusion_multiplier = 1
; perimeters extrusion width = 0.35mm
; infill extrusion width = 0.39mm
; solid infill extrusion width = 0.39mm
; top infill extrusion width = 0.39mm
; first layer extrusion width = 0.70mm

G21 ; set units to millimeters
M107
M104 S220 ; set temperature
G28 ; home all axes
G1 Z5 F5000 ; lift nozzle

M109 S220 ; wait for temperature to be reached
G90 ; use absolute coordinates
G92 E0
M82 ; use absolute distances for extrusion
G1 F1800.000 E-1.00000
G92 E0
G1 Z0.350 F7800.000
G1 X41.180 Y23.963 F7800.000
G1 E1.00000 F1800.000
G1 X41.550 Y23.373 E1.06333 F540.000
G1 X41.970 Y22.823 E1.12625
G1 X42.930 Y21.693 E1.26108
G1 X49.860 Y14.333 E2.18029
G1 X51.120 Y13.273 E2.33002
G1 X52.580 Y12.523 E2.47927
G1 X54.180 Y12.113 E2.62945
G1 X55.820 Y12.083 E2.77860
G1 X115.790 Y17.753 E8.25597
G1 X117.110 Y18.003 E8.37813
G1 X118.350 Y18.483 E8.49903
G1 X119.490 Y19.193 E8.62116
G1 X120.470 Y20.093 E8.74214
G1 X121.280 Y21.163 E8.86417
G1 X121.870 Y22.353 E8.98495
G1 X122.240 Y23.643 E9.10698
G1 X122.360 Y24.973 E9.22840
G1 X122.360 Y28.313 E9.53211
G1 X122.290 Y39.563 E10.55509
G1 X122.250 Y40.303 E10.62247
G1 X119.980 Y61.113 E12.52594
G1 X119.660 Y62.573 E12.66185
G1 X119.060 Y63.933 E12.79701
G1 X118.180 Y65.143 E12.93306
G1 X117.080 Y66.153 E13.06885
G1 X115.790 Y66.913 E13.20499
G1 X114.380 Y67.393 E13.34043
G1 X112.900 Y67.573 E13.47600
G1 X91.510 Y67.943 E15.42127
G1 X58.260 Y67.573 E18.44487
G1 X56.750 Y67.393 E18.58314
G1 X55.320 Y66.913 E18.72030
G1 X54.020 Y66.143 E18.85769
G1 X45.460 Y59.783 E19.82737
G1 X44.110 Y58.473 E19.99842
G1 X43.140 Y56.873 E20.16856
G1 X39.090 Y47.623 E21.08674
G1 X38.860 Y47.043 E21.14348
G1 X38.440 Y45.803 E21.26252
G1 X38.170 Y44.753 E21.36110
G1 X37.890 Y43.193 E21.50522
G1 X37.800 Y42.463 E21.57210
G1 X37.650 Y40.483 E21.75266
G1 X37.630 Y39.933 E21.80270
G1 X37.630 Y38.113 E21.96819
G1 X37.790 Y35.553 E22.20143
G1 X37.840 Y35.063 E22.24622
G1 X38.200 Y32.503 E22.48129
G1 X38.610 Y30.533 E22.66426
G1 X38.760 Y29.953 E22.71873
G1 X39.290 Y28.163 E22.88848
G1 X39.490 Y27.573 E22.94513
G1 X40.090 Y26.043 E23.09456
G1 X40.510 Y25.163 E23.18323
G1 X41.135 Y24.045 E23.29968
G1 X41.730 Y24.263 F7800.000
G1 X42.060 Y23.723 E23.35722 F540.000
G1 X42.450 Y23.223 E23.41488
G1 X43.390 Y22.123 E23.54645
G1 X50.320 Y14.763 E24.46567
G1 X51.460 Y13.793 E24.60177
G1 X52.800 Y13.103 E24.73882
G1 X54.260 Y12.733 E24.87578
G1 X55.760 Y12.703 E25.01220
G1 X115.730 Y18.373 E30.48957
G1 X117.100 Y18.653 E30.61671
G1 X118.380 Y19.213 E30.74376
G1 X119.510 Y20.023 E30.87018
G1 X120.450 Y21.053 E30.99697
G1 X121.150 Y22.263 E31.12408
G1 X121.590 Y23.583 E31.25060
G1 X121.730 Y24.973 E31.37763
G1 X121.730 Y28.303 E31.68043
G1 X121.660 Y39.553 E32.70341
G1 X121.630 Y40.233 E32.76530
G1 X119.360 Y61.043 E34.66877
G1 X119.070 Y62.373 E34.79255
G1 X118.510 Y63.623 E34.91709
G1 X117.720 Y64.733 E35.04098
G1 X116.710 Y65.653 E35.16521
G1 X115.530 Y66.343 E35.28950
G1 X114.240 Y66.783 E35.41344
G1 X112.880 Y66.943 E35.53795
G1 X91.310 Y67.313 E37.49959
G1 X58.270 Y66.943 E40.50409
G1 X56.890 Y66.783 E40.63042
G1 X55.580 Y66.343 E40.75607
G1 X54.390 Y65.643 E40.88161
G1 X45.830 Y59.283 E41.85130
G1 X44.600 Y58.093 E42.00692
G1 X43.710 Y56.623 E42.16317
G1 X39.660 Y47.373 E43.08136
G1 X39.460 Y46.843 E43.13287
G1 X39.040 Y45.603 E43.25191
G1 X38.790 Y44.643 E43.34212
G1 X38.510 Y43.083 E43.48623
G1 X38.420 Y42.413 E43.54770
G1 X38.270 Y40.433 E43.72826
G1 X38.270 Y37.663 E43.98014
G1 X38.410 Y35.593 E44.16879
G1 X38.460 Y35.153 E44.20906
G1 X38.810 Y32.633 E44.44040
G1 X39.220 Y30.663 E44.62337
G1 X39.360 Y30.133 E44.67321
G1 X39.890 Y28.343 E44.84296
G1 X40.070 Y27.803 E44.89472
G1 X40.670 Y26.273 E45.04416
G1 X41.060 Y25.463 E45.12590
G1 X41.685 Y24.345 E45.24235
G1 F1800.000 E44.24235
G92 E0
G1 X70.779 Y39.685 F7800.000
G1 E1.00000 F1800.000
G1 X72.685 Y39.065 E1.18226 F540.000
G1 X73.864 Y40.687 E1.36452
G1 X72.685 Y42.309 E1.54677
G1 X70.779 Y41.689 E1.72903
G1 X70.779 Y39.778 E1.90277
G1 X71.404 Y40.139 F7800.000
G1 X72.447 Y39.800 E2.00246 F540.000
G1 X73.091 Y40.687 E2.10215
G1 X72.447 Y41.574 E2.20184
G1 X71.404 Y41.235 E2.30153
G1 X71.404 Y40.233 E2.39270
G1 F1800.000 E1.39270
G92 E0
G1 X65.034 Y54.685 F7800.000
G1 E1.00000 F1800.000
G1 X64.927 Y56.611 E1.17535 F540.000
G1 X61.371 Y56.611 E1.49874
G1 X61.371 Y54.277 E1.71094
G1 X64.941 Y54.675 E2.03758
G1 X64.377 Y55.241 F7800.000
G1 X64.336 Y55.986 E2.10543 F540.000
G1 X61.996 Y55.986 E2.31824
G1 X61.996 Y54.976 E2.41011
G1 X64.284 Y55.231 E2.61951
G1 X67.210 Y54.928 F7800.000
G1 X67.210 Y59.350 E3.02163 F540.000
G1 X59.324 Y59.350 E3.73863
G1 X59.324 Y54.049 E4.22062
G1 X50.649 Y53.083 E5.01432
G1 X49.652 Y45.371 E5.72142
G1 X47.239 Y45.102 E5.94220
G1 X46.994 Y44.919 E5.97003
G1 X46.624 Y44.307 E6.03502
G1 X46.265 Y43.234 E6.13796
G1 X45.998 Y41.789 E6.27158
G1 X45.857 Y40.065 E6.42887
G1 X45.855 Y38.152 E6.60277
G1 X45.995 Y36.149 E6.78534
G1 X46.270 Y34.150 E6.96883
G1 X46.667 Y32.250 E7.14531
G1 X47.165 Y30.542 E7.30705
G1 X47.732 Y29.115 E7.44676
G1 X48.323 Y28.051 E7.55742
G1 X48.853 Y27.427 E7.63181
G1 X49.165 Y27.245 E7.66466
G1 X49.515 Y27.257 E7.69653
G1 X51.709 Y27.502 E7.89729
G1 X55.686 Y20.344 E8.64186
G1 X96.659 Y24.908 E12.39057
G1 X97.104 Y28.353 E12.70641
G1 X98.876 Y28.353 E12.86751
G1 X98.022 Y35.450 E13.51748
G1 X98.543 Y39.481 E13.88708
G1 X102.342 Y39.481 E14.23245
G1 X102.342 Y44.089 E14.65150
G1 X105.644 Y49.951 E15.26327
G1 X108.808 Y39.481 E16.25789
G1 X111.597 Y39.481 E16.51144
G1 X107.015 Y52.187 E17.73965
G1 X111.097 Y59.350 E18.48928
G1 X108.087 Y59.350 E18.76291
G1 X103.880 Y51.034 E19.61034
G1 X102.342 Y51.401 E19.75414
G1 X102.342 Y59.350 E20.47692
G1 X100.313 Y59.350 E20.66135
G1 X100.313 Y45.087 E21.95828
G1 X98.816 Y44.699 E22.09899
G1 X93.839 Y53.657 E23.03079
G1 X96.129 Y54.519 E23.25330
G1 X95.955 Y55.255 E23.32208
G1 X95.515 Y56.545 E23.44607
G1 X95.011 Y57.592 E23.55172
G1 X94.456 Y58.394 E23.64036
G1 X93.852 Y58.975 E23.71663
G1 X93.160 Y59.381 E23.78957
G1 X92.346 Y59.630 E23.86700
G1 X91.400 Y59.717 E23.95337
G1 X90.172 Y59.563 E24.06587
G1 X89.135 Y59.124 E24.16825
G1 X88.224 Y58.379 E24.27533
G1 X87.333 Y57.169 E24.41191
G1 X81.716 Y56.544 E24.92582
G1 X81.716 Y59.350 E25.18101
G1 X79.696 Y59.350 E25.36462
G1 X79.696 Y56.319 E25.64026
G1 X73.348 Y55.611 E26.22112
G1 X73.348 Y59.350 E26.56107
G1 X71.327 Y59.350 E26.74477
G1 X71.327 Y55.386 E27.10518
G1 X67.303 Y54.938 E27.47340
G1 F1800.000 E26.47340
G92 E0
G1 X107.438 Y27.321 F7800.000
G1 E1.00000 F1800.000
G1 X107.629 Y26.677 E1.06107 F540.000
G1 X107.804 Y26.237 E1.10420
G1 X107.956 Y25.966 E1.13238
G1 X108.077 Y25.825 E1.14936
G1 X108.177 Y25.752 E1.16059
G1 X108.271 Y25.715 E1.16976
G1 X108.484 Y25.690 E1.18922
G1 X108.635 Y25.864 E1.21024
G1 X108.758 Y26.064 E1.23150
G1 X108.893 Y26.356 E1.26075
G1 X109.028 Y26.734 E1.29729
G1 X109.184 Y27.295 E1.35022
G1 X108.293 Y27.087 E1.43333
G1 X107.529 Y27.297 E1.50543
G1 F1800.000 E0.50543
G92 E0
G1 X112.169 Y27.296 F7800.000
G1 E1.00000 F1800.000
G1 X112.169 Y25.952 E1.12223 F540.000
G1 X114.145 Y25.952 E1.30184
G1 X114.145 Y27.296 E1.42406
G1 X112.263 Y27.296 E1.59515
G1 X112.169 Y32.114 F7800.000
G1 X113.900 Y32.114 E1.75248 F540.000
G1 X113.900 Y33.130 E1.84488
G1 X112.169 Y33.130 E2.00221
G1 X112.169 Y32.208 E2.08609
G1 X112.169 Y37.392 F7800.000
G1 X114.075 Y37.392 E2.25933 F540.000
G1 X114.075 Y38.548 E2.36447
G1 X112.169 Y38.548 E2.53771
G1 X112.169 Y37.486 E2.63432
G1 F1800.000 E1.63432
G92 E0
G1 X109.193 Y37.261 F7800.000
G1 E1.00000 F1800.000
G1 X108.541 Y38.993 E1.16825 F540.000
G1 X108.055 Y38.613 E1.22434
G1 X107.796 Y38.222 E1.26707
G1 X107.345 Y37.094 E1.37745
G1 X108.280 Y37.407 E1.46713
G1 X109.100 Y37.276 E1.54263
G1 X109.807 Y37.174 F7800.000
G1 X109.612 Y37.923 E1.61301 F378.000
G1 X109.261 Y38.856 E1.70365
G1 X111.545 Y38.856 E1.91133
G1 X111.545 Y25.327 E3.14152
G1 X114.770 Y25.327 E3.43476
G1 X114.770 Y27.921 E3.67064
G1 X112.287 Y27.921 E3.89641
G1 X112.287 Y31.489 E4.22085
G1 X114.525 Y31.489 E4.42435
G1 X114.525 Y33.755 E4.63040
G1 X112.287 Y33.755 E4.83390
G1 X112.287 Y36.767 E5.10778
G1 X114.700 Y36.767 E5.32719
G1 X114.700 Y39.173 E5.54597
G1 X112.372 Y39.173 E5.75760
G1 X107.701 Y52.128 E7.00985
G1 X112.172 Y59.975 E7.83106
G1 X107.703 Y59.975 E8.23739
G1 X103.545 Y51.757 E9.07487
G1 X102.967 Y51.895 E9.12896
G1 X102.967 Y59.975 E9.86370
G1 X99.689 Y59.975 E10.16177
G1 X99.689 Y45.571 E11.47155
G1 X99.127 Y45.425 E11.52431
G1 X94.737 Y53.327 E12.34631
G1 X96.864 Y54.128 E12.55297
G1 X96.556 Y55.428 E12.67446
G1 X96.094 Y56.782 E12.80457
G1 X95.553 Y57.907 E12.91810
G1 X94.935 Y58.801 E13.01691
G1 X94.232 Y59.477 E13.10559
G1 X93.413 Y59.957 E13.19191
G1 X92.467 Y60.247 E13.28188
G1 X91.389 Y60.345 E13.38025
G1 X90.008 Y60.173 E13.50680
G1 X88.809 Y59.664 E13.62523
G1 X87.767 Y58.813 E13.74759
G1 X86.992 Y57.760 E13.86648
G1 X82.341 Y57.242 E14.29202
G1 X82.341 Y59.975 E14.54053
G1 X79.072 Y59.975 E14.83778
G1 X79.072 Y56.878 E15.11939
G1 X73.973 Y56.310 E15.58591
G1 X73.973 Y59.975 E15.91918
G1 X70.703 Y59.975 E16.21652
G1 X70.703 Y55.946 E16.58291
G1 X67.835 Y55.626 E16.84531
G1 X67.835 Y59.975 E17.24075
G1 X58.700 Y59.975 E18.07139
G1 X58.700 Y54.608 E18.55936
G1 X50.093 Y53.650 E19.34684
G1 X49.095 Y45.938 E20.05393
G1 X47.001 Y45.704 E20.24553
G1 X46.522 Y45.347 E20.29990
G1 X46.053 Y44.571 E20.38229
G1 X45.658 Y43.390 E20.49552
G1 X45.378 Y41.871 E20.63600
G1 X45.232 Y40.090 E20.79845
G1 X45.230 Y38.131 E20.97664
G1 X45.373 Y36.085 E21.16313
G1 X45.654 Y34.043 E21.35050
G1 X46.060 Y32.099 E21.53115
G1 X46.573 Y30.339 E21.69780
G1 X47.167 Y28.847 E21.84386
G1 X47.807 Y27.694 E21.96378
G1 X48.445 Y26.942 E22.05347
G1 X49.006 Y26.614 E22.11250
G1 X49.560 Y26.634 E22.16299
G1 X51.365 Y26.835 E22.32808
G1 X55.342 Y19.677 E23.07264
G1 X97.216 Y24.341 E26.90379
G1 X97.654 Y27.728 E27.21429
G1 X98.848 Y27.728 E27.32290
G1 X99.077 Y25.327 E27.54221
G1 X99.869 Y25.327 E27.61424
G1 X98.652 Y35.447 E28.54107
G1 X99.093 Y38.856 E28.85364
G1 X101.081 Y38.856 E29.03439
G1 X101.081 Y25.327 E30.26458
G1 X101.733 Y25.327 E30.32386
G1 X101.733 Y32.950 E31.01704
G1 X102.427 Y33.025 E31.08059
G1 X104.107 Y25.327 E31.79705
G1 X104.832 Y25.327 E31.86290
G1 X104.832 Y39.173 E33.12191
G1 X104.176 Y39.173 E33.18156
G1 X104.176 Y31.491 E33.88008
G1 X103.480 Y31.416 E33.94366
G1 X101.861 Y38.856 E34.63601
G1 X102.967 Y38.856 E34.73658
G1 X102.967 Y43.926 E35.19756
G1 X105.469 Y48.368 E35.66118
G1 X108.155 Y39.484 E36.50510
G1 X107.591 Y39.043 E36.57018
G1 X107.239 Y38.513 E36.62799
G1 X106.921 Y37.718 E36.70587
G1 X106.663 Y36.686 E36.80265
G1 X106.477 Y35.433 E36.91783
G1 X106.363 Y33.964 E37.05181
G1 X106.326 Y32.279 E37.20504
G1 X106.346 Y30.999 E37.32147
G1 X106.412 Y29.842 E37.42682
G1 X106.519 Y28.810 E37.52119
G1 X106.668 Y27.902 E37.60480
G1 X106.846 Y27.120 E37.67779
G1 X107.038 Y26.473 E37.73908
G1 X107.238 Y25.967 E37.78860
G1 X107.442 Y25.606 E37.82628
G1 X107.651 Y25.363 E37.85544
G1 X107.874 Y25.199 E37.88062
G1 X108.118 Y25.104 E37.90443
G1 X108.395 Y25.071 E37.92976
G1 X108.608 Y25.096 E37.94928
G1 X108.795 Y25.169 E37.96754
G1 X108.970 Y25.297 E37.98717
G1 X109.141 Y25.493 E38.01085
G1 X109.310 Y25.768 E38.04018
G1 X109.472 Y26.119 E38.07540
G1 X109.624 Y26.546 E38.11654
G1 X109.763 Y27.045 E38.16368
G1 X109.887 Y27.617 E38.21687
G1 X109.993 Y28.259 E38.27610
G1 X110.139 Y29.592 E38.39800
G1 X109.549 Y30.148 E38.47164
G1 X109.376 Y29.148 E38.56386
G1 X109.270 Y28.714 E38.60454
G1 X109.132 Y28.344 E38.64041
G1 X108.940 Y28.038 E38.67328
G1 X108.663 Y27.815 E38.70560
G1 X108.306 Y27.732 E38.73894
G1 X107.934 Y27.834 E38.77394
G1 X107.654 Y28.099 E38.80905
G1 X107.458 Y28.454 E38.84592
G1 X107.312 Y28.898 E38.88843
G1 X107.202 Y29.482 E38.94245
G1 X107.126 Y30.242 E39.01192
G1 X107.082 Y31.183 E39.09757
G1 X107.067 Y32.309 E39.19993
G1 X107.079 Y33.233 E39.28393
G1 X107.116 Y34.029 E39.35642
G1 X107.180 Y34.700 E39.41773
G1 X107.271 Y35.251 E39.46848
G1 X107.496 Y36.090 E39.54749
G1 X107.542 Y36.090 E39.55174
G1 X107.633 Y36.291 E39.57180
G1 X107.932 Y36.632 E39.61301
G1 X108.333 Y36.766 E39.65147
G1 X108.580 Y36.727 E39.67420
G1 X108.771 Y36.627 E39.69379
G1 X108.925 Y36.486 E39.71279
G1 X109.049 Y36.318 E39.73184
G1 X109.243 Y35.915 E39.77246
G1 X109.497 Y35.004 E39.85840
G1 X110.084 Y35.412 E39.92339
G1 X109.974 Y36.269 E40.00195
G1 X109.824 Y37.082 E40.07713
G1 X109.149 Y39.903 F7800.000
G1 X110.507 Y41.260 E40.25216 F1080.000
G1 X110.272 Y41.911 E40.31524
G1 X108.922 Y40.562 E40.48922
G1 X108.717 Y41.242 E40.55399
G1 X110.037 Y42.563 E40.72422
G1 X109.803 Y43.214 E40.78730
G1 X108.511 Y41.922 E40.95376
G1 X108.306 Y42.602 E41.01853
G1 X109.568 Y43.865 E41.18124
G1 X109.333 Y44.516 E41.24432
G1 X108.100 Y43.283 E41.40327
G1 X107.894 Y43.963 E41.46804
G1 X109.098 Y45.167 E41.62323
G1 X108.864 Y45.818 E41.68631
G1 X107.689 Y44.643 E41.83774
G1 X107.483 Y45.323 E41.90251
G1 X108.629 Y46.469 E42.05018
G1 X108.394 Y47.120 E42.11326
G1 X107.277 Y46.003 E42.25718
G1 X107.072 Y46.684 E42.32195
G1 X108.159 Y47.771 E42.46210
G1 X107.924 Y48.422 E42.52518
G1 X106.866 Y47.364 E42.66158
G1 X106.661 Y48.044 E42.72634
G1 X107.690 Y49.073 E42.85898
G1 X106.455 Y48.724 F7800.000
G1 X107.455 Y49.724 E42.98786 F1080.000
G1 X107.220 Y50.375 E43.05094
G1 X106.249 Y49.404 E43.17606
G1 X106.044 Y50.085 E43.24083
G1 X106.985 Y51.026 E43.36218
G1 X106.751 Y51.677 E43.42526
G1 X100.735 Y45.662 E44.20064
G1 X100.735 Y46.548 E44.28138
G1 X106.735 Y52.547 E45.05473
G1 X105.277 Y52.861 E45.19066
G1 X109.082 Y56.666 E45.68109
G1 X107.998 Y58.240 F7800.000
G1 X108.687 Y58.928 E45.76987 F1080.000
G1 X109.573 Y58.928 E45.85061
G1 X107.091 Y56.447 E46.17049
G1 X106.184 Y54.654 F7800.000
G1 X110.255 Y58.725 E46.69524 F1080.000
G1 X107.908 Y54.606 F7800.000
G1 X100.735 Y47.433 E47.61983 F1080.000
G1 X100.735 Y48.319 E47.70056
G1 X103.183 Y50.767 E48.01607
G1 X102.468 Y50.938 E48.08308
G1 X100.735 Y49.205 E48.30640
G1 X100.735 Y50.091 E48.38714
G1 X101.920 Y51.276 E48.53986
G1 X101.920 Y52.162 E48.62060
G1 X100.735 Y50.977 E48.77332
G1 X100.735 Y51.863 E48.85405
G1 X101.920 Y53.047 E49.00677
G1 X101.920 Y53.933 E49.08751
G1 X100.735 Y52.748 E49.24023
G1 X100.735 Y53.634 E49.32097
G1 X101.920 Y54.819 E49.47369
G1 X101.920 Y55.705 E49.55443
G1 X100.735 Y54.520 E49.70715
G1 X100.735 Y55.406 E49.78789
G1 X101.920 Y56.591 E49.94061
G1 X101.920 Y57.476 E50.02135
G1 X100.735 Y56.292 E50.17407
G1 X100.735 Y57.177 E50.25480
G1 X101.920 Y58.362 E50.40752
G1 X101.600 Y58.928 E50.46678
G1 X100.735 Y58.063 E50.57828
G1 F1800.000 E49.57828
G92 E0
G1 X95.448 Y55.434 F7800.000
G1 E1.00000 F1800.000
G1 X94.292 Y54.278 E1.14897 F1080.000
G1 X92.849 Y59.035 F7800.000
G1 X74.077 Y40.264 E3.56861 F1080.000
G1 X74.061 Y41.133 E3.64786
G1 X92.152 Y59.224 E5.97982
G1 X91.324 Y59.282 E6.05548
G1 X73.688 Y41.646 E8.32874
G1 X73.315 Y42.159 E8.38654
G1 X90.312 Y59.156 E10.57740
G1 X86.976 Y56.705 F7800.000
G1 X72.943 Y42.672 E12.38625 F1080.000
G1 X71.872 Y42.488 E12.48523
G1 X85.979 Y56.594 E14.30354
G1 F1800.000 E13.30354
G92 E0
G1 X81.294 Y58.110 F7800.000
G1 E1.00000 F1800.000
G1 X80.118 Y56.934 E1.15156 F1080.000
G1 X80.118 Y57.820 E1.23230
G1 X81.226 Y58.928 E1.37514
G1 X80.341 Y58.928 E1.45588
G1 X80.118 Y58.706 E1.48454
G1 F1800.000 E0.48454
G92 E0
G1 X72.926 Y58.600 F7800.000
G1 E1.00000 F1800.000
G1 X71.749 Y57.424 E1.15169 F1080.000
G1 X71.749 Y56.538 E1.23243
G1 X72.926 Y57.715 E1.38412
G1 X72.926 Y56.829 E1.46485
G1 X71.749 Y55.652 E1.61654
G1 X71.749 Y58.309 F7800.000
G1 X72.368 Y58.928 E1.69633 F1080.000
G1 F1800.000 E0.69633
G92 E0
G1 X66.788 Y58.663 F7800.000
G1 E1.00000 F1800.000
G1 X65.157 Y57.033 E1.21017 F1080.000
G1 X65.364 Y56.353 E1.27490
G1 X66.788 Y57.777 E1.45847
G1 X66.788 Y56.891 E1.53921
