; generated by Slic3r 1.1.0 on 2014-04-22 at 20:47:27

; perimeters extrusion width = 0.35mm
; infill extrusion width = 0.39mm
; solid infill extrusion width = 0.39mm
; top infill extrusion width = 0.39mm

G21 ; set units to millimeters
M107
M104 S220 ; set temperature
G28 ; home all axes
G1 Z5 F5000 ; lift nozzle

M109 S220 ; wait for temperature to be reached
G90 ; use absolute coordinates
G92 E0
M82 ; use absolute distances for extrusion
G1 F1800.000 E-1.00000
G92 E0
G1 Z0.350 F7800.000
G1 X114.887 Y71.506 F7800.000
G1 E1.00000 F1800.000
G1 X116.775 Y69.719 E1.23641 F540
G1 X119.404 Y68.504 E1.49976
G1 X130.332 Y65.576 E2.52849
G1 X132.992 Y65.299 E2.77167
G1 X165.350 Y67.054 E5.71826
G1 X177.943 Y67.866 E6.86572
G1 X180.481 Y68.428 E7.10213
G1 X182.731 Y69.731 E7.33854
G1 X184.757 Y72.098 E7.62181
G1 X185.757 Y73.830 E7.80366
G1 X186.697 Y76.254 E8.04007
G1 X186.861 Y78.849 E8.27648
G1 X186.015 Y81.847 E8.55975
G1 X180.383 Y93.237 E9.71513
G1 X165.763 Y122.059 E12.65379
G1 X164.193 Y124.224 E12.89697
G1 X156.193 Y132.224 E13.92572
G1 X154.095 Y133.760 E14.16213
G1 X151.631 Y134.589 E14.39854
G1 X149.032 Y134.635 E14.63495
G1 X146.540 Y133.893 E14.87136
G1 X144.173 Y132.224 E15.13471
G1 X136.173 Y124.224 E16.16346
G1 X134.822 Y122.464 E16.36522
G1 X117.171 Y91.892 E19.57518
G1 X116.322 Y89.842 E19.77695
G1 X113.394 Y78.914 E20.80568
G1 X113.113 Y76.329 E21.04209
G1 X113.627 Y73.780 E21.27850
G1 X114.861 Y71.552 E21.51014
G1 X115.558 Y71.669 F7800.000
G1 X117.446 Y70.027 E21.73764 F540
G1 X119.566 Y69.108 E21.94775
G1 X130.494 Y66.180 E22.97648
G1 X132.958 Y65.923 E23.20178
G1 X165.310 Y67.678 E26.14780
G1 X177.903 Y68.490 E27.29525
G1 X180.342 Y69.045 E27.52275
G1 X182.484 Y70.338 E27.75025
G1 X184.216 Y72.411 E27.99582
G1 X185.216 Y74.143 E28.17767
G1 X186.107 Y76.481 E28.40517
G1 X186.219 Y78.980 E28.63267
G1 X185.455 Y81.570 E28.87824
G1 X179.826 Y92.954 E30.03303
G1 X165.206 Y121.776 E32.97169
G1 X163.751 Y123.782 E33.19699
G1 X155.751 Y131.782 E34.22575
G1 X153.724 Y133.248 E34.45325
G1 X151.338 Y134.003 E34.68075
G1 X148.837 Y133.973 E34.90825
G1 X146.471 Y133.159 E35.13575
G1 X144.615 Y131.782 E35.34587
G1 X136.615 Y123.782 E36.37462
G1 X135.363 Y122.151 E36.56154
G1 X117.712 Y91.579 E39.77150
G1 X116.926 Y89.680 E39.95844
G1 X113.998 Y78.752 E40.98716
G1 X113.742 Y76.263 E41.21466
G1 X114.280 Y73.820 E41.44217
G1 X115.531 Y71.714 E41.66489
G1 X116.230 Y71.847 F7800.000
G1 X118.114 Y70.360 E41.88312 F540
G1 X119.728 Y69.711 E42.04129
G1 X130.656 Y66.783 E43.07002
G1 X132.925 Y66.547 E43.27744
G1 X165.269 Y68.301 E46.22288
G1 X177.862 Y69.113 E47.37033
G1 X180.199 Y69.662 E47.58856
G1 X182.228 Y70.943 E47.80679
G1 X183.674 Y72.723 E48.01531
G1 X184.674 Y74.455 E48.19717
G1 X185.514 Y76.703 E48.41539
G1 X185.573 Y79.103 E48.63362
G1 X184.895 Y81.293 E48.84214
G1 X179.269 Y92.672 E49.99636
G1 X164.649 Y121.494 E52.93502
G1 X163.309 Y123.340 E53.14244
G1 X155.309 Y131.340 E54.17119
G1 X153.355 Y132.733 E54.38942
G1 X151.053 Y133.411 E54.60765
G1 X148.655 Y133.301 E54.82588
G1 X146.425 Y132.414 E55.04410
G1 X145.057 Y131.340 E55.20227
G1 X137.057 Y123.340 E56.23102
G1 X135.905 Y121.839 E56.40311
G1 X118.254 Y91.267 E59.61307
G1 X117.529 Y89.518 E59.78518
G1 X114.601 Y78.590 E60.81391
G1 X114.372 Y76.201 E61.03213
G1 X114.936 Y73.868 E61.25036
G1 X116.202 Y71.892 E61.46381
G1 X116.904 Y72.045 F7800.000
G1 X118.777 Y70.722 E61.67236 F540
G1 X119.889 Y70.315 E61.78007
G1 X130.817 Y67.387 E62.80879
G1 X132.891 Y67.171 E62.99834
G1 X165.229 Y68.925 E65.94319
G1 X177.822 Y69.737 E67.09065
G1 X180.051 Y70.278 E67.29919
G1 X181.961 Y71.547 E67.50773
G1 X183.133 Y73.035 E67.67998
G1 X184.133 Y74.767 E67.86183
G1 X184.919 Y76.922 E68.07037
G1 X184.923 Y79.216 E68.27892
G1 X184.335 Y81.016 E68.45116
G1 X178.711 Y92.389 E69.60479
G1 X164.091 Y121.211 E72.54345
G1 X162.868 Y122.899 E72.73300
G1 X154.868 Y130.899 E73.76175
G1 X152.990 Y132.215 E73.97029
G1 X150.775 Y132.812 E74.17883
G1 X148.490 Y132.619 E74.38737
G1 X146.408 Y131.658 E74.59592
G1 X145.498 Y130.899 E74.70363
G1 X137.498 Y122.899 E75.73238
G1 X136.446 Y121.526 E75.88963
G1 X118.795 Y90.954 E79.09959
G1 X118.133 Y89.357 E79.25686
G1 X115.205 Y78.429 E80.28559
G1 X115.004 Y76.144 E80.49413
G1 X115.594 Y73.928 E80.70267
G1 X116.874 Y72.088 E80.90644
G1 F1800.000 E79.90644
G92 E0
G1 X138.911 Y86.060 F7800.000
G1 E1.00000 F1800.000
G1 X139.383 Y85.367 E1.07620 F540
G1 X139.896 Y84.704 E1.15249
G1 X140.451 Y84.075 E1.22872
G1 X141.044 Y83.482 E1.30503
G1 X141.673 Y82.927 E1.38126
G1 X142.336 Y82.414 E1.45755
G1 X143.029 Y81.942 E1.53375
G1 X143.751 Y81.515 E1.61003
G1 X144.499 Y81.134 E1.68633
G1 X145.268 Y80.801 E1.76254
G1 X146.058 Y80.517 E1.83885
G1 X146.863 Y80.283 E1.91510
G1 X147.682 Y80.100 E1.99138
G1 X148.510 Y79.970 E2.06766
G1 X149.345 Y79.891 E2.14389
G1 X149.871 Y79.874 E2.19176
G1 X149.859 Y79.854 E2.19388
G1 X150.507 Y79.854 E2.25273
G1 X150.495 Y79.874 E2.25485
G1 X151.021 Y79.891 E2.30272
G1 X151.856 Y79.970 E2.37895
G1 X152.684 Y80.100 E2.45523
G1 X153.503 Y80.283 E2.53151
G1 X154.308 Y80.517 E2.60776
G1 X155.098 Y80.801 E2.68407
G1 X155.867 Y81.134 E2.76028
G1 X156.615 Y81.515 E2.83658
G1 X157.337 Y81.942 E2.91286
G1 X158.030 Y82.414 E2.98906
G1 X158.693 Y82.927 E3.06535
G1 X159.322 Y83.482 E3.14158
G1 X159.915 Y84.075 E3.21789
G1 X160.470 Y84.704 E3.29412
G1 X160.983 Y85.367 E3.37041
G1 X161.455 Y86.060 E3.44661
G1 X161.882 Y86.782 E3.52289
G1 X162.263 Y87.530 E3.59919
G1 X162.596 Y88.299 E3.67540
G1 X162.880 Y89.089 E3.75172
G1 X163.114 Y89.894 E3.82796
G1 X163.297 Y90.713 E3.90424
G1 X163.427 Y91.541 E3.98052
G1 X163.506 Y92.376 E4.05675
G1 X163.533 Y93.214 E4.13300
G1 X163.506 Y94.052 E4.20924
G1 X163.427 Y94.887 E4.28548
G1 X163.297 Y95.715 E4.36176
G1 X163.114 Y96.534 E4.43803
G1 X162.880 Y97.339 E4.51428
G1 X162.596 Y98.129 E4.59060
G1 X162.263 Y98.898 E4.66680
G1 X161.603 Y100.194 E4.79904
G1 X161.589 Y100.170 E4.80152
G1 X160.983 Y101.061 E4.89945
G1 X160.470 Y101.724 E4.97573
G1 X159.915 Y102.353 E5.05196
G1 X159.322 Y102.946 E5.12827
G1 X158.693 Y103.501 E5.20451
G1 X158.030 Y104.014 E5.28079
G1 X157.337 Y104.486 E5.35699
G1 X156.615 Y104.913 E5.43327
G1 X155.867 Y105.294 E5.50957
G1 X155.098 Y105.627 E5.58578
G1 X154.308 Y105.911 E5.66210
G1 X153.503 Y106.145 E5.73834
G1 X152.684 Y106.328 E5.81462
G1 X151.856 Y106.458 E5.89090
G1 X151.021 Y106.537 E5.96713
G1 X150.183 Y106.564 E6.04338
G1 X149.345 Y106.537 E6.11963
G1 X148.510 Y106.458 E6.19586
G1 X147.682 Y106.328 E6.27214
G1 X146.863 Y106.145 E6.34841
G1 X146.058 Y105.911 E6.42466
G1 X145.268 Y105.627 E6.50098
G1 X144.499 Y105.294 E6.57718
G1 X143.751 Y104.913 E6.65349
G1 X143.029 Y104.486 E6.72977
G1 X142.336 Y104.014 E6.80597
G1 X141.673 Y103.501 E6.88225
G1 X141.044 Y102.946 E6.95848
G1 X140.451 Y102.353 E7.03480
G1 X139.896 Y101.724 E7.11103
G1 X139.383 Y101.061 E7.18731
G1 X138.777 Y100.170 E7.28524
G1 X138.763 Y100.194 E7.28772
G1 X138.103 Y98.898 E7.41996
G1 X137.770 Y98.129 E7.49616
G1 X137.486 Y97.339 E7.57248
G1 X137.252 Y96.534 E7.64872
G1 X137.069 Y95.715 E7.72500
G1 X136.939 Y94.887 E7.80128
G1 X136.860 Y94.052 E7.87751
G1 X136.833 Y93.214 E7.95376
G1 X136.860 Y92.376 E8.03001
G1 X136.939 Y91.541 E8.10624
G1 X137.069 Y90.713 E8.18252
G1 X137.252 Y89.894 E8.25879
G1 X137.486 Y89.089 E8.33504
G1 X137.770 Y88.299 E8.41136
G1 X138.103 Y87.530 E8.48756
G1 X138.484 Y86.782 E8.56387
G1 X138.885 Y86.105 E8.63537
G1 F1800.000 E7.63537
G92 E0
G1 X148.179 Y91.758 F7800.000
G1 E1.00000 F1800.000
G1 X150.949 Y90.858 E1.26482 F540
G1 X152.660 Y93.214 E1.52965
G1 X150.949 Y95.570 E1.79447
G1 X148.179 Y94.670 E2.05929
G1 X148.179 Y91.810 E2.31934
G1 X148.804 Y92.212 F7800.000
G1 X150.710 Y91.592 E2.50160 F540
G1 X151.888 Y93.214 E2.68386
G1 X150.710 Y94.836 E2.86611
G1 X148.804 Y94.216 E3.04837
G1 X148.804 Y92.264 E3.22586
G1 X149.428 Y92.666 F7800.000
G1 X150.471 Y92.327 E3.32555 F540
G1 X151.116 Y93.214 E3.42524
G1 X150.471 Y94.101 E3.52493
G1 X149.428 Y93.762 E3.62462
G1 X149.428 Y92.718 E3.71954
G1 X149.356 Y92.323 F7800.000
G1 F1800.000 E2.71954
G92 E0
G1 X150.183 Y82.914 F7800.000
G1 E1.00000 F1800.000
G1 X159.103 Y98.364 E2.62225 F540
G1 X141.263 Y98.364 E4.24446
G1 X150.157 Y82.959 E5.86193
G1 X150.183 Y81.664 F7800.000
G1 X160.185 Y98.989 E7.68101 F540
G1 X140.180 Y98.989 E9.50006
G1 X150.157 Y81.709 E11.31437
G1 X150.183 Y80.414 F7800.000
G1 X161.268 Y99.614 E13.33028 F540
G1 X139.098 Y99.614 E15.34616
G1 X150.157 Y80.460 E17.35730
G1 X150.183 Y78.564 F7800.000
G1 X151.103 Y78.593 E17.44100 F378
G1 X152.019 Y78.679 E17.52467
G1 X152.928 Y78.824 E17.60838
G1 X153.826 Y79.024 E17.69201
G1 X154.710 Y79.281 E17.77570
G1 X155.576 Y79.593 E17.85940
G1 X156.421 Y79.959 E17.94313
G1 X157.240 Y80.376 E18.02674
G1 X158.032 Y80.845 E18.11042
G1 X158.794 Y81.362 E18.19418
G1 X159.521 Y81.926 E18.27779
G1 X160.211 Y82.534 E18.36148
G1 X160.863 Y83.186 E18.44524
G1 X161.471 Y83.876 E18.52892
G1 X162.035 Y84.603 E18.61254
G1 X162.531 Y85.334 E18.69289
G1 X167.048 Y82.726 E19.16713
G1 X163.548 Y76.664 E19.80362
G1 X164.675 Y76.014 E19.92190
G1 X168.175 Y82.076 E20.55841
G1 X177.268 Y76.826 E21.51314
G1 X177.918 Y77.952 E21.63135
G1 X168.825 Y83.202 E22.58609
G1 X172.325 Y89.264 E23.22257
G1 X171.198 Y89.914 E23.34086
G1 X167.698 Y83.852 E23.97736
G1 X163.176 Y86.463 E24.45218
G1 X163.438 Y86.976 E24.50459
G1 X163.804 Y87.821 E24.58829
G1 X164.116 Y88.687 E24.67199
G1 X164.373 Y89.571 E24.75569
G1 X164.573 Y90.469 E24.83931
G1 X164.718 Y91.378 E24.92303
G1 X164.804 Y92.294 E25.00669
G1 X164.833 Y93.214 E25.09039
G1 X164.804 Y94.134 E25.17410
G1 X164.718 Y95.050 E25.25776
G1 X164.573 Y95.959 E25.34148
G1 X164.373 Y96.857 E25.42510
G1 X164.116 Y97.741 E25.50880
G1 X163.804 Y98.607 E25.59250
G1 X163.438 Y99.452 E25.67623
G1 X163.021 Y100.271 E25.75983
G1 X162.552 Y101.063 E25.84352
G1 X162.035 Y101.825 E25.92727
G1 X161.471 Y102.552 E26.01089
G1 X160.863 Y103.242 E26.09457
G1 X160.211 Y103.894 E26.17834
G1 X159.521 Y104.502 E26.26202
G1 X158.794 Y105.066 E26.34563
G1 X158.032 Y105.583 E26.42939
G1 X157.240 Y106.052 E26.51308
G1 X156.421 Y106.469 E26.59668
G1 X155.576 Y106.835 E26.68041
G1 X154.710 Y107.147 E26.76411
G1 X153.826 Y107.404 E26.84781
G1 X152.928 Y107.604 E26.93143
G1 X152.019 Y107.749 E27.01516
G1 X150.833 Y107.860 E27.12348
G1 X150.833 Y113.064 E27.59664
G1 X157.833 Y113.064 E28.23314
G1 X157.833 Y114.364 E28.35135
G1 X150.833 Y114.364 E28.98786
G1 X150.833 Y123.259 E29.79668
G1 X156.783 Y117.309 E30.56181
G1 X157.688 Y118.214 E30.67819
G1 X150.183 Y125.719 E31.64329
G1 X142.678 Y118.214 E32.60839
G1 X143.583 Y117.309 E32.72477
G1 X149.533 Y123.259 E33.48991
G1 X149.533 Y114.364 E34.29872
G1 X142.533 Y114.364 E34.93523
G1 X142.533 Y113.064 E35.05344
G1 X149.533 Y113.064 E35.68994
G1 X149.533 Y107.860 E36.16310
G1 X148.347 Y107.749 E36.27143
G1 X147.438 Y107.604 E36.35515
G1 X146.540 Y107.404 E36.43877
G1 X145.656 Y107.147 E36.52247
G1 X144.790 Y106.835 E36.60617
G1 X143.945 Y106.469 E36.68990
G1 X143.126 Y106.052 E36.77351
G1 X142.334 Y105.583 E36.85719
G1 X141.572 Y105.066 E36.94095
G1 X140.845 Y104.502 E37.02456
G1 X140.155 Y103.894 E37.10825
G1 X139.503 Y103.242 E37.19201
G1 X138.895 Y102.552 E37.27569
G1 X138.331 Y101.825 E37.35931
G1 X137.814 Y101.063 E37.44306
G1 X137.345 Y100.271 E37.52675
G1 X136.928 Y99.452 E37.61036
G1 X136.562 Y98.607 E37.69408
G1 X136.250 Y97.741 E37.77779
G1 X135.993 Y96.857 E37.86148
G1 X135.793 Y95.959 E37.94511
G1 X135.648 Y95.050 E38.02882
G1 X135.562 Y94.134 E38.11248
G1 X135.533 Y93.214 E38.19619
G1 X135.562 Y92.294 E38.27989
G1 X135.648 Y91.378 E38.36355
G1 X135.793 Y90.469 E38.44727
G1 X135.993 Y89.571 E38.53089
G1 X136.250 Y88.687 E38.61459
G1 X136.562 Y87.821 E38.69829
G1 X136.928 Y86.976 E38.78199
G1 X137.190 Y86.463 E38.83440
G1 X123.838 Y78.754 E40.23629
G1 X126.016 Y86.882 E41.00145
G1 X124.780 Y87.213 E41.11787
G1 X122.033 Y76.961 E42.08296
G1 X132.285 Y74.215 E43.04804
G1 X132.616 Y75.451 E43.16440
G1 X124.488 Y77.629 E43.92955
G1 X137.835 Y85.334 E45.33086
G1 X138.331 Y84.603 E45.41122
G1 X138.895 Y83.876 E45.49483
G1 X139.503 Y83.186 E45.57852
G1 X140.155 Y82.534 E45.66228
G1 X140.845 Y81.926 E45.74596
G1 X141.572 Y81.362 E45.82958
G1 X142.334 Y80.845 E45.91333
G1 X143.126 Y80.376 E45.99702
G1 X143.945 Y79.959 E46.08063
G1 X144.790 Y79.593 E46.16435
G1 X145.656 Y79.281 E46.24806
G1 X146.540 Y79.024 E46.33175
G1 X147.438 Y78.824 E46.41538
G1 X148.347 Y78.679 E46.49909
G1 X149.263 Y78.593 E46.58275
G1 X150.131 Y78.566 E46.66168
G1 X150.355 Y78.869 F7800.000
G1 X150.183 Y83.820 F7800.000
G1 X150.238 Y83.874 E46.66618 F1080
G1 X149.843 Y84.369 E46.70304
G1 X151.452 Y85.978 E46.83560
G1 F1800.000 E45.83560
G92 E0
G1 X152.667 Y88.081 F7800.000
G1 E1.00000 F1800.000
G1 X149.518 Y84.932 E1.25942 F1080
G1 X149.192 Y85.496 E1.29733
G1 X153.881 Y90.185 E1.68360
G1 F1800.000 E0.68360
G92 E0
G1 X155.095 Y92.288 F7800.000
G1 E1.00000 F1800.000
G1 X148.867 Y86.060 E1.51313 F1080
G1 X148.541 Y86.623 E1.55104
G1 X156.310 Y94.392 E2.19102
G1 F1800.000 E1.19102
G92 E0
G1 X152.776 Y92.636 F7800.000
G1 E1.00000 F1800.000
G1 X158.071 Y97.931 E1.43622 F1080
G1 F1800.000 E0.43622
G92 E0
G1 X149.457 Y95.541 F7800.000
G1 E1.00000 F1800.000
G1 X151.847 Y97.931 E1.19692 F1080
G1 X152.736 Y97.931 E1.24871
G1 X150.774 Y95.969 E1.41038
G1 X151.392 Y95.697 E1.44967
G1 X153.626 Y97.931 E1.63371
G1 X154.515 Y97.931 E1.68550
G1 X151.766 Y95.182 E1.91196
G1 X152.140 Y94.667 E1.94904
G1 X155.404 Y97.931 E2.21792
G1 X156.293 Y97.931 E2.26972
G1 X152.514 Y94.152 E2.58102
G1 X152.888 Y93.637 E2.61810
G1 X157.182 Y97.931 E2.97183
G1 X157.524 Y96.495 E3.05781
G1 X148.216 Y87.187 E3.82464
G1 X147.890 Y87.751 E3.86256
G1 X150.642 Y90.502 E4.08923
G1 X149.971 Y90.720 E4.13033
G1 X147.565 Y88.314 E4.32852
G1 X147.240 Y88.878 E4.36644
G1 X149.300 Y90.938 E4.53616
G1 X148.629 Y91.156 E4.57726
G1 X146.914 Y89.442 E4.71851
G1 X146.589 Y90.005 E4.75643
G1 X147.958 Y91.374 E4.86920
G1 X147.746 Y92.051 E4.91053
G1 X146.263 Y90.569 E5.03265
G1 X145.938 Y91.133 E5.07057
G1 X147.746 Y92.940 E5.21950
G1 X147.746 Y93.830 E5.27129
G1 X145.612 Y91.696 E5.44702
G1 X145.287 Y92.260 E5.48494
G1 X150.958 Y97.931 E5.95214
G1 X150.069 Y97.931 E6.00393
G1 X144.962 Y92.824 E6.42470
G1 X144.636 Y93.387 E6.46261
G1 X149.180 Y97.931 E6.83695
G1 X148.291 Y97.931 E6.88874
G1 X144.311 Y93.951 E7.21663
G1 X143.985 Y94.515 E7.25455
G1 X147.402 Y97.931 E7.53601
G1 X146.513 Y97.931 E7.58780
G1 X143.660 Y95.078 E7.82283
G1 X143.335 Y95.642 E7.86074
G1 X145.624 Y97.931 E8.04934
G1 X144.735 Y97.931 E8.10113
G1 X143.009 Y96.206 E8.24329
G1 X142.684 Y96.769 E8.28120
G1 X143.846 Y97.931 E8.37692
G1 X142.957 Y97.931 E8.42871
G1 X142.358 Y97.333 E8.47800
G1 X142.033 Y97.897 E8.51592
G1 X142.067 Y97.931 E8.51877
G1 F1800.000 E7.51877
G92 E0
G1 X146.505 Y106.762 F7800.000
G1 E1.00000 F1800.000
G1 X145.029 Y106.231 E1.08304 F360
G1 X144.222 Y105.881 E1.12962
G1 X143.439 Y105.483 E1.17613
G1 X142.672 Y105.028 E1.22329
G1 X141.954 Y104.540 E1.26927
G1 X141.259 Y104.002 E1.31579
G1 X140.592 Y103.412 E1.36290
G1 X139.977 Y102.797 E1.40893
G1 X139.395 Y102.138 E1.45547
G1 X138.857 Y101.443 E1.50199
G1 X138.677 Y101.178 E1.51894
G1 X138.487 Y100.981 E1.53346
G1 X137.643 Y99.464 E1.62532
G1 X137.166 Y98.368 E1.68861
G1 X136.868 Y97.540 E1.73516
G1 X136.623 Y96.695 E1.78172
G1 X136.431 Y95.838 E1.82824
G1 X136.294 Y94.969 E1.87481
G1 X136.211 Y94.093 E1.92134
G1 X136.183 Y93.214 E1.96791
G1 X136.211 Y92.335 E2.01448
G1 X136.292 Y91.470 E2.06043
G1 X136.431 Y90.590 E2.10758
G1 X136.623 Y89.733 E2.15410
G1 X136.868 Y88.888 E2.20066
G1 X137.400 Y87.411 E2.28373
G1 X137.740 Y86.030 F7800.000
G1 X122.904 Y77.464 E3.19046 F360
G1 X138.325 Y85.767 F7800.000
G1 X138.857 Y84.985 E3.24054 F360
G1 X139.395 Y84.290 E3.28705
G1 X139.977 Y83.631 E3.33360
G1 X140.600 Y83.008 E3.38019
G1 X141.259 Y82.426 E3.42674
G1 X141.954 Y81.888 E3.47325
G1 X142.682 Y81.393 E3.51985
G1 X143.439 Y80.945 E3.56640
G1 X144.222 Y80.547 E3.61291
G1 X145.029 Y80.197 E3.65949
G1 X145.857 Y79.899 E3.70604
G1 X146.702 Y79.654 E3.75260
