; generated by Slic3r 1.1.1 on 2014-05-06 at 17:30:53

; perimeters extrusion width = 0.35mm
; infill extrusion width = 0.39mm
; solid infill extrusion width = 0.39mm
; top infill extrusion width = 0.39mm

G21 ; set units to millimeters
M107
M104 S220 ; set temperature
G28 ; home all axes
G1 Z5 F5000 ; lift nozzle

M109 S220 ; wait for temperature to be reached
G90 ; use absolute coordinates
G92 E0
M82 ; use absolute distances for extrusion
G1 F1800.000 E-1.00000
G92 E0
G1 Z0.350 F7800.000
G1 X114.395 Y70.533 F7800.000
G1 E1.00000 F1800.000
G1 X116.354 Y68.823 E1.23641 F540.000
G1 X117.644 Y68.154 E1.36856
G1 X119.404 Y67.504 E1.53918
G1 X130.332 Y64.576 E2.56790
G1 X132.992 Y64.299 E2.81108
G1 X165.350 Y66.054 E5.75768
G1 X177.943 Y66.866 E6.90513
G1 X180.649 Y67.495 E7.15773
G1 X181.356 Y67.788 E7.22733
G1 X183.577 Y69.139 E7.46374
G1 X185.464 Y71.391 E7.73087
G1 X186.956 Y74.120 E8.01369
G1 X187.249 Y74.827 E8.08328
G1 X187.864 Y77.353 E8.31969
G1 X187.688 Y79.947 E8.55610
G1 X187.249 Y81.333 E8.68827
G1 X186.722 Y82.554 E8.80922
G1 X181.090 Y93.944 E9.96459
G1 X166.470 Y122.766 E12.90325
G1 X164.900 Y124.931 E13.14644
G1 X156.900 Y132.931 E14.17519
G1 X154.143 Y134.774 E14.47674
G1 X153.436 Y135.067 E14.54633
G1 X150.910 Y135.682 E14.78274
G1 X148.316 Y135.506 E15.01915
G1 X146.930 Y135.067 E15.15132
G1 X146.223 Y134.774 E15.22092
G1 X143.466 Y132.931 E15.52247
G1 X135.466 Y124.931 E16.55122
G1 X134.115 Y123.171 E16.75297
G1 X115.972 Y91.602 E20.06382
G1 X115.322 Y89.842 E20.23443
G1 X112.394 Y78.914 E21.26316
G1 X112.113 Y76.329 E21.49957
G1 X112.751 Y73.461 E21.76671
G1 X113.044 Y72.754 E21.83631
G1 X114.368 Y70.577 E22.06794
G1 X114.934 Y70.863 F7800.000
G1 X117.883 Y68.732 E22.39883 F540.000
G1 X119.566 Y68.108 E22.56201
G1 X130.494 Y65.180 E23.59074
G1 X132.958 Y64.923 E23.81604
G1 X165.310 Y66.678 E26.76206
G1 X177.903 Y67.490 E27.90951
G1 X180.410 Y68.073 E28.14354
G1 X181.117 Y68.366 E28.21313
G1 X183.247 Y69.678 E28.44063
G1 X184.923 Y71.703 E28.67968
G1 X186.378 Y74.359 E28.95506
G1 X186.671 Y75.066 E29.02466
G1 X187.249 Y77.501 E29.25216
G1 X186.671 Y81.094 E29.58306
G1 X186.162 Y82.277 E29.70023
G1 X180.533 Y93.661 E30.85502
G1 X165.913 Y122.483 E33.79368
G1 X164.458 Y124.489 E34.01899
G1 X156.458 Y132.489 E35.04774
G1 X153.904 Y134.196 E35.32712
G1 X153.197 Y134.489 E35.39671
G1 X150.762 Y135.067 E35.62422
G1 X147.169 Y134.489 E35.95512
G1 X146.462 Y134.196 E36.02471
G1 X143.908 Y132.489 E36.30409
G1 X135.908 Y124.489 E37.33284
G1 X134.656 Y122.858 E37.51976
G1 X116.550 Y91.363 E40.82319
G1 X115.926 Y89.680 E40.98637
G1 X112.998 Y78.752 E42.01510
G1 X112.742 Y76.263 E42.24260
G1 X113.329 Y73.700 E42.48165
G1 X113.622 Y72.993 E42.55125
G1 X114.907 Y70.908 E42.77397
G1 X115.472 Y71.198 F7800.000
G1 X118.122 Y69.309 E43.06994 F540.000
G1 X119.728 Y68.711 E43.22569
G1 X130.656 Y65.783 E44.25442
G1 X132.925 Y65.547 E44.46184
G1 X165.270 Y67.301 E47.40728
G1 X177.863 Y68.113 E48.55473
G1 X180.170 Y68.650 E48.77019
G1 X180.878 Y68.943 E48.83978
G1 X182.912 Y70.216 E49.05801
G1 X184.382 Y72.016 E49.26930
G1 X185.801 Y74.598 E49.53727
G1 X186.094 Y75.306 E49.60686
G1 X186.633 Y77.644 E49.82509
G1 X186.094 Y80.854 E50.12107
G1 X185.602 Y82.000 E50.23446
G1 X179.976 Y93.379 E51.38867
G1 X165.356 Y122.201 E54.32733
G1 X164.016 Y124.047 E54.53476
G1 X156.016 Y132.047 E55.56351
G1 X153.665 Y133.619 E55.82072
G1 X152.957 Y133.912 E55.89032
G1 X150.619 Y134.451 E56.10854
G1 X147.409 Y133.912 E56.40452
G1 X146.701 Y133.619 E56.47412
G1 X144.350 Y132.047 E56.73132
G1 X136.350 Y124.047 E57.76008
G1 X135.197 Y122.546 E57.93216
G1 X117.127 Y91.124 E61.22817
G1 X116.529 Y89.518 E61.38393
G1 X113.601 Y78.590 E62.41266
G1 X113.372 Y76.201 E62.63088
G1 X113.906 Y73.940 E62.84218
G1 X114.199 Y73.232 E62.91178
G1 X115.444 Y71.242 E63.12523
G1 X116.008 Y71.537 F7800.000
G1 X118.362 Y69.886 E63.38666 F540.000
G1 X119.889 Y69.315 E63.53498
G1 X130.817 Y66.387 E64.56371
G1 X132.891 Y66.171 E64.75325
G1 X165.229 Y67.925 E67.69811
G1 X177.822 Y68.737 E68.84556
G1 X179.931 Y69.227 E69.04245
G1 X180.638 Y69.520 E69.11204
G1 X182.573 Y70.751 E69.32058
G1 X183.840 Y72.328 E69.50452
G1 X185.224 Y74.838 E69.76506
G1 X185.517 Y75.545 E69.83465
G1 X186.014 Y77.784 E70.04319
G1 X185.517 Y80.615 E70.30463
G1 X185.042 Y81.723 E70.41425
G1 X179.418 Y93.096 E71.56788
G1 X164.798 Y121.918 E74.50654
G1 X163.575 Y123.606 E74.69609
G1 X155.575 Y131.606 E75.72484
G1 X153.425 Y133.042 E75.95988
G1 X152.718 Y133.335 E76.02947
G1 X150.479 Y133.832 E76.23801
G1 X147.648 Y133.335 E76.49945
G1 X146.941 Y133.042 E76.56905
G1 X144.791 Y131.606 E76.80408
G1 X136.791 Y123.606 E77.83284
G1 X135.739 Y122.234 E77.99009
G1 X117.704 Y90.884 E81.27869
G1 X117.133 Y89.357 E81.42701
G1 X114.205 Y78.429 E82.45574
G1 X114.004 Y76.144 E82.66428
G1 X114.483 Y74.179 E82.84822
G1 X114.776 Y73.472 E82.91782
G1 X115.979 Y71.581 E83.12159
G1 F1800.000 E82.12159
G92 E0
G1 X138.985 Y86.365 F7800.000
G1 E1.00000 F1800.000
G1 X139.482 Y85.633 E1.08050 F540.000
G1 X140.026 Y84.933 E1.16110
G1 X140.611 Y84.269 E1.24161
G1 X141.238 Y83.642 E1.32216
G1 X141.902 Y83.057 E1.40266
G1 X142.602 Y82.513 E1.48327
G1 X143.334 Y82.016 E1.56377
G1 X144.097 Y81.564 E1.64439
G1 X144.887 Y81.163 E1.72493
G1 X145.176 Y81.038 E1.75354
G1 X145.825 Y80.804 E1.81634
G1 X146.675 Y80.557 E1.89683
G1 X147.541 Y80.363 E1.97751
G1 X148.613 Y80.194 E2.07615
G1 X148.439 Y79.892 E2.10782
G1 X150.183 Y80.058 E2.26714
G1 X151.927 Y79.892 E2.42645
G1 X151.753 Y80.194 E2.45812
G1 X152.825 Y80.363 E2.55676
G1 X153.691 Y80.557 E2.63744
G1 X154.541 Y80.804 E2.71792
G1 X155.190 Y81.038 E2.78072
G1 X155.479 Y81.163 E2.80934
G1 X156.269 Y81.564 E2.88988
G1 X157.032 Y82.016 E2.97050
G1 X157.764 Y82.513 E3.05099
G1 X158.464 Y83.057 E3.13160
G1 X159.128 Y83.642 E3.21211
G1 X159.755 Y84.269 E3.29266
G1 X160.340 Y84.933 E3.37316
G1 X160.884 Y85.633 E3.45377
G1 X161.381 Y86.365 E3.53427
G1 X161.833 Y87.128 E3.61488
G1 X162.234 Y87.918 E3.69542
G1 X162.359 Y88.207 E3.72405
G1 X162.593 Y88.856 E3.78684
G1 X162.840 Y89.706 E3.86732
G1 X163.034 Y90.572 E3.94800
G1 X163.172 Y91.447 E4.02853
G1 X163.255 Y92.328 E4.10900
G1 X163.284 Y93.214 E4.18960
G1 X163.255 Y94.100 E4.27019
G1 X163.172 Y94.981 E4.35066
G1 X163.034 Y95.856 E4.43118
G1 X162.840 Y96.722 E4.51187
G1 X162.593 Y97.572 E4.59235
G1 X162.308 Y98.364 E4.66896
G1 X162.770 Y98.364 E4.71100
G1 X161.431 Y100.090 E4.90960
G1 X160.807 Y101.316 E5.03471
G1 X160.667 Y101.074 E5.06018
G1 X160.340 Y101.495 E5.10871
G1 X159.755 Y102.159 E5.18921
G1 X159.128 Y102.786 E5.26976
G1 X158.464 Y103.371 E5.35027
G1 X157.764 Y103.915 E5.43088
G1 X157.032 Y104.412 E5.51137
G1 X156.269 Y104.864 E5.59199
G1 X155.479 Y105.265 E5.67251
G1 X155.190 Y105.390 E5.70115
G1 X154.541 Y105.624 E5.76395
G1 X153.691 Y105.871 E5.84443
G1 X152.825 Y106.065 E5.92511
G1 X151.950 Y106.203 E6.00564
G1 X151.069 Y106.286 E6.08610
G1 X150.183 Y106.315 E6.16670
G1 X149.297 Y106.286 E6.24730
G1 X148.416 Y106.203 E6.32777
G1 X147.541 Y106.065 E6.40829
G1 X146.675 Y105.871 E6.48897
G1 X145.825 Y105.624 E6.56946
G1 X145.176 Y105.390 E6.63225
G1 X144.887 Y105.265 E6.66087
G1 X144.097 Y104.864 E6.74141
G1 X143.334 Y104.412 E6.82203
G1 X142.602 Y103.915 E6.90253
G1 X141.902 Y103.371 E6.98313
G1 X141.238 Y102.786 E7.06364
G1 X140.611 Y102.159 E7.14419
G1 X140.026 Y101.495 E7.22469
G1 X139.699 Y101.074 E7.27322
G1 X139.559 Y101.316 E7.29867
G1 X138.935 Y100.090 E7.42373
G1 X137.596 Y98.364 E7.62237
G1 X138.058 Y98.364 E7.66441
G1 X137.773 Y97.572 E7.74102
G1 X137.526 Y96.722 E7.82150
G1 X137.332 Y95.856 E7.90218
G1 X137.194 Y94.981 E7.98271
G1 X137.111 Y94.100 E8.06318
G1 X137.082 Y93.214 E8.14377
G1 X137.111 Y92.328 E8.22437
G1 X137.194 Y91.447 E8.30484
G1 X137.332 Y90.572 E8.38536
G1 X137.526 Y89.706 E8.46604
G1 X137.773 Y88.856 E8.54653
G1 X138.007 Y88.207 E8.60932
G1 X138.132 Y87.918 E8.63795
G1 X138.533 Y87.128 E8.71848
G1 X138.958 Y86.411 E8.79433
G1 X139.513 Y86.700 F7800.000
G1 X139.988 Y86.001 E8.87125 F540.000
G1 X140.508 Y85.331 E8.94829
G1 X141.067 Y84.697 E9.02524
G1 X141.666 Y84.098 E9.10220
G1 X142.300 Y83.539 E9.17914
G1 X142.970 Y83.019 E9.25618
G1 X143.669 Y82.544 E9.33311
G1 X144.398 Y82.112 E9.41013
G1 X145.153 Y81.729 E9.48711
G1 X146.019 Y81.398 E9.57135
G1 X146.831 Y81.162 E9.64828
G1 X147.658 Y80.977 E9.72537
G1 X148.494 Y80.845 E9.80230
G1 X149.647 Y80.736 E9.90764
G1 X149.585 Y80.629 E9.91891
G1 X150.183 Y80.685 E9.97349
G1 X150.781 Y80.629 E10.02807
G1 X150.719 Y80.736 E10.03934
G1 X151.872 Y80.845 E10.14468
G1 X152.708 Y80.977 E10.22161
G1 X153.535 Y81.162 E10.29870
G1 X154.347 Y81.398 E10.37563
G1 X154.960 Y81.619 E10.43484
G1 X155.213 Y81.729 E10.45991
G1 X155.968 Y82.112 E10.53688
G1 X156.697 Y82.544 E10.61391
G1 X157.396 Y83.019 E10.69083
G1 X158.066 Y83.539 E10.76788
G1 X158.700 Y84.098 E10.84482
G1 X159.299 Y84.697 E10.92178
G1 X159.858 Y85.331 E10.99872
G1 X160.378 Y86.001 E11.07577
G1 X160.853 Y86.700 E11.15269
G1 X161.285 Y87.429 E11.22972
G1 X161.668 Y88.184 E11.30669
G1 X161.999 Y89.050 E11.39093
G1 X162.235 Y89.862 E11.46787
G1 X162.420 Y90.689 E11.54495
G1 X162.552 Y91.525 E11.62189
G1 X162.631 Y92.368 E11.69883
G1 X162.658 Y93.214 E11.77584
G1 X162.631 Y94.060 E11.85285
G1 X162.552 Y94.903 E11.92978
G1 X162.420 Y95.739 E12.00672
G1 X162.235 Y96.566 E12.08380
G1 X161.999 Y97.378 E12.16074
G1 X161.778 Y97.991 E12.21994
G1 X161.669 Y98.244 E12.24502
G1 X161.290 Y98.989 E12.32102
G1 X161.494 Y98.989 E12.33963
G1 X160.901 Y99.753 E12.42760
G1 X160.773 Y100.006 E12.45336
G1 X160.744 Y99.956 E12.45861
G1 X159.858 Y101.097 E12.58990
G1 X159.299 Y101.731 E12.66684
G1 X158.700 Y102.330 E12.74381
G1 X158.066 Y102.889 E12.82075
G1 X157.396 Y103.409 E12.89779
G1 X156.697 Y103.884 E12.97471
G1 X155.968 Y104.316 E13.05174
G1 X155.213 Y104.699 E13.12870
G1 X154.347 Y105.030 E13.21296
G1 X153.535 Y105.266 E13.28989
G1 X152.708 Y105.451 E13.36698
G1 X151.872 Y105.583 E13.44391
G1 X151.030 Y105.662 E13.52085
G1 X150.183 Y105.689 E13.59786
G1 X149.337 Y105.662 E13.67487
G1 X148.494 Y105.583 E13.75180
G1 X147.658 Y105.451 E13.82874
G1 X146.831 Y105.266 E13.90583
G1 X146.019 Y105.030 E13.98276
G1 X145.406 Y104.809 E14.04197
G1 X145.153 Y104.699 E14.06704
G1 X144.398 Y104.316 E14.14401
G1 X143.669 Y103.884 E14.22104
G1 X142.970 Y103.409 E14.29796
G1 X142.300 Y102.889 E14.37500
G1 X141.666 Y102.330 E14.45195
G1 X141.067 Y101.731 E14.52891
G1 X140.508 Y101.097 E14.60585
G1 X139.622 Y99.956 E14.73714
G1 X139.594 Y100.006 E14.74237
G1 X139.465 Y99.754 E14.76809
G1 X138.872 Y98.989 E14.85611
G1 X139.076 Y98.989 E14.87471
G1 X138.698 Y98.244 E14.95072
G1 X138.588 Y97.991 E14.97579
G1 X138.367 Y97.378 E15.03500
G1 X138.131 Y96.566 E15.11193
G1 X137.946 Y95.739 E15.18902
G1 X137.814 Y94.903 E15.26596
G1 X137.735 Y94.061 E15.34289
G1 X137.708 Y93.214 E15.41990
G1 X137.735 Y92.367 E15.49691
G1 X137.814 Y91.525 E15.57385
G1 X137.946 Y90.689 E15.65078
G1 X138.131 Y89.862 E15.72787
G1 X138.367 Y89.050 E15.80480
G1 X138.698 Y88.184 E15.88905
G1 X139.081 Y87.429 E15.96602
G1 X139.486 Y86.746 E16.03827
G1 X140.040 Y87.035 F7800.000
G1 X140.494 Y86.368 E16.11162 F378.000
G1 X140.989 Y85.730 E16.18510
G1 X141.523 Y85.124 E16.25848
G1 X142.093 Y84.554 E16.33186
G1 X142.699 Y84.020 E16.40524
G1 X143.337 Y83.525 E16.47871
G1 X144.004 Y83.071 E16.55206
G1 X144.699 Y82.660 E16.62550
G1 X145.636 Y82.200 E16.72039
G1 X146.212 Y81.993 E16.77602
G1 X146.987 Y81.768 E16.84940
G1 X147.775 Y81.591 E16.92289
G1 X148.572 Y81.466 E16.99624
G1 X149.634 Y81.365 E17.09321
G1 X139.628 Y98.696 E18.91287
G1 X139.263 Y97.978 E18.98610
G1 X138.962 Y97.185 E19.06321
G1 X138.737 Y96.410 E19.13659
G1 X138.560 Y95.622 E19.21008
G1 X138.435 Y94.825 E19.28343
G1 X138.359 Y94.021 E19.35683
G1 X138.333 Y93.214 E19.43026
G1 X138.359 Y92.407 E19.50368
G1 X138.435 Y91.603 E19.57709
G1 X138.560 Y90.806 E19.65043
G1 X138.737 Y90.018 E19.72392
G1 X138.962 Y89.243 E19.79731
G1 X139.263 Y88.450 E19.87442
G1 X139.629 Y87.730 E19.94783
G1 X140.014 Y87.081 E20.01649
G1 X139.882 Y86.724 F7800.000
G1 F1800.000 E19.01649
G92 E0
G1 X150.732 Y81.365 F7800.000
G1 E1.00000 F1800.000
G1 X151.794 Y81.466 E1.09697 F378.000
G1 X152.591 Y81.591 E1.17032
G1 X153.379 Y81.768 E1.24381
G1 X154.154 Y81.993 E1.31719
G1 X154.947 Y82.294 E1.39430
G1 X155.667 Y82.660 E1.46771
G1 X156.362 Y83.071 E1.54115
G1 X157.029 Y83.525 E1.61450
G1 X157.667 Y84.020 E1.68797
G1 X158.273 Y84.554 E1.76135
G1 X158.843 Y85.124 E1.83473
G1 X159.377 Y85.730 E1.90811
G1 X159.872 Y86.368 E1.98159
G1 X160.326 Y87.035 E2.05494
G1 X160.737 Y87.730 E2.12837
G1 X161.197 Y88.667 E2.22327
G1 X161.404 Y89.243 E2.27889
G1 X161.629 Y90.018 E2.35227
G1 X161.806 Y90.806 E2.42576
G1 X161.931 Y91.603 E2.49911
G1 X162.007 Y92.407 E2.57251
G1 X162.033 Y93.214 E2.64594
G1 X162.007 Y94.021 E2.71936
G1 X161.931 Y94.825 E2.79277
G1 X161.806 Y95.622 E2.86611
G1 X161.629 Y96.410 E2.93960
G1 X161.404 Y97.185 E3.01299
G1 X161.197 Y97.761 E3.06861
G1 X160.738 Y98.696 E3.16333
G1 X150.758 Y81.410 E4.97822
G1 X150.693 Y81.017 F7800.000
G1 F1800.000 E3.97822
G92 E0
G1 X150.949 Y90.858 F7800.000
G1 E1.00000 F1800.000
G1 X152.660 Y93.214 E1.26482 F540.000
G1 X150.949 Y95.570 E1.52964
G1 X148.179 Y94.670 E1.79447
G1 X148.179 Y91.758 E2.05929
G1 X150.899 Y90.874 E2.31934
G1 X150.710 Y91.592 F7800.000
G1 X151.888 Y93.214 E2.50160 F540.000
G1 X150.710 Y94.836 E2.68385
G1 X148.804 Y94.216 E2.86611
G1 X148.804 Y92.212 E3.04837
G1 X150.660 Y91.609 E3.22585
G1 X150.471 Y92.327 F7800.000
G1 X151.116 Y93.214 E3.32555 F540.000
G1 X150.471 Y94.101 E3.42524
G1 X149.428 Y93.762 E3.52493
G1 X149.428 Y92.666 E3.62462
G1 X150.421 Y92.343 E3.71954
G1 X150.774 Y92.152 F7800.000
G1 F1800.000 E2.71954
G92 E0
G1 X160.218 Y99.614 F7800.000
G1 E1.00000 F1800.000
G1 X159.377 Y100.698 E1.12479 F378.000
G1 X158.843 Y101.304 E1.19816
G1 X158.273 Y101.874 E1.27154
G1 X157.667 Y102.408 E1.34492
G1 X157.029 Y102.903 E1.41840
G1 X156.362 Y103.357 E1.49175
G1 X155.667 Y103.768 E1.56518
G1 X154.730 Y104.228 E1.66008
G1 X154.154 Y104.435 E1.71570
G1 X153.379 Y104.660 E1.78909
G1 X152.591 Y104.837 E1.86258
G1 X151.794 Y104.962 E1.93592
G1 X150.990 Y105.038 E2.00933
G1 X150.183 Y105.064 E2.08275
G1 X149.376 Y105.038 E2.15618
G1 X148.572 Y104.962 E2.22958
G1 X147.775 Y104.837 E2.30293
G1 X146.987 Y104.660 E2.37642
G1 X146.212 Y104.435 E2.44980
G1 X145.636 Y104.228 E2.50542
G1 X144.699 Y103.768 E2.60032
G1 X144.004 Y103.357 E2.67375
G1 X143.337 Y102.903 E2.74710
G1 X142.699 Y102.408 E2.82058
G1 X142.093 Y101.874 E2.89396
G1 X141.523 Y101.304 E2.96734
G1 X140.989 Y100.698 E3.04072
G1 X140.148 Y99.614 E3.16550
G1 X160.166 Y99.614 E4.98571
G1 X160.535 Y99.763 F7800.000
G1 X159.103 Y98.364 F7800.000
G1 X141.263 Y98.364 E6.60792 F540.000
G1 X150.183 Y82.914 E8.23017
G1 X159.077 Y98.319 E9.84765
G1 X160.185 Y98.989 F7800.000
G1 X140.181 Y98.989 E11.66669 F540.000
G1 X150.183 Y81.664 E13.48577
G1 X160.159 Y98.944 E15.30009
G1 X162.632 Y100.376 F7800.000
G1 X162.204 Y101.100 E15.37661 F540.000
G1 X161.730 Y101.797 E15.45324
G1 X161.215 Y102.462 E15.52972
G1 X160.658 Y103.094 E15.60626
G1 X160.063 Y103.689 E15.68285
G1 X159.431 Y104.246 E15.75939
G1 X158.766 Y104.761 E15.83587
G1 X158.069 Y105.235 E15.91251
G1 X157.345 Y105.663 E15.98903
G1 X156.595 Y106.045 E16.06551
G1 X155.128 Y106.668 E16.21050
G1 X154.324 Y106.958 E16.28822
G1 X153.515 Y107.193 E16.36477
G1 X152.694 Y107.376 E16.44128
G1 X150.583 Y107.711 E16.63562
G1 X150.583 Y113.314 E17.14505
G1 X157.583 Y113.314 E17.78156
G1 X157.583 Y114.114 E17.85434
G1 X150.583 Y114.114 E18.49085
G1 X150.583 Y123.862 E19.37721
G1 X156.783 Y117.662 E20.17446
G1 X157.335 Y118.214 E20.24542
G1 X150.183 Y125.366 E21.16509
G1 X143.031 Y118.214 E22.08477
G1 X143.583 Y117.662 E22.15573
G1 X149.783 Y123.862 E22.95298
G1 X149.783 Y114.114 E23.83934
G1 X142.783 Y114.114 E24.47585
G1 X142.783 Y113.314 E24.54863
G1 X149.783 Y113.314 E25.18514
G1 X149.783 Y107.711 E25.69457
G1 X147.672 Y107.376 E25.88891
G1 X146.851 Y107.193 E25.96542
G1 X146.042 Y106.958 E26.04197
G1 X145.238 Y106.668 E26.11968
