; generated by Slic3r 1.1.1 on 2014-05-08 at 23:05:50

; perimeters extrusion width = 0.35mm
; infill extrusion width = 0.39mm
; solid infill extrusion width = 0.39mm
; top infill extrusion width = 0.39mm

G21 ; set units to millimeters
M107
M104 S220 ; set temperature
G28 ; home all axes
G1 Z5 F5000 ; lift nozzle

M109 S220 ; wait for temperature to be reached
G90 ; use absolute coordinates
G92 E0
M82 ; use absolute distances for extrusion
G1 F1800.000 E-1.00000
G92 E0
G1 Z0.350 F7800.000
G1 X114.395 Y70.533 F7800.000
G1 E1.00000 F1800.000
G1 X116.354 Y68.823 E1.23641 F540.000
G1 X117.644 Y68.154 E1.36856
G1 X119.404 Y67.504 E1.53918
G1 X130.332 Y64.576 E2.56790
G1 X132.992 Y64.299 E2.81108
G1 X165.350 Y66.054 E5.75768
G1 X177.943 Y66.866 E6.90513
G1 X180.649 Y67.495 E7.15773
G1 X181.356 Y67.788 E7.22733
G1 X183.577 Y69.139 E7.46374
G1 X185.464 Y71.391 E7.73087
G1 X186.956 Y74.120 E8.01369
G1 X187.249 Y74.827 E8.08328
G1 X187.864 Y77.353 E8.31969
G1 X187.688 Y79.947 E8.55610
G1 X187.249 Y81.333 E8.68827
G1 X186.722 Y82.554 E8.80922
G1 X181.090 Y93.944 E9.96459
G1 X166.470 Y122.766 E12.90325
G1 X164.900 Y124.931 E13.14644
G1 X156.900 Y132.931 E14.17519
G1 X154.143 Y134.774 E14.47674
G1 X153.436 Y135.067 E14.54633
G1 X150.910 Y135.682 E14.78274
G1 X148.316 Y135.506 E15.01915
G1 X146.930 Y135.067 E15.15132
G1 X146.223 Y134.774 E15.22092
G1 X143.466 Y132.931 E15.52247
G1 X135.466 Y124.931 E16.55122
G1 X134.115 Y123.171 E16.75297
G1 X115.972 Y91.602 E20.06382
G1 X115.322 Y89.842 E20.23443
G1 X112.394 Y78.914 E21.26316
G1 X112.113 Y76.329 E21.49957
G1 X112.751 Y73.461 E21.76671
G1 X113.044 Y72.754 E21.83631
G1 X114.368 Y70.577 E22.06794
G1 X114.934 Y70.863 F7800.000
G1 X117.883 Y68.732 E22.39883 F540.000
G1 X119.566 Y68.108 E22.56201
G1 X130.494 Y65.180 E23.59074
G1 X132.958 Y64.923 E23.81604
G1 X165.310 Y66.678 E26.76206
G1 X177.903 Y67.490 E27.90951
G1 X180.410 Y68.073 E28.14354
G1 X181.117 Y68.366 E28.21313
G1 X183.247 Y69.678 E28.44063
G1 X184.923 Y71.703 E28.67968
G1 X186.378 Y74.359 E28.95506
G1 X186.671 Y75.066 E29.02466
G1 X187.249 Y77.501 E29.25216
G1 X186.671 Y81.094 E29.58306
G1 X186.162 Y82.277 E29.70023
G1 X180.533 Y93.661 E30.85502
G1 X165.913 Y122.483 E33.79368
G1 X164.458 Y124.489 E34.01899
G1 X156.458 Y132.489 E35.04774
G1 X153.904 Y134.196 E35.32712
G1 X153.197 Y134.489 E35.39671
G1 X150.762 Y135.067 E35.62422
G1 X147.169 Y134.489 E35.95512
G1 X146.462 Y134.196 E36.02471
G1 X143.908 Y132.489 E36.30409
G1 X135.908 Y124.489 E37.33284
G1 X134.656 Y122.858 E37.51976
G1 X116.550 Y91.363 E40.82319
G1 X115.926 Y89.680 E40.98637
G1 X112.998 Y78.752 E42.01510
G1 X112.742 Y76.263 E42.24260
G1 X113.329 Y73.700 E42.48165
G1 X113.622 Y72.993 E42.55125
G1 X114.907 Y70.908 E42.77397
G1 X115.472 Y71.198 F7800.000
G1 X118.122 Y69.309 E43.06994 F540.000
G1 X119.728 Y68.711 E43.22569
G1 X130.656 Y65.783 E44.25442
G1 X132.925 Y65.547 E44.46184
G1 X165.270 Y67.301 E47.40728
G1 X177.863 Y68.113 E48.55473
G1 X180.170 Y68.650 E48.77019
G1 X180.878 Y68.943 E48.83978
G1 X182.912 Y70.216 E49.05801
G1 X184.382 Y72.016 E49.26930
G1 X185.801 Y74.598 E49.53727
G1 X186.094 Y75.306 E49.60686
G1 X186.633 Y77.644 E49.82509
G1 X186.094 Y80.854 E50.12107
G1 X185.602 Y82.000 E50.23446
G1 X179.976 Y93.379 E51.38867
G1 X165.356 Y122.201 E54.32733
G1 X164.016 Y124.047 E54.53476
G1 X156.016 Y132.047 E55.56351
G1 X153.665 Y133.619 E55.82072
G1 X152.957 Y133.912 E55.89032
G1 X150.619 Y134.451 E56.10854
G1 X147.409 Y133.912 E56.40452
G1 X146.701 Y133.619 E56.47412
G1 X144.350 Y132.047 E56.73132
G1 X136.350 Y124.047 E57.76008
G1 X135.197 Y122.546 E57.93216
G1 X117.127 Y91.124 E61.22817
G1 X116.529 Y89.518 E61.38393
G1 X113.601 Y78.590 E62.41266
G1 X113.372 Y76.201 E62.63088
G1 X113.906 Y73.940 E62.84218
G1 X114.199 Y73.232 E62.91178
G1 X115.444 Y71.242 E63.12523
G1 X116.008 Y71.537 F7800.000
G1 X118.362 Y69.886 E63.38666 F540.000
G1 X119.889 Y69.315 E63.53498
G1 X130.817 Y66.387 E64.56371
G1 X132.891 Y66.171 E64.75325
G1 X165.229 Y67.925 E67.69811
G1 X177.822 Y68.737 E68.84556
G1 X179.931 Y69.227 E69.04245
G1 X180.638 Y69.520 E69.11204
G1 X182.573 Y70.751 E69.32058
G1 X183.840 Y72.328 E69.50452
G1 X185.224 Y74.838 E69.76506
G1 X185.517 Y75.545 E69.83465
G1 X186.014 Y77.784 E70.04319
G1 X185.517 Y80.615 E70.30463
G1 X185.042 Y81.723 E70.41425
G1 X179.418 Y93.096 E71.56788
G1 X164.798 Y121.918 E74.50654
G1 X163.575 Y123.606 E74.69609
G1 X155.575 Y131.606 E75.72484
G1 X153.425 Y133.042 E75.95988
G1 X152.718 Y133.335 E76.02947
G1 X150.479 Y133.832 E76.23801
G1 X147.648 Y133.335 E76.49945
G1 X146.941 Y133.042 E76.56905
G1 X144.791 Y131.606 E76.80408
G1 X136.791 Y123.606 E77.83284
G1 X135.739 Y122.234 E77.99009
G1 X117.704 Y90.884 E81.27869
G1 X117.133 Y89.357 E81.42701
G1 X114.205 Y78.429 E82.45574
G1 X114.004 Y76.144 E82.66428
G1 X114.483 Y74.179 E82.84822
G1 X114.776 Y73.472 E82.91782
G1 X115.979 Y71.581 E83.12159
G1 F1800.000 E82.12159
G92 E0
G1 X139.091 Y86.432 F7800.000
G1 E1.00000 F1800.000
G1 X139.584 Y85.707 E1.07974 F540.000
G1 X140.121 Y85.013 E1.15959
G1 X140.702 Y84.354 E1.23943
G1 X141.323 Y83.733 E1.31929
G1 X141.982 Y83.152 E1.39912
G1 X142.676 Y82.615 E1.47898
G1 X143.401 Y82.122 E1.55872
G1 X144.157 Y81.674 E1.63858
G1 X144.940 Y81.276 E1.71847
G1 X145.217 Y81.156 E1.74596
G1 X145.864 Y80.922 E1.80849
G1 X146.707 Y80.677 E1.88832
G1 X147.565 Y80.486 E1.96820
G1 X148.432 Y80.349 E2.04806
G1 X149.920 Y80.209 E2.18396
G1 X149.890 Y80.156 E2.18947
G1 X150.183 Y80.184 E2.21623
G1 X150.476 Y80.157 E2.24297
G1 X150.446 Y80.209 E2.24848
G1 X151.934 Y80.349 E2.38437
G1 X152.801 Y80.486 E2.46423
G1 X153.659 Y80.677 E2.54412
G1 X154.502 Y80.922 E2.62395
G1 X155.149 Y81.156 E2.68648
G1 X155.426 Y81.276 E2.71397
G1 X156.209 Y81.674 E2.79386
G1 X156.965 Y82.122 E2.87372
G1 X157.690 Y82.615 E2.95346
G1 X158.384 Y83.152 E3.03331
G1 X159.043 Y83.733 E3.11315
G1 X159.664 Y84.354 E3.19301
G1 X160.245 Y85.013 E3.27284
G1 X160.782 Y85.707 E3.35270
G1 X161.275 Y86.432 E3.43244
G1 X161.723 Y87.188 E3.51230
G1 X162.121 Y87.971 E3.59219
G1 X162.241 Y88.248 E3.61968
G1 X162.475 Y88.895 E3.68221
G1 X162.720 Y89.738 E3.76204
G1 X162.911 Y90.596 E3.84192
G1 X163.048 Y91.463 E3.92176
G1 X163.130 Y92.336 E4.00153
G1 X163.158 Y93.214 E4.08136
G1 X163.130 Y94.092 E4.16120
G1 X163.048 Y94.965 E4.24096
G1 X162.911 Y95.832 E4.32080
G1 X162.720 Y96.690 E4.40069
G1 X162.475 Y97.533 E4.48052
G1 X162.242 Y98.180 E4.54304
G1 X161.675 Y99.489 E4.67277
G1 X161.736 Y99.489 E4.67825
G1 X161.599 Y99.666 E4.69854
G1 X161.408 Y100.107 E4.74227
G1 X161.344 Y99.995 E4.75399
G1 X160.245 Y101.415 E4.91727
G1 X159.664 Y102.074 E4.99710
G1 X159.043 Y102.695 E5.07697
G1 X158.384 Y103.276 E5.15680
G1 X157.690 Y103.813 E5.23666
G1 X156.965 Y104.306 E5.31639
G1 X156.209 Y104.754 E5.39625
G1 X155.426 Y105.152 E5.47614
G1 X155.149 Y105.272 E5.50364
G1 X154.502 Y105.506 E5.56616
G1 X153.659 Y105.751 E5.64599
G1 X152.801 Y105.942 E5.72588
G1 X151.934 Y106.079 E5.80572
G1 X151.061 Y106.161 E5.88548
G1 X150.183 Y106.189 E5.96532
G1 X149.305 Y106.161 E6.04515
G1 X148.432 Y106.079 E6.12492
G1 X147.565 Y105.942 E6.20476
G1 X146.707 Y105.751 E6.28464
G1 X145.864 Y105.506 E6.36447
G1 X145.217 Y105.272 E6.42700
G1 X144.940 Y105.152 E6.45449
G1 X144.157 Y104.754 E6.53438
G1 X143.401 Y104.306 E6.61424
G1 X142.676 Y103.813 E6.69398
G1 X141.982 Y103.276 E6.77384
G1 X141.323 Y102.695 E6.85367
G1 X140.702 Y102.074 E6.93353
G1 X140.121 Y101.415 E7.01337
G1 X139.022 Y99.995 E7.17665
G1 X138.958 Y100.107 E7.18838
G1 X138.767 Y99.665 E7.23215
G1 X138.630 Y99.489 E7.25240
G1 X138.691 Y99.489 E7.25788
G1 X138.124 Y98.180 E7.38760
G1 X137.891 Y97.533 E7.45013
G1 X137.646 Y96.690 E7.52996
G1 X137.455 Y95.832 E7.60984
G1 X137.318 Y94.965 E7.68968
G1 X137.236 Y94.092 E7.76945
G1 X137.208 Y93.214 E7.84928
G1 X137.236 Y92.336 E7.92912
G1 X137.318 Y91.463 E8.00888
G1 X137.455 Y90.596 E8.08872
G1 X137.646 Y89.738 E8.16861
G1 X137.891 Y88.895 E8.24844
G1 X138.125 Y88.248 E8.31096
G1 X138.245 Y87.971 E8.33845
G1 X138.643 Y87.188 E8.41835
G1 X139.064 Y86.477 E8.49343
G1 F1800.000 E7.49343
G92 E0
G1 X151.036 Y80.892 F7800.000
G1 E1.00000 F1800.000
G1 X151.856 Y80.970 E1.07482 F378.000
G1 X152.684 Y81.100 E1.15111
G1 X153.503 Y81.283 E1.22739
G1 X154.308 Y81.517 E1.30363
G1 X155.160 Y81.841 E1.38650
G1 X155.908 Y82.222 E1.46280
G1 X156.630 Y82.649 E1.53908
G1 X157.323 Y83.121 E1.61529
G1 X157.986 Y83.634 E1.69157
G1 X158.615 Y84.189 E1.76780
G1 X159.208 Y84.782 E1.84412
G1 X159.763 Y85.411 E1.92035
G1 X160.276 Y86.074 E1.99663
G1 X160.748 Y86.767 E2.07283
G1 X161.175 Y87.489 E2.14911
G1 X161.556 Y88.237 E2.22542
G1 X161.660 Y88.479 E2.24935
G1 X161.880 Y89.089 E2.30832
G1 X162.114 Y89.894 E2.38457
G1 X162.297 Y90.713 E2.46084
G1 X162.427 Y91.541 E2.53712
G1 X162.506 Y92.376 E2.61336
G1 X162.533 Y93.214 E2.68960
G1 X162.506 Y94.052 E2.76585
G1 X162.427 Y94.887 E2.84208
G1 X162.297 Y95.715 E2.91836
G1 X162.114 Y96.534 E2.99464
G1 X161.880 Y97.339 E3.07089
G1 X161.660 Y97.949 E3.12986
G1 X161.328 Y98.718 E3.20600
G1 X151.063 Y80.938 E5.07286
G1 X150.997 Y80.544 F7800.000
G1 X149.330 Y80.892 F7800.000
G1 X139.038 Y98.718 E6.94450 F378.000
G1 X138.706 Y97.949 E7.02064
G1 X138.486 Y97.339 E7.07961
G1 X138.252 Y96.534 E7.15586
G1 X138.069 Y95.715 E7.23214
G1 X137.939 Y94.887 E7.30842
G1 X137.860 Y94.052 E7.38465
G1 X137.833 Y93.214 E7.46090
G1 X137.860 Y92.376 E7.53714
G1 X137.939 Y91.541 E7.61338
G1 X138.069 Y90.713 E7.68965
G1 X138.252 Y89.894 E7.76593
G1 X138.486 Y89.089 E7.84218
G1 X138.706 Y88.479 E7.90115
G1 X138.810 Y88.237 E7.92508
G1 X139.191 Y87.489 E8.00138
G1 X139.618 Y86.767 E8.07766
G1 X140.090 Y86.074 E8.15387
G1 X140.603 Y85.411 E8.23015
G1 X141.158 Y84.782 E8.30638
G1 X141.751 Y84.189 E8.38270
G1 X142.380 Y83.634 E8.45893
G1 X143.043 Y83.121 E8.53521
G1 X143.736 Y82.649 E8.61141
G1 X144.458 Y82.222 E8.68769
G1 X145.206 Y81.841 E8.76400
G1 X146.058 Y81.517 E8.84686
G1 X146.863 Y81.283 E8.92311
G1 X147.682 Y81.100 E8.99939
G1 X148.510 Y80.970 E9.07567
G1 X149.277 Y80.897 E9.14572
G1 X149.662 Y81.002 F7800.000
G1 F1800.000 E8.14572
G92 E0
G1 X150.949 Y90.858 F7800.000
G1 E1.00000 F1800.000
G1 X152.660 Y93.214 E1.26482 F540.000
G1 X150.949 Y95.570 E1.52964
G1 X148.179 Y94.670 E1.79447
G1 X148.179 Y91.758 E2.05929
G1 X150.899 Y90.874 E2.31934
G1 X150.710 Y91.592 F7800.000
G1 X151.888 Y93.214 E2.50160 F540.000
G1 X150.710 Y94.836 E2.68385
G1 X148.804 Y94.216 E2.86611
G1 X148.804 Y92.212 E3.04837
G1 X150.660 Y91.609 E3.22585
G1 X150.471 Y92.327 F7800.000
G1 X151.116 Y93.214 E3.32555 F540.000
G1 X150.471 Y94.101 E3.42524
G1 X149.428 Y93.762 E3.52493
G1 X149.428 Y92.666 E3.62462
G1 X150.421 Y92.343 E3.71954
G1 X150.774 Y92.152 F7800.000
G1 F1800.000 E2.71954
G92 E0
G1 X160.462 Y100.114 F7800.000
G1 E1.00000 F1800.000
G1 X159.763 Y101.017 E1.10383 F378.000
G1 X159.208 Y101.646 E1.18006
G1 X158.615 Y102.239 E1.25638
G1 X157.986 Y102.794 E1.33261
G1 X157.323 Y103.307 E1.40889
G1 X156.630 Y103.779 E1.48510
G1 X155.908 Y104.206 E1.56138
G1 X155.160 Y104.587 E1.63768
G1 X154.918 Y104.691 E1.66161
G1 X154.308 Y104.911 E1.72058
G1 X153.503 Y105.145 E1.79683
G1 X152.684 Y105.328 E1.87311
G1 X151.856 Y105.458 E1.94938
G1 X151.021 Y105.537 E2.02562
G1 X150.183 Y105.564 E2.10186
G1 X149.345 Y105.537 E2.17811
G1 X148.510 Y105.458 E2.25434
G1 X147.682 Y105.328 E2.33062
G1 X146.863 Y105.145 E2.40690
G1 X146.058 Y104.911 E2.48315
G1 X145.448 Y104.691 E2.54212
G1 X145.206 Y104.587 E2.56605
G1 X144.458 Y104.206 E2.64235
G1 X143.736 Y103.779 E2.71863
G1 X143.043 Y103.307 E2.79484
G1 X142.380 Y102.794 E2.87112
G1 X141.751 Y102.239 E2.94735
G1 X141.158 Y101.646 E3.02366
G1 X140.603 Y101.017 E3.09989
G1 X139.904 Y100.114 E3.20373
G1 X160.409 Y100.114 E5.06823
G1 X160.779 Y100.263 F7800.000
G1 X161.268 Y101.114 F7800.000
G1 X161.691 Y101.847 E5.14522 F540.000
G1 X161.215 Y102.462 E5.21596
G1 X160.658 Y103.094 E5.29250
G1 X160.063 Y103.689 E5.36909
G1 X159.431 Y104.246 E5.44563
G1 X158.766 Y104.761 E5.52211
G1 X158.069 Y105.235 E5.59874
G1 X157.345 Y105.663 E5.67526
G1 X156.595 Y106.045 E5.75175
G1 X155.128 Y106.668 E5.89674
G1 X154.324 Y106.958 E5.97446
G1 X153.515 Y107.193 E6.05100
G1 X152.694 Y107.376 E6.12751
G1 X150.583 Y107.711 E6.32186
G1 X150.583 Y113.314 E6.83129
G1 X157.583 Y113.314 E7.46779
G1 X157.583 Y114.114 E7.54058
G1 X150.583 Y114.114 E8.17708
G1 X150.583 Y123.862 E9.06345
G1 X156.783 Y117.662 E9.86070
G1 X157.335 Y118.214 E9.93166
G1 X150.183 Y125.366 E10.85133
G1 X143.031 Y118.214 E11.77101
G1 X143.583 Y117.662 E11.84196
G1 X149.783 Y123.862 E12.63922
G1 X149.783 Y114.114 E13.52558
G1 X142.783 Y114.114 E14.16209
G1 X142.783 Y113.314 E14.23487
G1 X149.783 Y113.314 E14.87138
G1 X149.783 Y107.711 E15.38081
G1 X147.672 Y107.376 E15.57515
G1 X146.851 Y107.193 E15.65166
G1 X146.042 Y106.958 E15.72820
G1 X145.238 Y106.668 E15.80592
G1 X143.771 Y106.045 E15.95092
G1 X143.021 Y105.663 E16.02740
G1 X142.297 Y105.235 E16.10392
G1 X141.600 Y104.761 E16.18056
G1 X140.935 Y104.246 E16.25704
G1 X140.303 Y103.689 E16.33357
G1 X139.708 Y103.094 E16.41017
G1 X139.151 Y102.462 E16.48670
G1 X138.675 Y101.847 E16.55744
G1 X139.098 Y101.114 E16.63443
G1 X139.640 Y101.814 E16.71488
G1 X140.247 Y102.502 E16.79832
G1 X140.895 Y103.150 E16.88173
G1 X141.583 Y103.758 E16.96516
G1 X142.309 Y104.319 E17.04859
G1 X143.066 Y104.834 E17.13187
G1 X143.856 Y105.301 E17.21530
G1 X144.674 Y105.718 E17.29878
G1 X144.987 Y105.854 E17.32984
G1 X145.671 Y106.100 E17.39592
G1 X146.552 Y106.356 E17.47934
G1 X147.448 Y106.556 E17.56283
G1 X148.354 Y106.699 E17.64623
G1 X149.266 Y106.785 E17.72952
G1 X150.183 Y106.815 E17.81295
G1 X151.100 Y106.785 E17.89637
G1 X152.012 Y106.699 E17.97967
G1 X152.918 Y106.556 E18.06307
G1 X153.814 Y106.356 E18.14656
G1 X154.695 Y106.100 E18.22997
G1 X155.379 Y105.854 E18.29606
G1 X155.692 Y105.718 E18.32712
G1 X156.510 Y105.301 E18.41060
G1 X157.300 Y104.834 E18.49403
G1 X158.057 Y104.319 E18.57730
G1 X158.783 Y103.758 E18.66073
G1 X159.471 Y103.150 E18.74417
G1 X160.119 Y102.502 E18.82758
G1 X160.727 Y101.814 E18.91101
G1 X161.236 Y101.156 E18.98669
G1 F1800.000 E17.98669
G92 E0
G1 X138.701 Y101.087 F7800.000
G1 E1.00000 F1800.000
G1 X138.302 Y101.306 E1.04136 F540.000
G1 X137.734 Y100.376 E1.14045
G1 X137.310 Y99.545 E1.22526
G1 X137.695 Y99.301 E1.26664
G1 X138.224 Y99.985 E1.34531
G1 X138.680 Y101.039 E1.44965
G1 X140.397 Y98.864 F7800.000
G1 X150.183 Y81.914 E3.22938 F540.000
G1 X159.969 Y98.864 E5.00912
G1 X140.449 Y98.864 E6.78404
G1 X139.315 Y99.489 F7800.000
G1 X150.183 Y80.664 E8.76061 F540.000
G1 X161.051 Y99.489 E10.73718
G1 X139.367 Y99.489 E12.70894
G1 F1800.000 E11.70894
G92 E0
G1 X161.665 Y101.088 F7800.000
G1 E1.00000 F1800.000
G1 X162.141 Y99.986 E1.10916 F540.000
G1 X162.671 Y99.301 E1.18786
G1 X163.056 Y99.545 E1.22923
G1 X162.632 Y100.376 E1.31405
G1 X162.064 Y101.307 E1.41322
G1 X161.711 Y101.113 E1.44981
G1 X162.626 Y98.864 F7800.000
G1 X162.823 Y98.410 E1.49484 F540.000
G1 X163.069 Y97.726 E1.56092
G1 X163.325 Y96.845 E1.64433
G1 X163.525 Y95.949 E1.72782
G1 X163.668 Y95.043 E1.81122
G1 X163.754 Y94.131 E1.89452
G1 X163.784 Y93.214 E1.97794
G1 X163.754 Y92.297 E2.06137
G1 X163.668 Y91.385 E2.14466
G1 X163.525 Y90.479 E2.22806
G1 X163.325 Y89.583 E2.31155
G1 X163.069 Y88.702 E2.39497
G1 X162.823 Y88.018 E2.46105
G1 X162.687 Y87.705 E2.49211
G1 X162.270 Y86.887 E2.57559
G1 X161.803 Y86.097 E2.65902
G1 X161.288 Y85.340 E2.74230
G1 X160.727 Y84.614 E2.82573
G1 X160.119 Y83.926 E2.90916
G1 X159.471 Y83.278 E2.99257
G1 X158.783 Y82.670 E3.07601
G1 X158.057 Y82.109 E3.15944
G1 X157.300 Y81.594 E3.24271
G1 X156.510 Y81.127 E3.32614
G1 X155.692 Y80.710 E3.40963
G1 X155.379 Y80.574 E3.44069
G1 X154.695 Y80.328 E3.50677
G1 X153.814 Y80.072 E3.59018
G1 X152.918 Y79.872 E3.67367
G1 X152.011 Y79.729 E3.75712
G1 X151.474 Y79.678 E3.80624
G1 X151.622 Y79.421 E3.83327
G1 X150.183 Y79.556 E3.96472
G1 X148.744 Y79.421 E4.09618
G1 X148.892 Y79.678 E4.12322
G1 X148.354 Y79.729 E4.17236
G1 X147.448 Y79.872 E4.25579
G1 X146.552 Y80.072 E4.33928
G1 X145.671 Y80.328 E4.42269
G1 X144.987 Y80.574 E4.48878
