; generated by Slic3r 1.1.1 on 2014-05-13 at 21:30:09

; perimeters extrusion width = 0.35mm
; infill extrusion width = 0.39mm
; solid infill extrusion width = 0.39mm
; top infill extrusion width = 0.39mm

G21 ; set units to millimeters
M107
M104 S220 ; set temperature
G28 ; home all axes
G1 Z5 F5000 ; lift nozzle

M109 S220 ; wait for temperature to be reached
G90 ; use absolute coordinates
G92 E0
M82 ; use absolute distances for extrusion
G1 F1800.000 E-1.00000
G92 E0
G1 Z0.350 F7800.000
G1 X114.395 Y70.533 F7800.000
G1 E1.00000 F1800.000
G1 X116.354 Y68.823 E1.23641 F540.000
G1 X117.644 Y68.154 E1.36856
G1 X119.404 Y67.504 E1.53918
G1 X130.332 Y64.576 E2.56790
G1 X132.992 Y64.299 E2.81108
G1 X165.350 Y66.054 E5.75768
G1 X177.943 Y66.866 E6.90513
G1 X180.649 Y67.495 E7.15773
G1 X181.356 Y67.788 E7.22733
G1 X183.577 Y69.139 E7.46374
G1 X185.464 Y71.391 E7.73087
G1 X186.956 Y74.120 E8.01369
G1 X187.249 Y74.827 E8.08328
G1 X187.864 Y77.353 E8.31969
G1 X187.688 Y79.947 E8.55610
G1 X187.249 Y81.333 E8.68827
G1 X186.722 Y82.554 E8.80922
G1 X181.090 Y93.944 E9.96459
G1 X166.470 Y122.766 E12.90325
G1 X164.900 Y124.931 E13.14644
G1 X156.900 Y132.931 E14.17519
G1 X154.143 Y134.774 E14.47674
G1 X153.436 Y135.067 E14.54633
G1 X150.910 Y135.682 E14.78274
G1 X148.316 Y135.506 E15.01915
G1 X146.930 Y135.067 E15.15132
G1 X146.223 Y134.774 E15.22092
G1 X143.466 Y132.931 E15.52247
G1 X135.466 Y124.931 E16.55122
G1 X134.115 Y123.171 E16.75297
G1 X115.972 Y91.602 E20.06382
G1 X115.322 Y89.842 E20.23443
G1 X112.394 Y78.914 E21.26316
G1 X112.113 Y76.329 E21.49957
G1 X112.751 Y73.461 E21.76671
G1 X113.044 Y72.754 E21.83631
G1 X114.368 Y70.577 E22.06794
G1 X114.934 Y70.863 F7800.000
G1 X117.883 Y68.732 E22.39883 F540.000
G1 X119.566 Y68.108 E22.56201
G1 X130.494 Y65.180 E23.59074
G1 X132.958 Y64.923 E23.81604
G1 X165.310 Y66.678 E26.76206
G1 X177.903 Y67.490 E27.90951
G1 X180.410 Y68.073 E28.14354
G1 X181.117 Y68.366 E28.21313
G1 X183.247 Y69.678 E28.44063
G1 X184.923 Y71.703 E28.67968
G1 X186.378 Y74.359 E28.95506
G1 X186.671 Y75.066 E29.02466
G1 X187.249 Y77.501 E29.25216
G1 X186.671 Y81.094 E29.58306
G1 X186.162 Y82.277 E29.70023
G1 X180.533 Y93.661 E30.85502
G1 X165.913 Y122.483 E33.79368
G1 X164.458 Y124.489 E34.01899
G1 X156.458 Y132.489 E35.04774
G1 X153.904 Y134.196 E35.32712
G1 X153.197 Y134.489 E35.39671
G1 X150.762 Y135.067 E35.62422
G1 X147.169 Y134.489 E35.95512
G1 X146.462 Y134.196 E36.02471
G1 X143.908 Y132.489 E36.30409
G1 X135.908 Y124.489 E37.33284
G1 X134.656 Y122.858 E37.51976
G1 X116.550 Y91.363 E40.82319
G1 X115.926 Y89.680 E40.98637
G1 X112.998 Y78.752 E42.01510
G1 X112.742 Y76.263 E42.24260
G1 X113.329 Y73.700 E42.48165
G1 X113.622 Y72.993 E42.55125
G1 X114.907 Y70.908 E42.77397
G1 X115.472 Y71.198 F7800.000
G1 X118.122 Y69.309 E43.06994 F540.000
G1 X119.728 Y68.711 E43.22569
G1 X130.656 Y65.783 E44.25442
G1 X132.925 Y65.547 E44.46184
G1 X165.270 Y67.301 E47.40728
G1 X177.863 Y68.113 E48.55473
G1 X180.170 Y68.650 E48.77019
G1 X180.878 Y68.943 E48.83978
G1 X182.912 Y70.216 E49.05801
G1 X184.382 Y72.016 E49.26930
G1 X185.801 Y74.598 E49.53727
G1 X186.094 Y75.306 E49.60686
G1 X186.633 Y77.644 E49.82509
G1 X186.094 Y80.854 E50.12107
G1 X185.602 Y82.000 E50.23446
G1 X179.976 Y93.379 E51.38867
G1 X165.356 Y122.201 E54.32733
G1 X164.016 Y124.047 E54.53476
G1 X156.016 Y132.047 E55.56351
G1 X153.665 Y133.619 E55.82072
G1 X152.957 Y133.912 E55.89032
G1 X150.619 Y134.451 E56.10854
G1 X147.409 Y133.912 E56.40452
G1 X146.701 Y133.619 E56.47412
G1 X144.350 Y132.047 E56.73132
G1 X136.350 Y124.047 E57.76008
G1 X135.197 Y122.546 E57.93216
G1 X117.127 Y91.124 E61.22817
G1 X116.529 Y89.518 E61.38393
G1 X113.601 Y78.590 E62.41266
G1 X113.372 Y76.201 E62.63088
G1 X113.906 Y73.940 E62.84218
G1 X114.199 Y73.232 E62.91178
G1 X115.444 Y71.242 E63.12523
G1 X116.008 Y71.537 F7800.000
G1 X118.362 Y69.886 E63.38666 F540.000
G1 X119.889 Y69.315 E63.53498
G1 X130.817 Y66.387 E64.56371
G1 X132.891 Y66.171 E64.75325
G1 X165.229 Y67.925 E67.69811
G1 X177.822 Y68.737 E68.84556
G1 X179.931 Y69.227 E69.04245
G1 X180.638 Y69.520 E69.11204
G1 X182.573 Y70.751 E69.32058
G1 X183.840 Y72.328 E69.50452
G1 X185.224 Y74.838 E69.76506
G1 X185.517 Y75.545 E69.83465
G1 X186.014 Y77.784 E70.04319
G1 X185.517 Y80.615 E70.30463
G1 X185.042 Y81.723 E70.41425
G1 X179.418 Y93.096 E71.56788
G1 X164.798 Y121.918 E74.50654
G1 X163.575 Y123.606 E74.69609
G1 X155.575 Y131.606 E75.72484
G1 X153.425 Y133.042 E75.95988
G1 X152.718 Y133.335 E76.02947
G1 X150.479 Y133.832 E76.23801
G1 X147.648 Y133.335 E76.49945
G1 X146.941 Y133.042 E76.56905
G1 X144.791 Y131.606 E76.80408
G1 X136.791 Y123.606 E77.83284
G1 X135.739 Y122.234 E77.99009
G1 X117.704 Y90.884 E81.27869
G1 X117.133 Y89.357 E81.42701
G1 X114.205 Y78.429 E82.45574
G1 X114.004 Y76.144 E82.66428
G1 X114.483 Y74.179 E82.84822
G1 X114.776 Y73.472 E82.91782
G1 X115.979 Y71.581 E83.12159
G1 F1800.000 E82.12159
G92 E0
G1 X139.091 Y86.432 F7800.000
G1 E1.00000 F1800.000
G1 X139.584 Y85.707 E1.07974 F540.000
G1 X140.121 Y85.013 E1.15959
G1 X140.702 Y84.354 E1.23943
G1 X141.323 Y83.733 E1.31929
G1 X141.982 Y83.152 E1.39912
G1 X142.676 Y82.615 E1.47898
G1 X143.401 Y82.122 E1.55872
G1 X144.157 Y81.674 E1.63858
G1 X144.940 Y81.276 E1.71847
G1 X145.217 Y81.156 E1.74596
G1 X145.864 Y80.922 E1.80849
G1 X146.707 Y80.677 E1.88832
G1 X147.565 Y80.486 E1.96820
G1 X150.003 Y80.102 E2.19264
G1 X149.967 Y80.040 E2.19919
G1 X150.183 Y80.074 E2.21907
G1 X150.399 Y80.040 E2.23895
G1 X150.363 Y80.102 E2.24550
G1 X152.801 Y80.486 E2.46993
G1 X153.659 Y80.677 E2.54982
G1 X154.502 Y80.922 E2.62965
G1 X155.149 Y81.156 E2.69217
G1 X155.426 Y81.276 E2.71967
G1 X156.209 Y81.674 E2.79956
G1 X156.965 Y82.122 E2.87942
G1 X157.690 Y82.615 E2.95916
G1 X158.384 Y83.152 E3.03901
G1 X159.043 Y83.733 E3.11884
G1 X159.664 Y84.354 E3.19871
G1 X160.245 Y85.013 E3.27854
G1 X160.782 Y85.707 E3.35840
G1 X161.275 Y86.432 E3.43814
G1 X161.723 Y87.188 E3.51799
G1 X162.121 Y87.971 E3.59789
G1 X162.241 Y88.248 E3.62538
G1 X162.475 Y88.895 E3.68791
G1 X162.720 Y89.738 E3.76774
G1 X162.911 Y90.596 E3.84762
G1 X163.048 Y91.463 E3.92746
G1 X163.130 Y92.336 E4.00722
G1 X163.158 Y93.214 E4.08706
G1 X163.130 Y94.092 E4.16690
G1 X163.048 Y94.965 E4.24666
G1 X162.911 Y95.832 E4.32650
G1 X162.720 Y96.690 E4.40638
G1 X162.475 Y97.533 E4.48621
G1 X161.550 Y100.101 E4.73444
G1 X161.427 Y99.888 E4.75679
G1 X160.245 Y101.415 E4.93239
G1 X159.664 Y102.074 E5.01223
G1 X159.043 Y102.695 E5.09209
G1 X158.384 Y103.276 E5.17192
G1 X157.690 Y103.813 E5.25178
G1 X156.965 Y104.306 E5.33152
G1 X156.209 Y104.754 E5.41137
G1 X155.426 Y105.152 E5.49126
G1 X155.149 Y105.272 E5.51876
G1 X154.502 Y105.506 E5.58129
G1 X153.659 Y105.751 E5.66112
G1 X152.801 Y105.942 E5.74100
G1 X151.934 Y106.079 E5.82084
G1 X151.061 Y106.161 E5.90061
G1 X150.183 Y106.189 E5.98044
G1 X149.305 Y106.161 E6.06028
G1 X148.432 Y106.079 E6.14004
G1 X147.565 Y105.942 E6.21988
G1 X146.707 Y105.751 E6.29976
G1 X145.864 Y105.506 E6.37960
G1 X145.217 Y105.272 E6.44212
G1 X144.940 Y105.152 E6.46962
G1 X144.157 Y104.754 E6.54951
G1 X143.401 Y104.306 E6.62937
G1 X142.676 Y103.813 E6.70910
G1 X141.982 Y103.276 E6.78896
G1 X141.323 Y102.695 E6.86879
G1 X140.702 Y102.074 E6.94866
G1 X140.121 Y101.415 E7.02849
G1 X138.939 Y99.888 E7.20409
G1 X138.816 Y100.101 E7.22643
G1 X137.891 Y97.533 E7.47467
G1 X137.646 Y96.690 E7.55449
G1 X137.455 Y95.832 E7.63438
G1 X137.318 Y94.965 E7.71421
G1 X137.236 Y94.092 E7.79398
G1 X137.208 Y93.214 E7.87381
G1 X137.236 Y92.336 E7.95365
G1 X137.318 Y91.463 E8.03341
G1 X137.455 Y90.596 E8.11325
G1 X137.646 Y89.738 E8.19314
G1 X137.891 Y88.895 E8.27297
G1 X138.125 Y88.248 E8.33550
G1 X138.245 Y87.971 E8.36299
G1 X138.643 Y87.188 E8.44288
G1 X139.064 Y86.477 E8.51797
G1 F1800.000 E7.51797
G92 E0
G1 X151.162 Y80.860 F7800.000
G1 E1.00000 F1800.000
G1 X152.684 Y81.100 E1.14010 F378.000
G1 X153.503 Y81.283 E1.21637
G1 X154.308 Y81.517 E1.29262
G1 X155.160 Y81.841 E1.37549
G1 X155.908 Y82.222 E1.45179
G1 X156.630 Y82.649 E1.52807
G1 X157.323 Y83.121 E1.60428
G1 X157.986 Y83.634 E1.68056
G1 X158.615 Y84.189 E1.75679
G1 X159.208 Y84.782 E1.83310
G1 X159.763 Y85.411 E1.90934
G1 X160.276 Y86.074 E1.98562
G1 X160.748 Y86.767 E2.06182
G1 X161.175 Y87.489 E2.13810
G1 X161.556 Y88.237 E2.21441
G1 X161.660 Y88.479 E2.23833
G1 X161.880 Y89.089 E2.29731
G1 X162.114 Y89.894 E2.37355
G1 X162.297 Y90.713 E2.44983
G1 X162.427 Y91.541 E2.52611
G1 X162.506 Y92.376 E2.60234
G1 X162.533 Y93.214 E2.67859
G1 X162.506 Y94.052 E2.75484
G1 X162.427 Y94.887 E2.83107
G1 X162.297 Y95.715 E2.90735
G1 X162.114 Y96.534 E2.98362
G1 X161.880 Y97.339 E3.05987
G1 X161.418 Y98.623 E3.18393
G1 X151.189 Y80.906 E5.04416
G1 X151.138 Y80.511 F7800.000
G1 X149.204 Y80.860 F7800.000
G1 X138.948 Y98.623 E6.90916 F378.000
G1 X138.486 Y97.339 E7.03322
G1 X138.252 Y96.534 E7.10947
G1 X138.069 Y95.715 E7.18574
G1 X137.939 Y94.887 E7.26202
G1 X137.860 Y94.052 E7.33825
G1 X137.833 Y93.214 E7.41450
G1 X137.860 Y92.376 E7.49075
G1 X137.939 Y91.541 E7.56698
G1 X138.069 Y90.713 E7.64326
G1 X138.252 Y89.894 E7.71954
G1 X138.486 Y89.089 E7.79578
G1 X138.706 Y88.479 E7.85476
G1 X138.810 Y88.237 E7.87868
G1 X139.191 Y87.489 E7.95499
G1 X139.618 Y86.767 E8.03127
G1 X140.090 Y86.074 E8.10747
G1 X140.603 Y85.411 E8.18375
G1 X141.158 Y84.782 E8.25999
G1 X141.751 Y84.189 E8.33630
G1 X142.380 Y83.634 E8.41253
G1 X143.043 Y83.121 E8.48881
G1 X143.736 Y82.649 E8.56502
G1 X144.458 Y82.222 E8.64130
G1 X145.206 Y81.841 E8.71760
G1 X146.058 Y81.517 E8.80047
G1 X146.863 Y81.283 E8.87672
G1 X147.682 Y81.100 E8.95299
G1 X149.152 Y80.869 E9.08832
G1 X149.538 Y80.963 F7800.000
G1 F1800.000 E8.08832
G92 E0
G1 X150.949 Y90.858 F7800.000
G1 E1.00000 F1800.000
G1 X152.660 Y93.214 E1.26482 F540.000
G1 X150.949 Y95.570 E1.52964
G1 X148.179 Y94.670 E1.79447
G1 X148.179 Y91.758 E2.05929
G1 X150.899 Y90.874 E2.31934
G1 X150.710 Y91.592 F7800.000
G1 X151.888 Y93.214 E2.50160 F540.000
G1 X150.710 Y94.836 E2.68385
G1 X148.804 Y94.216 E2.86611
G1 X148.804 Y92.212 E3.04837
G1 X150.660 Y91.609 E3.22585
G1 X150.471 Y92.327 F7800.000
G1 X151.116 Y93.214 E3.32555 F540.000
G1 X150.471 Y94.101 E3.42524
G1 X149.428 Y93.762 E3.52493
G1 X149.428 Y92.666 E3.62462
G1 X150.421 Y92.343 E3.71954
G1 X150.774 Y92.152 F7800.000
G1 F1800.000 E2.71954
G92 E0
G1 X160.365 Y100.239 F7800.000
G1 E1.00000 F1800.000
G1 X159.763 Y101.017 E1.08946 F378.000
G1 X159.208 Y101.646 E1.16569
G1 X158.615 Y102.239 E1.24201
G1 X157.986 Y102.794 E1.31824
G1 X157.323 Y103.307 E1.39452
G1 X156.630 Y103.779 E1.47073
G1 X155.908 Y104.206 E1.54701
G1 X155.160 Y104.587 E1.62331
G1 X154.918 Y104.691 E1.64724
G1 X154.308 Y104.911 E1.70621
G1 X153.503 Y105.145 E1.78246
G1 X152.684 Y105.328 E1.85873
G1 X151.856 Y105.458 E1.93501
G1 X151.021 Y105.537 E2.01125
G1 X150.183 Y105.564 E2.08749
G1 X149.345 Y105.537 E2.16374
G1 X148.510 Y105.458 E2.23997
G1 X147.682 Y105.328 E2.31625
G1 X146.863 Y105.145 E2.39253
G1 X146.058 Y104.911 E2.46878
G1 X145.448 Y104.691 E2.52775
G1 X145.206 Y104.587 E2.55167
G1 X144.458 Y104.206 E2.62798
G1 X143.736 Y103.779 E2.70426
G1 X143.043 Y103.307 E2.78046
G1 X142.380 Y102.794 E2.85675
G1 X141.751 Y102.239 E2.93298
G1 X141.158 Y101.646 E3.00929
G1 X140.603 Y101.017 E3.08552
G1 X140.001 Y100.239 E3.17499
G1 X160.312 Y100.239 E5.02190
G1 X160.682 Y100.388 F7800.000
G1 X161.351 Y101.007 F7800.000
G1 X161.774 Y101.740 E5.09891 F540.000
G1 X161.215 Y102.462 E5.18196
G1 X160.658 Y103.094 E5.25850
G1 X160.063 Y103.689 E5.33509
G1 X159.431 Y104.246 E5.41163
G1 X158.766 Y104.761 E5.48811
G1 X158.069 Y105.235 E5.56475
G1 X157.345 Y105.663 E5.64127
G1 X156.595 Y106.045 E5.71775
G1 X155.128 Y106.668 E5.86275
G1 X154.324 Y106.958 E5.94046
G1 X153.515 Y107.193 E6.01701
G1 X152.694 Y107.376 E6.09352
G1 X150.583 Y107.711 E6.28786
G1 X150.583 Y113.314 E6.79729
G1 X157.583 Y113.314 E7.43380
G1 X157.583 Y114.114 E7.50658
G1 X150.583 Y114.114 E8.14309
G1 X150.583 Y123.862 E9.02945
G1 X156.783 Y117.662 E9.82670
G1 X157.335 Y118.214 E9.89766
G1 X150.183 Y125.366 E10.81734
G1 X143.031 Y118.214 E11.73701
G1 X143.583 Y117.662 E11.80797
G1 X149.783 Y123.862 E12.60522
G1 X149.783 Y114.114 E13.49158
G1 X142.783 Y114.114 E14.12809
G1 X142.783 Y113.314 E14.20087
G1 X149.783 Y113.314 E14.83738
G1 X149.783 Y107.711 E15.34681
G1 X147.672 Y107.376 E15.54115
G1 X146.851 Y107.193 E15.61766
G1 X146.042 Y106.958 E15.69421
G1 X145.238 Y106.668 E15.77192
G1 X143.771 Y106.045 E15.91692
G1 X143.021 Y105.663 E15.99340
G1 X142.297 Y105.235 E16.06992
G1 X141.600 Y104.761 E16.14656
G1 X140.935 Y104.246 E16.22304
G1 X140.303 Y103.689 E16.29958
G1 X139.708 Y103.094 E16.37617
G1 X139.151 Y102.462 E16.45271
G1 X138.592 Y101.740 E16.53577
G1 X139.015 Y101.007 E16.61276
G1 X139.640 Y101.814 E16.70555
G1 X140.247 Y102.502 E16.78898
G1 X140.895 Y103.150 E16.87239
G1 X141.583 Y103.758 E16.95582
G1 X142.309 Y104.319 E17.03925
G1 X143.066 Y104.834 E17.12253
G1 X143.856 Y105.301 E17.20596
G1 X144.674 Y105.718 E17.28944
G1 X144.987 Y105.854 E17.32050
G1 X145.671 Y106.100 E17.38658
G1 X146.552 Y106.356 E17.47000
G1 X147.448 Y106.556 E17.55349
G1 X148.354 Y106.699 E17.63689
G1 X149.266 Y106.785 E17.72018
G1 X150.183 Y106.815 E17.80361
G1 X151.100 Y106.785 E17.88703
G1 X152.012 Y106.699 E17.97033
G1 X152.918 Y106.556 E18.05373
G1 X153.814 Y106.356 E18.13722
G1 X154.695 Y106.100 E18.22063
G1 X155.379 Y105.854 E18.28672
G1 X155.692 Y105.718 E18.31778
G1 X156.510 Y105.301 E18.40126
G1 X157.300 Y104.834 E18.48469
G1 X158.057 Y104.319 E18.56796
G1 X158.783 Y103.758 E18.65139
G1 X159.471 Y103.150 E18.73483
G1 X160.119 Y102.502 E18.81824
G1 X160.726 Y101.814 E18.90167
G1 X161.319 Y101.048 E18.98968
G1 X160.186 Y98.989 F7800.000
G1 X140.180 Y98.989 E20.80884 F540.000
G1 X150.183 Y81.663 E22.62799
G1 X160.160 Y98.944 E24.44236
G1 X161.268 Y99.614 F7800.000
G1 X139.098 Y99.614 E26.45836 F540.000
G1 X150.183 Y80.414 E28.47434
G1 X161.242 Y99.569 E30.48554
G1 X162.134 Y100.321 F7800.000
G1 X163.069 Y97.726 E30.73638 F540.000
G1 X163.325 Y96.845 E30.81979
G1 X163.525 Y95.949 E30.90328
G1 X163.668 Y95.043 E30.98668
G1 X163.754 Y94.131 E31.06997
G1 X163.784 Y93.214 E31.15340
G1 X163.754 Y92.297 E31.23682
G1 X163.668 Y91.385 E31.32012
G1 X163.525 Y90.479 E31.40352
G1 X163.325 Y89.583 E31.48701
G1 X163.069 Y88.702 E31.57042
G1 X162.823 Y88.018 E31.63650
G1 X162.687 Y87.705 E31.66757
G1 X162.270 Y86.887 E31.75105
G1 X161.803 Y86.097 E31.83448
G1 X161.288 Y85.340 E31.91775
G1 X160.727 Y84.614 E32.00118
G1 X160.119 Y83.926 E32.08462
G1 X159.471 Y83.278 E32.16803
G1 X158.783 Y82.670 E32.25146
G1 X158.057 Y82.109 E32.33490
G1 X157.300 Y81.594 E32.41817
G1 X156.510 Y81.127 E32.50160
G1 X155.692 Y80.710 E32.58508
G1 X155.379 Y80.574 E32.61614
G1 X154.695 Y80.328 E32.68222
G1 X153.814 Y80.072 E32.76564
G1 X152.918 Y79.872 E32.84913
G1 X151.359 Y79.626 E32.99261
G1 X151.775 Y78.906 E33.06822
G1 X152.694 Y79.052 E33.15283
G1 X153.515 Y79.235 E33.22934
G1 X154.324 Y79.470 E33.30589
G1 X155.128 Y79.760 E33.38361
G1 X156.595 Y80.383 E33.52860
G1 X157.345 Y80.765 E33.60508
G1 X158.069 Y81.193 E33.68160
G1 X158.766 Y81.667 E33.75824
G1 X159.431 Y82.182 E33.83472
G1 X160.063 Y82.739 E33.91126
G1 X160.658 Y83.334 E33.98785
G1 X161.215 Y83.966 E34.06439
G1 X162.530 Y85.662 E34.25957
G1 X167.436 Y82.830 E34.77465
G1 X163.936 Y76.768 E35.41112
G1 X164.571 Y76.402 E35.47778
G1 X168.071 Y82.464 E36.11428
G1 X177.164 Y77.214 E37.06902
G1 X177.530 Y77.848 E37.13561
G1 X168.437 Y83.098 E38.09034
G1 X171.937 Y89.160 E38.72681
G1 X171.302 Y89.526 E38.79348
G1 X167.802 Y83.464 E39.42998
G1 X162.835 Y86.332 E39.95151
G1 X163.637 Y88.269 E40.14214
G1 X163.927 Y89.073 E40.21986
G1 X164.162 Y89.882 E40.29640
G1 X164.345 Y90.703 E40.37292
G1 X164.477 Y91.535 E40.44947
G1 X164.556 Y92.372 E40.52598
G1 X164.582 Y93.214 E40.60256
G1 X164.556 Y94.056 E40.67914
G1 X164.477 Y94.893 E40.75565
G1 X164.345 Y95.725 E40.83221
G1 X164.162 Y96.546 E40.90872
G1 X163.927 Y97.355 E40.98526
G1 X163.637 Y98.159 E41.06298
G1 X163.014 Y99.626 E41.20797
G1 X162.565 Y100.508 E41.29788
G1 X162.183 Y100.342 E41.33581
