; generated by Slic3r 1.1.1 on 2014-05-06 at 16:39:43

; perimeters extrusion width = 0.35mm
; infill extrusion width = 0.39mm
; solid infill extrusion width = 0.39mm
; top infill extrusion width = 0.39mm

G21 ; set units to millimeters
M107
M104 S220 ; set temperature
G28 ; home all axes
G1 Z5 F5000 ; lift nozzle

M109 S220 ; wait for temperature to be reached
G90 ; use absolute coordinates
G92 E0
M82 ; use absolute distances for extrusion
G1 F1800.000 E-1.00000
G92 E0
G1 Z0.350 F7800.000
G1 X114.887 Y71.506 F7800.000
G1 E1.00000 F1800.000
G1 X116.775 Y69.719 E1.23641 F540.000
G1 X119.404 Y68.504 E1.49976
G1 X130.332 Y65.576 E2.52849
G1 X132.992 Y65.299 E2.77167
G1 X165.350 Y67.054 E5.71826
G1 X177.943 Y67.866 E6.86572
G1 X180.481 Y68.428 E7.10213
G1 X182.731 Y69.731 E7.33854
G1 X184.757 Y72.098 E7.62180
G1 X185.757 Y73.830 E7.80366
G1 X186.697 Y76.254 E8.04007
G1 X186.861 Y78.849 E8.27648
G1 X186.015 Y81.847 E8.55975
G1 X180.383 Y93.237 E9.71513
G1 X165.763 Y122.059 E12.65379
G1 X164.193 Y124.224 E12.89697
G1 X156.193 Y132.224 E13.92572
G1 X154.095 Y133.760 E14.16213
G1 X151.631 Y134.589 E14.39854
G1 X149.032 Y134.635 E14.63495
G1 X146.540 Y133.893 E14.87136
G1 X144.173 Y132.224 E15.13471
G1 X136.173 Y124.224 E16.16346
G1 X134.822 Y122.464 E16.36521
G1 X117.171 Y91.892 E19.57518
G1 X116.322 Y89.842 E19.77695
G1 X113.394 Y78.914 E20.80568
G1 X113.113 Y76.329 E21.04209
G1 X113.627 Y73.780 E21.27850
G1 X114.861 Y71.552 E21.51013
G1 X115.558 Y71.669 F7800.000
G1 X117.446 Y70.027 E21.73764 F540.000
G1 X119.566 Y69.108 E21.94775
G1 X130.494 Y66.180 E22.97648
G1 X132.958 Y65.923 E23.20178
G1 X165.310 Y67.678 E26.14780
G1 X177.903 Y68.490 E27.29525
G1 X180.342 Y69.045 E27.52275
G1 X182.484 Y70.338 E27.75025
G1 X184.216 Y72.411 E27.99581
G1 X185.216 Y74.143 E28.17767
G1 X186.107 Y76.481 E28.40517
G1 X186.219 Y78.980 E28.63267
G1 X185.455 Y81.570 E28.87823
G1 X179.826 Y92.954 E30.03303
G1 X165.206 Y121.776 E32.97169
G1 X163.751 Y123.782 E33.19699
G1 X155.751 Y131.782 E34.22574
G1 X153.724 Y133.248 E34.45324
G1 X151.338 Y134.003 E34.68074
G1 X148.837 Y133.973 E34.90825
G1 X146.471 Y133.159 E35.13575
G1 X144.615 Y131.782 E35.34586
G1 X136.615 Y123.782 E36.37461
G1 X135.363 Y122.151 E36.56153
G1 X117.712 Y91.579 E39.77150
G1 X116.926 Y89.680 E39.95843
G1 X113.998 Y78.752 E40.98716
G1 X113.742 Y76.263 E41.21466
G1 X114.280 Y73.820 E41.44216
G1 X115.531 Y71.714 E41.66489
G1 X116.230 Y71.847 F7800.000
G1 X118.114 Y70.360 E41.88312 F540.000
G1 X119.728 Y69.711 E42.04129
G1 X130.656 Y66.783 E43.07002
G1 X132.925 Y66.547 E43.27744
G1 X165.270 Y68.301 E46.22287
G1 X177.862 Y69.113 E47.37033
G1 X180.199 Y69.662 E47.58856
G1 X182.228 Y70.943 E47.80678
G1 X183.674 Y72.723 E48.01531
G1 X184.674 Y74.455 E48.19716
G1 X185.514 Y76.703 E48.41539
G1 X185.573 Y79.103 E48.63362
G1 X184.895 Y81.293 E48.84214
G1 X179.269 Y92.672 E49.99635
G1 X164.649 Y121.494 E52.93501
G1 X163.309 Y123.340 E53.14244
G1 X155.309 Y131.340 E54.17119
G1 X153.355 Y132.733 E54.38942
G1 X151.053 Y133.411 E54.60764
G1 X148.655 Y133.301 E54.82587
G1 X146.425 Y132.414 E55.04410
G1 X145.057 Y131.340 E55.20227
G1 X137.057 Y123.340 E56.23102
G1 X135.905 Y121.839 E56.40311
G1 X118.254 Y91.267 E59.61307
G1 X117.529 Y89.518 E59.78517
G1 X114.601 Y78.590 E60.81390
G1 X114.372 Y76.201 E61.03213
G1 X114.936 Y73.868 E61.25036
G1 X116.202 Y71.892 E61.46381
G1 X116.904 Y72.045 F7800.000
G1 X118.777 Y70.722 E61.67235 F540.000
G1 X119.889 Y70.315 E61.78006
G1 X130.817 Y67.387 E62.80879
G1 X132.891 Y67.171 E62.99833
G1 X165.229 Y68.925 E65.94319
G1 X177.822 Y69.737 E67.09064
G1 X180.051 Y70.278 E67.29918
G1 X181.961 Y71.547 E67.50773
G1 X183.133 Y73.035 E67.67997
G1 X184.133 Y74.767 E67.86182
G1 X184.919 Y76.922 E68.07037
G1 X184.923 Y79.216 E68.27891
G1 X184.335 Y81.016 E68.45115
G1 X178.711 Y92.389 E69.60478
G1 X164.091 Y121.211 E72.54344
G1 X162.868 Y122.899 E72.73299
G1 X154.868 Y130.899 E73.76174
G1 X152.990 Y132.215 E73.97028
G1 X150.775 Y132.812 E74.17883
G1 X148.490 Y132.619 E74.38737
G1 X146.408 Y131.658 E74.59591
G1 X145.498 Y130.899 E74.70362
G1 X137.498 Y122.899 E75.73237
G1 X136.446 Y121.526 E75.88963
G1 X118.795 Y90.954 E79.09959
G1 X118.133 Y89.357 E79.25686
G1 X115.205 Y78.429 E80.28558
G1 X115.004 Y76.144 E80.49413
G1 X115.594 Y73.928 E80.70267
G1 X116.874 Y72.088 E80.90644
G1 F1800.000 E79.90644
G92 E0
G1 X139.333 Y86.328 F7800.000
G1 E1.00000 F1800.000
G1 X139.787 Y85.661 E1.07335 F540.000
G1 X140.282 Y85.023 E1.14683
G1 X140.816 Y84.417 E1.22021
G1 X141.386 Y83.847 E1.29358
G1 X141.992 Y83.313 E1.36696
G1 X142.630 Y82.818 E1.44044
G1 X143.297 Y82.364 E1.51379
G1 X143.992 Y81.953 E1.58722
G1 X144.712 Y81.587 E1.66063
G1 X145.452 Y81.266 E1.73397
G1 X146.212 Y80.993 E1.80740
G1 X146.987 Y80.768 E1.88078
G1 X147.775 Y80.591 E1.95427
G1 X148.572 Y80.466 E2.02762
G1 X149.376 Y80.390 E2.10102
G1 X150.153 Y80.363 E2.17176
G1 X150.990 Y80.390 E2.24788
G1 X151.794 Y80.466 E2.32128
G1 X152.591 Y80.591 E2.39463
G1 X153.379 Y80.768 E2.46812
G1 X154.154 Y80.993 E2.54150
G1 X154.914 Y81.266 E2.61493
G1 X155.654 Y81.587 E2.68827
G1 X156.374 Y81.953 E2.76167
G1 X157.069 Y82.364 E2.83511
G1 X157.736 Y82.818 E2.90846
G1 X158.374 Y83.313 E2.98193
G1 X158.980 Y83.847 E3.05531
G1 X159.550 Y84.417 E3.12869
G1 X160.084 Y85.023 E3.20207
G1 X160.579 Y85.661 E3.27555
G1 X161.033 Y86.328 E3.34890
G1 X161.444 Y87.023 E3.42233
G1 X161.810 Y87.743 E3.49574
G1 X162.131 Y88.483 E3.56908
G1 X162.404 Y89.243 E3.64250
G1 X162.629 Y90.018 E3.71589
G1 X162.806 Y90.806 E3.78938
G1 X162.931 Y91.603 E3.86272
G1 X163.007 Y92.407 E3.93613
G1 X163.033 Y93.214 E4.00955
G1 X163.007 Y94.021 E4.08298
G1 X162.931 Y94.825 E4.15638
G1 X162.806 Y95.622 E4.22973
G1 X162.629 Y96.410 E4.30322
G1 X162.404 Y97.185 E4.37660
G1 X162.131 Y97.945 E4.45003
G1 X161.810 Y98.685 E4.52337
G1 X161.337 Y99.614 E4.61813
G1 X161.363 Y99.614 E4.62044
G1 X160.579 Y100.767 E4.74718
G1 X160.084 Y101.405 E4.82066
G1 X159.550 Y102.011 E4.89404
G1 X158.980 Y102.581 E4.96742
G1 X158.374 Y103.115 E5.04080
G1 X157.736 Y103.610 E5.11427
G1 X157.069 Y104.064 E5.18762
G1 X156.374 Y104.475 E5.26106
G1 X155.654 Y104.841 E5.33446
G1 X154.914 Y105.162 E5.40780
G1 X154.154 Y105.435 E5.48123
G1 X153.379 Y105.660 E5.55461
G1 X152.591 Y105.837 E5.62810
G1 X151.794 Y105.962 E5.70145
G1 X150.990 Y106.038 E5.77485
G1 X150.183 Y106.064 E5.84828
G1 X149.376 Y106.038 E5.92170
G1 X148.572 Y105.962 E5.99511
G1 X147.775 Y105.837 E6.06845
G1 X146.987 Y105.660 E6.14194
G1 X146.212 Y105.435 E6.21533
G1 X145.452 Y105.162 E6.28875
G1 X144.712 Y104.841 E6.36209
G1 X143.992 Y104.475 E6.43550
G1 X143.297 Y104.064 E6.50893
G1 X142.630 Y103.610 E6.58228
G1 X141.992 Y103.115 E6.65576
G1 X141.386 Y102.581 E6.72914
G1 X140.816 Y102.011 E6.80252
G1 X140.282 Y101.405 E6.87590
G1 X139.787 Y100.767 E6.94937
G1 X139.003 Y99.614 E7.07612
G1 X139.029 Y99.614 E7.07842
G1 X138.556 Y98.685 E7.17319
G1 X138.235 Y97.945 E7.24653
G1 X137.962 Y97.185 E7.31996
G1 X137.737 Y96.410 E7.39334
G1 X137.560 Y95.622 E7.46683
G1 X137.435 Y94.825 E7.54018
G1 X137.359 Y94.021 E7.61358
G1 X137.333 Y93.214 E7.68701
G1 X137.359 Y92.407 E7.76043
G1 X137.435 Y91.603 E7.83384
G1 X137.560 Y90.806 E7.90718
G1 X137.737 Y90.018 E7.98067
G1 X137.962 Y89.243 E8.05405
G1 X138.235 Y88.483 E8.12748
G1 X138.556 Y87.743 E8.20082
G1 X138.922 Y87.023 E8.27423
G1 X139.307 Y86.374 E8.34289
G1 F1800.000 E7.34289
G92 E0
G1 X148.179 Y91.758 F7800.000
G1 E1.00000 F1800.000
G1 X150.949 Y90.858 E1.26482 F540.000
G1 X152.660 Y93.214 E1.52965
G1 X150.949 Y95.570 E1.79447
G1 X148.179 Y94.670 E2.05929
G1 X148.179 Y91.810 E2.31934
G1 X148.804 Y92.212 F7800.000
G1 X150.710 Y91.592 E2.50160 F540.000
G1 X151.888 Y93.214 E2.68386
G1 X150.710 Y94.836 E2.86611
G1 X148.804 Y94.216 E3.04837
G1 X148.804 Y92.264 E3.22585
G1 X149.428 Y92.666 F7800.000
G1 X150.471 Y92.327 E3.32555 F540.000
G1 X151.116 Y93.214 E3.42524
G1 X150.471 Y94.101 E3.52493
G1 X149.428 Y93.762 E3.62462
G1 X149.428 Y92.718 E3.71954
G1 X149.356 Y92.323 F7800.000
G1 F1800.000 E2.71954
G92 E0
G1 X138.224 Y99.580 F7800.000
G1 E1.00000 F1800.000
G1 X139.281 Y101.134 E1.17094 F540.000
G1 X139.800 Y101.804 E1.24798
G1 X140.360 Y102.439 E1.32492
G1 X140.958 Y103.037 E1.40189
G1 X141.593 Y103.597 E1.47883
G1 X142.263 Y104.116 E1.55587
G1 X142.962 Y104.591 E1.63279
G1 X143.691 Y105.023 E1.70982
G1 X144.446 Y105.407 E1.78679
G1 X145.222 Y105.743 E1.86368
G1 X146.019 Y106.030 E1.94070
G1 X146.831 Y106.266 E2.01763
G1 X147.658 Y106.451 E2.09471
G1 X148.494 Y106.583 E2.17165
G1 X149.337 Y106.662 E2.24859
G1 X150.183 Y106.689 E2.32560
G1 X151.030 Y106.662 E2.40261
G1 X151.872 Y106.583 E2.47954
G1 X152.708 Y106.451 E2.55648
G1 X153.535 Y106.266 E2.63357
G1 X154.347 Y106.030 E2.71050
G1 X155.144 Y105.743 E2.78751
G1 X155.920 Y105.407 E2.86440
G1 X156.675 Y105.023 E2.94137
G1 X157.404 Y104.591 E3.01840
G1 X158.103 Y104.116 E3.09532
G1 X158.773 Y103.597 E3.17237
G1 X159.408 Y103.037 E3.24931
G1 X160.006 Y102.439 E3.32627
G1 X160.566 Y101.804 E3.40321
G1 X161.085 Y101.134 E3.48025
G1 X162.142 Y99.580 E3.65119
G1 X162.551 Y99.839 E3.69525
G1 X162.025 Y100.728 E3.78919
G1 X161.529 Y101.458 E3.86938
G1 X160.989 Y102.153 E3.94943
G1 X160.407 Y102.814 E4.02954
G1 X159.783 Y103.438 E4.10972
G1 X159.122 Y104.020 E4.18983
G1 X158.427 Y104.560 E4.26988
G1 X157.697 Y105.056 E4.35007
G1 X156.939 Y105.504 E4.43018
G1 X156.155 Y105.904 E4.51022
G1 X155.346 Y106.254 E4.59038
G1 X154.517 Y106.552 E4.67050
G1 X153.671 Y106.798 E4.75062
G1 X152.811 Y106.990 E4.83068
G1 X151.941 Y107.128 E4.91084
G1 X150.183 Y107.294 E5.07137
G1 X148.425 Y107.128 E5.23189
G1 X147.555 Y106.990 E5.31205
G1 X146.695 Y106.798 E5.39212
G1 X145.849 Y106.552 E5.47224
G1 X145.020 Y106.254 E5.55235
G1 X144.211 Y105.904 E5.63251
G1 X143.427 Y105.504 E5.71256
G1 X142.669 Y105.056 E5.79266
G1 X141.939 Y104.560 E5.87286
G1 X141.244 Y104.020 E5.95290
G1 X140.583 Y103.438 E6.03301
G1 X139.959 Y102.814 E6.11319
G1 X139.377 Y102.153 E6.19330
G1 X138.837 Y101.458 E6.27335
G1 X138.341 Y100.728 E6.35355
G1 X137.815 Y99.839 E6.44748
G1 X138.180 Y99.608 E6.48677
G1 X141.263 Y98.364 F7800.000
G1 X150.183 Y82.914 E8.10901 F540.000
G1 X159.103 Y98.364 E9.73126
G1 X141.315 Y98.364 E11.34869
G1 X140.181 Y98.989 F7800.000
G1 X150.183 Y81.664 E13.16778 F540.000
G1 X160.185 Y98.989 E14.98686
G1 X140.233 Y98.989 E16.80112
G1 X139.098 Y99.614 F7800.000
G1 X150.183 Y80.414 E18.81704 F540.000
G1 X161.268 Y99.614 E20.83295
G1 X139.151 Y99.614 E22.84405
G1 F1800.000 E21.84405
G92 E0
G1 X149.167 Y79.706 F7800.000
G1 E1.00000 F1800.000
G1 X149.167 Y79.222 E1.04403 F540.000
G1 X150.183 Y79.189 E1.13646
G1 X151.199 Y79.222 E1.22889
G1 X151.199 Y79.706 E1.27292
G1 X150.183 Y79.738 E1.36536
G1 X149.219 Y79.708 E1.45302
G1 X149.100 Y79.788 F7800.000
G1 X148.494 Y79.845 E1.50833 F540.000
G1 X147.658 Y79.977 E1.58527
G1 X146.831 Y80.162 E1.66236
G1 X146.019 Y80.398 E1.73929
G1 X145.222 Y80.685 E1.81630
G1 X144.446 Y81.021 E1.89320
G1 X143.691 Y81.405 E1.97016
G1 X142.962 Y81.837 E2.04719
G1 X142.263 Y82.312 E2.12411
G1 X141.593 Y82.831 E2.20116
G1 X140.958 Y83.391 E2.27810
G1 X140.360 Y83.989 E2.35506
G1 X139.800 Y84.624 E2.43200
G1 X139.281 Y85.294 E2.50905
G1 X138.806 Y85.993 E2.58597
G1 X138.374 Y86.722 E2.66299
G1 X137.990 Y87.477 E2.73997
G1 X137.654 Y88.253 E2.81686
G1 X137.367 Y89.050 E2.89387
G1 X137.131 Y89.862 E2.97080
G1 X136.946 Y90.689 E3.04789
G1 X136.814 Y91.525 E3.12483
G1 X136.735 Y92.367 E3.20176
G1 X136.708 Y93.214 E3.27877
G1 X136.735 Y94.061 E3.35578
G1 X136.814 Y94.903 E3.43272
G1 X136.946 Y95.739 E3.50965
G1 X137.131 Y96.566 E3.58674
G1 X137.367 Y97.378 E3.66367
G1 X137.654 Y98.175 E3.74069
G1 X138.007 Y98.989 E3.82134
G1 X137.408 Y98.989 E3.87577
G1 X137.143 Y98.377 E3.93645
G1 X136.845 Y97.548 E4.01657
G1 X136.599 Y96.702 E4.09669
G1 X136.407 Y95.842 E4.17676
G1 X136.269 Y94.972 E4.25689
G1 X136.186 Y94.095 E4.33698
G1 X136.158 Y93.214 E4.41712
G1 X136.186 Y92.333 E4.49726
G1 X136.269 Y91.456 E4.57735
G1 X136.407 Y90.586 E4.65748
G1 X136.599 Y89.726 E4.73755
G1 X136.845 Y88.880 E4.81767
G1 X137.143 Y88.051 E4.89778
G1 X137.493 Y87.243 E4.97787
G1 X138.101 Y86.054 E5.09929
G1 X138.837 Y84.970 E5.21844
G1 X139.377 Y84.275 E5.29848
G1 X139.959 Y83.614 E5.37859
G1 X140.583 Y82.990 E5.45877
G1 X141.244 Y82.408 E5.53888
G1 X141.939 Y81.868 E5.61893
G1 X142.669 Y81.372 E5.69913
G1 X143.427 Y80.924 E5.77923
G1 X144.211 Y80.524 E5.85927
G1 X145.020 Y80.174 E5.93943
G1 X145.849 Y79.876 E6.01955
G1 X146.695 Y79.630 E6.09967
G1 X147.555 Y79.438 E6.17974
G1 X148.425 Y79.300 E6.25987
G1 X148.798 Y79.265 E6.29388
G1 X149.073 Y79.743 E6.34405
G1 X151.266 Y79.788 F7800.000
G1 X151.569 Y79.265 E6.39899 F540.000
G1 X151.941 Y79.300 E6.43299
G1 X152.811 Y79.438 E6.51312
G1 X153.671 Y79.630 E6.59319
G1 X154.517 Y79.876 E6.67331
G1 X155.346 Y80.174 E6.75342
G1 X156.155 Y80.524 E6.83359
G1 X156.939 Y80.924 E6.91363
G1 X157.697 Y81.372 E6.99373
G1 X158.427 Y81.868 E7.07393
G1 X159.122 Y82.408 E7.15398
G1 X159.783 Y82.990 E7.23409
G1 X160.407 Y83.614 E7.31427
G1 X160.989 Y84.275 E7.39438
G1 X161.529 Y84.970 E7.47442
G1 X162.265 Y86.054 E7.59357
G1 X162.873 Y87.243 E7.71498
G1 X163.223 Y88.051 E7.79507
G1 X163.521 Y88.880 E7.87519
G1 X163.767 Y89.726 E7.95531
G1 X163.959 Y90.586 E8.03538
G1 X164.097 Y91.456 E8.11551
G1 X164.180 Y92.333 E8.19560
G1 X164.208 Y93.214 E8.27574
G1 X164.180 Y94.095 E8.35588
G1 X164.097 Y94.972 E8.43597
G1 X163.959 Y95.842 E8.51610
G1 X163.767 Y96.702 E8.59617
G1 X163.521 Y97.548 E8.67629
G1 X163.223 Y98.377 E8.75641
G1 X162.958 Y98.989 E8.81709
G1 X162.359 Y98.989 E8.87152
G1 X162.712 Y98.175 E8.95217
G1 X162.999 Y97.378 E9.02919
G1 X163.235 Y96.566 E9.10612
G1 X163.420 Y95.739 E9.18320
G1 X163.552 Y94.903 E9.26014
G1 X163.631 Y94.060 E9.33708
G1 X163.658 Y93.214 E9.41409
G1 X163.631 Y92.368 E9.49110
G1 X163.552 Y91.525 E9.56803
G1 X163.420 Y90.689 E9.64497
G1 X163.235 Y89.862 E9.72205
G1 X162.999 Y89.050 E9.79899
G1 X162.712 Y88.253 E9.87600
G1 X162.376 Y87.477 E9.95289
G1 X161.992 Y86.722 E10.02986
G1 X161.560 Y85.993 E10.10689
G1 X161.085 Y85.294 E10.18381
G1 X160.566 Y84.624 E10.26086
G1 X160.006 Y83.989 E10.33780
G1 X159.408 Y83.391 E10.41476
G1 X158.773 Y82.831 E10.49170
G1 X158.103 Y82.312 E10.56875
G1 X157.404 Y81.837 E10.64567
G1 X156.675 Y81.405 E10.72269
G1 X155.920 Y81.021 E10.79966
G1 X155.144 Y80.685 E10.87656
G1 X154.347 Y80.398 E10.95357
G1 X153.535 Y80.162 E11.03050
G1 X152.708 Y79.977 E11.10759
G1 X151.872 Y79.845 E11.18452
G1 X151.319 Y79.793 E11.23506
G1 X151.103 Y78.593 F7800.000
G1 X152.019 Y78.679 E11.31872 F378.000
G1 X152.928 Y78.824 E11.40243
G1 X153.826 Y79.024 E11.48606
G1 X154.710 Y79.281 E11.56975
G1 X155.576 Y79.593 E11.65346
G1 X156.421 Y79.959 E11.73719
G1 X157.240 Y80.376 E11.82079
G1 X158.032 Y80.845 E11.90448
G1 X158.794 Y81.362 E11.98823
G1 X159.521 Y81.926 E12.07185
G1 X160.211 Y82.534 E12.15553
G1 X160.863 Y83.186 E12.23929
G1 X161.471 Y83.876 E12.32298
G1 X162.035 Y84.603 E12.40659
G1 X162.531 Y85.334 E12.48695
G1 X167.048 Y82.726 E12.96119
G1 X163.548 Y76.664 E13.59768
G1 X164.675 Y76.014 E13.71596
G1 X168.175 Y82.076 E14.35246
G1 X177.268 Y76.826 E15.30720
G1 X177.918 Y77.952 E15.42540
G1 X168.825 Y83.202 E16.38014
G1 X172.325 Y89.264 E17.01663
G1 X171.198 Y89.914 E17.13491
G1 X167.698 Y83.852 E17.77141
G1 X163.176 Y86.463 E18.24624
G1 X163.438 Y86.976 E18.29864
G1 X163.804 Y87.821 E18.38235
G1 X164.116 Y88.687 E18.46605
G1 X164.373 Y89.571 E18.54974
G1 X164.573 Y90.469 E18.63337
G1 X164.718 Y91.378 E18.71708
G1 X164.804 Y92.294 E18.80074
G1 X164.833 Y93.214 E18.88445
G1 X164.804 Y94.134 E18.96815
G1 X164.718 Y95.050 E19.05182
G1 X164.573 Y95.959 E19.13553
G1 X164.373 Y96.857 E19.21916
G1 X164.116 Y97.741 E19.30285
G1 X163.804 Y98.607 E19.38655
G1 X163.438 Y99.452 E19.47028
G1 X163.021 Y100.271 E19.55389
G1 X162.552 Y101.063 E19.63757
G1 X162.035 Y101.825 E19.72133
G1 X161.471 Y102.552 E19.80494
G1 X160.863 Y103.242 E19.88863
G1 X160.211 Y103.894 E19.97239
G1 X159.521 Y104.502 E20.05607
G1 X158.794 Y105.066 E20.13969
G1 X158.032 Y105.583 E20.22344
G1 X157.240 Y106.052 E20.30713
