; generated by Slic3r 1.1.0 on 2014-04-02 at 17:59:24

; perimeters extrusion width = 0.37mm
; infill extrusion width = 0.60mm
; solid infill extrusion width = 0.38mm
; top infill extrusion width = 0.30mm

G21 ; set units to millimeters
M107
G28 ; home all axes
M203 X192 Y208 Z3 ; Speed limits to minimize skipped steps when moving really fast courtesy of forum.lulzbot.com user 1013
G90 ; use absolute coordinates
G92 E0
M82 ; use absolute distances for extrusion
M204 S1000
G1 F1500.000 E-2.00000
G92 E0
G1 Z0.300 F12000.000
G1 X129.082 Y119.870 F12000.000
G1 E2.00000 F1500.000
G1 X129.859 Y119.052 E2.02413 F4485
G1 X130.669 Y118.267 E2.04827
G1 X131.511 Y117.517 E2.07241
G1 X132.443 Y116.759 E2.09809
G1 X133.809 Y115.761 E2.13429
G1 X135.172 Y114.887 E2.16893
G1 X136.152 Y114.329 E2.19307
G1 X137.221 Y113.781 E2.21876
G1 X138.765 Y113.089 E2.25496
G1 X140.280 Y112.517 E2.28961
G1 X141.354 Y112.175 E2.31373
G1 X142.513 Y111.861 E2.33942
G1 X144.096 Y111.517 E2.37407
G1 X145.281 Y111.326 E2.39976
G1 X146.891 Y111.149 E2.43441
G1 X148.018 Y111.084 E2.45855
G1 X149.073 Y111.066 E2.48113
G1 X149.782 Y111.079 E2.49629
G1 X151.399 Y111.174 E2.53095
G1 X152.520 Y111.298 E2.55509
G1 X153.634 Y111.468 E2.57921
G1 X154.812 Y111.703 E2.60491
G1 X156.383 Y112.098 E2.63955
G1 X157.461 Y112.430 E2.66369
G1 X158.524 Y112.807 E2.68781
G1 X159.637 Y113.258 E2.71351
G1 X161.106 Y113.940 E2.74816
G1 X162.103 Y114.469 E2.77230
G1 X163.137 Y115.077 E2.79798
G1 X164.549 Y116.010 E2.83417
G1 X165.843 Y116.983 E2.86882
G1 X166.709 Y117.707 E2.89296
G1 X167.543 Y118.466 E2.91709
G1 X168.344 Y119.260 E2.94123
G1 X169.160 Y120.142 E2.96692
G1 X170.197 Y121.384 E3.00155
G1 X170.875 Y122.287 E3.02571
G1 X171.513 Y123.217 E3.04983
G1 X172.113 Y124.172 E3.07396
G1 X172.671 Y125.152 E3.09810
G1 X173.219 Y126.221 E3.12379
G1 X173.911 Y127.765 E3.15999
G1 X174.483 Y129.280 E3.19464
G1 X174.825 Y130.354 E3.21876
G1 X175.139 Y131.513 E3.24445
G1 X175.483 Y133.096 E3.27910
G1 X175.674 Y134.281 E3.30479
G1 X175.851 Y135.891 E3.33944
G1 X175.916 Y137.018 E3.36358
G1 X175.933 Y138.145 E3.38770
G1 X175.903 Y139.273 E3.41184
G1 X175.818 Y140.471 E3.43753
G1 X175.623 Y142.078 E3.47218
G1 X175.413 Y143.261 E3.49787
G1 X175.051 Y144.839 E3.53252
G1 X174.742 Y145.923 E3.55664
G1 X174.362 Y147.062 E3.58233
G1 X173.742 Y148.637 E3.61853
G1 X173.060 Y150.106 E3.65318
G1 X172.531 Y151.103 E3.67732
G1 X171.923 Y152.137 E3.70300
G1 X170.990 Y153.549 E3.73919
G1 X170.017 Y154.843 E3.77384
G1 X169.293 Y155.709 E3.79798
G1 X168.534 Y156.543 E3.82212
G1 X167.687 Y157.394 E3.84780
G1 X166.489 Y158.483 E3.88245
G1 X165.616 Y159.197 E3.90657
G1 X164.713 Y159.875 E3.93073
G1 X163.783 Y160.513 E3.95486
G1 X162.828 Y161.113 E3.97898
G1 X161.848 Y161.671 E4.00312
G1 X160.779 Y162.219 E4.02881
G1 X159.235 Y162.911 E4.06502
G1 X157.720 Y163.483 E4.09967
G1 X156.646 Y163.825 E4.12379
G1 X155.487 Y164.139 E4.14948
G1 X153.904 Y164.483 E4.18412
G1 X152.719 Y164.674 E4.20982
G1 X151.109 Y164.851 E4.24446
G1 X149.982 Y164.916 E4.26860
G1 X148.855 Y164.933 E4.29272
G1 X147.727 Y164.903 E4.31687
G1 X146.529 Y164.818 E4.34255
G1 X144.922 Y164.623 E4.37720
G1 X143.739 Y164.413 E4.40289
G1 X142.161 Y164.051 E4.43754
G1 X141.077 Y163.742 E4.46166
G1 X139.938 Y163.362 E4.48735
G1 X138.363 Y162.742 E4.52355
G1 X136.894 Y162.060 E4.55820
G1 X135.897 Y161.531 E4.58234
G1 X134.863 Y160.923 E4.60802
G1 X133.451 Y159.990 E4.64422
G1 X132.157 Y159.017 E4.67886
G1 X131.291 Y158.293 E4.70300
G1 X130.457 Y157.534 E4.72714
G1 X129.606 Y156.687 E4.75283
G1 X128.517 Y155.489 E4.78748
G1 X127.803 Y154.616 E4.81160
G1 X127.125 Y153.713 E4.83576
G1 X126.487 Y152.783 E4.85988
G1 X125.887 Y151.828 E4.88400
G1 X125.329 Y150.848 E4.90814
G1 X124.781 Y149.779 E4.93384
G1 X124.089 Y148.235 E4.97004
G1 X123.517 Y146.720 E5.00469
G1 X123.175 Y145.646 E5.02881
G1 X122.861 Y144.487 E5.05450
G1 X122.517 Y142.904 E5.08915
G1 X122.326 Y141.719 E5.11484
G1 X122.149 Y140.109 E5.14948
G1 X122.084 Y138.982 E5.17363
G1 X122.067 Y137.855 E5.19775
G1 X122.097 Y136.727 E5.22189
G1 X122.182 Y135.529 E5.24758
G1 X122.377 Y133.922 E5.28222
G1 X122.587 Y132.739 E5.30791
G1 X122.949 Y131.161 E5.34256
G1 X123.258 Y130.077 E5.36668
G1 X123.638 Y128.938 E5.39238
G1 X124.258 Y127.363 E5.42858
G1 X124.940 Y125.894 E5.46323
G1 X125.469 Y124.897 E5.48737
G1 X126.038 Y123.924 E5.51150
G1 X126.647 Y122.975 E5.53561
G1 X127.296 Y122.051 E5.55977
G1 X128.030 Y121.101 E5.58545
G1 X129.048 Y119.910 E5.61898
G1 X129.423 Y120.191 F12000.000
G1 X130.186 Y119.386 E5.64269 F4485
G1 X130.982 Y118.615 E5.66641
G1 X131.810 Y117.877 E5.69013
G1 X132.722 Y117.134 E5.71529
G1 X134.064 Y116.153 E5.75086
G1 X135.406 Y115.293 E5.78497
G1 X136.369 Y114.743 E5.80869
G1 X137.415 Y114.206 E5.83386
G1 X138.932 Y113.525 E5.86943
G1 X140.425 Y112.962 E5.90356
G1 X141.480 Y112.625 E5.92726
G1 X142.615 Y112.317 E5.95243
G1 X144.174 Y111.978 E5.98655
G1 X145.335 Y111.791 E6.01172
G1 X146.920 Y111.616 E6.04584
G1 X148.027 Y111.552 E6.06956
G1 X149.068 Y111.534 E6.09183
G1 X149.757 Y111.547 E6.10657
G1 X151.350 Y111.639 E6.14071
G1 X152.452 Y111.760 E6.16442
G1 X153.547 Y111.928 E6.18812
G1 X154.701 Y112.157 E6.21330
G1 X156.247 Y112.546 E6.24742
G1 X157.307 Y112.872 E6.27114
G1 X158.352 Y113.242 E6.29484
G1 X159.442 Y113.683 E6.32002
G1 X160.889 Y114.355 E6.35414
G1 X161.869 Y114.874 E6.37786
G1 X162.883 Y115.469 E6.40302
G1 X164.270 Y116.385 E6.43858
G1 X165.545 Y117.343 E6.47271
G1 X166.396 Y118.054 E6.49643
G1 X167.216 Y118.800 E6.52014
G1 X168.003 Y119.580 E6.54386
G1 X168.802 Y120.443 E6.56902
G1 X169.825 Y121.667 E6.60313
G1 X170.491 Y122.554 E6.62687
G1 X171.118 Y123.467 E6.65058
G1 X171.707 Y124.406 E6.67428
G1 X172.257 Y125.369 E6.69801
G1 X172.794 Y126.415 E6.72317
G1 X173.475 Y127.932 E6.75875
G1 X174.038 Y129.425 E6.79287
G1 X174.375 Y130.480 E6.81657
G1 X174.683 Y131.615 E6.84174
G1 X175.022 Y133.174 E6.87586
G1 X175.209 Y134.335 E6.90103
G1 X175.384 Y135.920 E6.93515
G1 X175.448 Y137.027 E6.95888
G1 X175.465 Y138.135 E6.98258
G1 X175.436 Y139.244 E7.00630
G1 X175.354 Y140.417 E7.03146
G1 X175.162 Y142.000 E7.06559
G1 X174.957 Y143.158 E7.09075
G1 X174.600 Y144.713 E7.12488
G1 X174.297 Y145.779 E7.14858
G1 X173.925 Y146.895 E7.17375
G1 X173.317 Y148.442 E7.20932
G1 X172.645 Y149.889 E7.24345
G1 X172.126 Y150.869 E7.26717
G1 X171.531 Y151.883 E7.29232
G1 X170.615 Y153.270 E7.32789
G1 X169.657 Y154.545 E7.36201
G1 X168.946 Y155.396 E7.38573
G1 X168.200 Y156.216 E7.40945
G1 X167.370 Y157.050 E7.43461
G1 X166.190 Y158.123 E7.46874
G1 X165.333 Y158.825 E7.49244
G1 X164.446 Y159.491 E7.51618
G1 X163.533 Y160.118 E7.53988
G1 X162.594 Y160.707 E7.56359
G1 X161.631 Y161.257 E7.58731
G1 X160.585 Y161.794 E7.61248
G1 X159.068 Y162.475 E7.64805
G1 X157.575 Y163.038 E7.68218
G1 X156.520 Y163.375 E7.70588
G1 X155.385 Y163.683 E7.73105
G1 X153.826 Y164.022 E7.76517
G1 X152.665 Y164.209 E7.79034
G1 X151.080 Y164.384 E7.82446
G1 X149.973 Y164.448 E7.84818
G1 X148.865 Y164.465 E7.87188
G1 X147.756 Y164.436 E7.89561
G1 X146.583 Y164.354 E7.92077
G1 X145.000 Y164.162 E7.95489
G1 X143.842 Y163.957 E7.98006
G1 X142.287 Y163.600 E8.01418
G1 X141.221 Y163.297 E8.03789
G1 X140.105 Y162.925 E8.06305
G1 X138.558 Y162.317 E8.09863
G1 X137.111 Y161.645 E8.13275
G1 X136.131 Y161.126 E8.15647
G1 X135.117 Y160.531 E8.18163
G1 X133.730 Y159.615 E8.21720
G1 X132.455 Y158.657 E8.25132
G1 X131.604 Y157.946 E8.27504
G1 X130.784 Y157.200 E8.29875
G1 X129.950 Y156.370 E8.32392
G1 X128.877 Y155.190 E8.35804
G1 X128.175 Y154.333 E8.38175
G1 X127.509 Y153.446 E8.40549
G1 X126.882 Y152.533 E8.42919
G1 X126.293 Y151.594 E8.45290
G1 X125.743 Y150.631 E8.47662
G1 X125.206 Y149.585 E8.50179
G1 X124.525 Y148.068 E8.53736
G1 X123.962 Y146.575 E8.57148
G1 X123.625 Y145.520 E8.59519
G1 X123.317 Y144.385 E8.62035
G1 X122.978 Y142.826 E8.65448
G1 X122.791 Y141.665 E8.67964
G1 X122.616 Y140.080 E8.71376
G1 X122.552 Y138.973 E8.73749
G1 X122.535 Y137.865 E8.76119
G1 X122.564 Y136.756 E8.78491
G1 X122.646 Y135.583 E8.81008
G1 X122.838 Y134.000 E8.84420
G1 X123.043 Y132.842 E8.86937
G1 X123.400 Y131.287 E8.90349
G1 X123.703 Y130.221 E8.92719
G1 X124.075 Y129.105 E8.95236
G1 X124.683 Y127.558 E8.98793
G1 X125.355 Y126.111 E9.02206
G1 X125.874 Y125.131 E9.04578
G1 X126.433 Y124.174 E9.06949
G1 X127.031 Y123.242 E9.09319
G1 X127.669 Y122.334 E9.11693
G1 X128.387 Y121.403 E9.14208
G1 X129.389 Y120.230 E9.17508
G1 F1500.000 E7.17508
G92 E0
G1 X134.674 Y125.096 F12000.000
G1 E2.00000 F1500.000
G1 X135.224 Y124.510 E2.01720 F4485
G1 X135.801 Y123.945 E2.03448
G1 X136.401 Y123.404 E2.05175
G1 X137.021 Y122.892 E2.06895
G1 X137.996 Y122.168 E2.09495
G1 X139.015 Y121.506 E2.12094
G1 X139.711 Y121.104 E2.13814
G1 X140.424 Y120.732 E2.15534
G1 X141.528 Y120.226 E2.18133
G1 X142.663 Y119.790 E2.20732
G1 X143.427 Y119.542 E2.22452
G1 X144.201 Y119.326 E2.24172
G1 X145.391 Y119.060 E2.26779
G1 X146.180 Y118.926 E2.28491
G1 X147.390 Y118.786 E2.31099
G1 X148.193 Y118.736 E2.32818
G1 X149.396 Y118.723 E2.35394
G1 X150.617 Y118.787 E2.38009
G1 X151.417 Y118.871 E2.39729
G1 X152.215 Y118.989 E2.41457
G1 X153.005 Y119.140 E2.43177
G1 X154.189 Y119.430 E2.45784
G1 X154.958 Y119.663 E2.47504
G1 X155.721 Y119.928 E2.49232
G1 X156.468 Y120.224 E2.50951
G1 X157.576 Y120.732 E2.53559
G1 X158.289 Y121.104 E2.55278
G1 X158.985 Y121.506 E2.56998
G1 X160.004 Y122.168 E2.59598
G1 X160.979 Y122.892 E2.62197
G1 X161.599 Y123.404 E2.63917
G1 X162.199 Y123.945 E2.65645
G1 X162.776 Y124.510 E2.67373
G1 X163.326 Y125.096 E2.69092
G1 X164.113 Y126.027 E2.71700
G1 X164.599 Y126.667 E2.73420
G1 X165.059 Y127.330 E2.75147
G1 X165.492 Y128.012 E2.76875
G1 X165.896 Y128.711 E2.78603
G1 X166.268 Y129.424 E2.80323
G1 X166.774 Y130.528 E2.82922
G1 X167.210 Y131.663 E2.85522
G1 X167.458 Y132.427 E2.87241
G1 X167.674 Y133.201 E2.88961
G1 X167.940 Y134.391 E2.91569
G1 X168.074 Y135.180 E2.93280
G1 X168.214 Y136.390 E2.95888
G1 X168.264 Y137.193 E2.97608
G1 X168.281 Y138.000 E2.99335
G1 X168.264 Y138.807 E3.01063
G1 X168.214 Y139.610 E3.02783
G1 X168.074 Y140.820 E3.05390
G1 X167.940 Y141.609 E3.07102
G1 X167.674 Y142.799 E3.09710
G1 X167.458 Y143.573 E3.11429
G1 X167.210 Y144.337 E3.13149
G1 X166.774 Y145.472 E3.15749
G1 X166.268 Y146.576 E3.18348
G1 X165.896 Y147.289 E3.20068
G1 X165.494 Y147.985 E3.21788
G1 X164.832 Y149.004 E3.24387
G1 X164.108 Y149.979 E3.26987
G1 X163.596 Y150.599 E3.28706
G1 X163.055 Y151.199 E3.30434
G1 X162.493 Y151.773 E3.32154
G1 X161.596 Y152.598 E3.34761
G1 X160.976 Y153.110 E3.36481
G1 X160.333 Y153.599 E3.38209
G1 X159.670 Y154.059 E3.39936
G1 X158.988 Y154.492 E3.41664
G1 X158.289 Y154.896 E3.43392
G1 X157.576 Y155.268 E3.45112
G1 X156.472 Y155.774 E3.47711
G1 X155.337 Y156.210 E3.50311
G1 X154.573 Y156.458 E3.52030
G1 X153.799 Y156.674 E3.53750
G1 X152.609 Y156.940 E3.56358
G1 X151.820 Y157.074 E3.58069
G1 X150.610 Y157.214 E3.60677
G1 X149.807 Y157.264 E3.62397
G1 X149.000 Y157.281 E3.64124
G1 X148.193 Y157.264 E3.65852
G1 X147.390 Y157.214 E3.67572
G1 X146.180 Y157.074 E3.70180
G1 X145.391 Y156.940 E3.71891
G1 X144.201 Y156.674 E3.74499
G1 X143.427 Y156.458 E3.76219
G1 X142.663 Y156.210 E3.77938
G1 X141.528 Y155.774 E3.80538
G1 X140.424 Y155.268 E3.83137
G1 X139.711 Y154.896 E3.84857
G1 X139.015 Y154.494 E3.86577
G1 X137.996 Y153.832 E3.89176
G1 X137.021 Y153.108 E3.91776
G1 X136.401 Y152.596 E3.93495
G1 X135.801 Y152.055 E3.95223
G1 X135.227 Y151.493 E3.96943
G1 X134.402 Y150.596 E3.99550
G1 X133.890 Y149.976 E4.01270
G1 X133.401 Y149.333 E4.02998
G1 X132.941 Y148.670 E4.04726
G1 X132.508 Y147.988 E4.06453
G1 X132.104 Y147.289 E4.08181
G1 X131.732 Y146.576 E4.09901
G1 X131.226 Y145.472 E4.12500
G1 X130.790 Y144.337 E4.15100
G1 X130.542 Y143.573 E4.16820
G1 X130.326 Y142.799 E4.18539
G1 X130.060 Y141.609 E4.21147
G1 X129.926 Y140.820 E4.22859
G1 X129.786 Y139.610 E4.25466
G1 X129.736 Y138.807 E4.27186
G1 X129.719 Y138.000 E4.28914
G1 X129.736 Y137.193 E4.30641
G1 X129.786 Y136.390 E4.32361
G1 X129.926 Y135.180 E4.34969
G1 X130.060 Y134.391 E4.36680
G1 X130.326 Y133.201 E4.39288
G1 X130.542 Y132.427 E4.41008
G1 X130.790 Y131.663 E4.42727
G1 X131.226 Y130.528 E4.45327
G1 X131.732 Y129.424 E4.47926
G1 X132.104 Y128.711 E4.49646
G1 X132.508 Y128.012 E4.51374
G1 X132.941 Y127.330 E4.53102
G1 X133.401 Y126.667 E4.54829
G1 X133.887 Y126.027 E4.56549
G1 X134.640 Y125.136 E4.59044
G1 X134.325 Y124.784 F12000.000
G1 X134.890 Y124.182 E4.60811 F3510
G1 X135.481 Y123.604 E4.62581
G1 X136.096 Y123.050 E4.64351
G1 X136.732 Y122.524 E4.66118
G1 X137.729 Y121.783 E4.68775
G1 X138.771 Y121.107 E4.71432
G1 X139.486 Y120.694 E4.73199
G1 X140.218 Y120.311 E4.74966
G1 X141.347 Y119.794 E4.77623
G1 X142.506 Y119.349 E4.80280
G1 X143.292 Y119.094 E4.82047
G1 X144.087 Y118.872 E4.83814
G1 X145.301 Y118.601 E4.86474
G1 X146.114 Y118.463 E4.88238
G1 X147.349 Y118.320 E4.90898
G1 X148.173 Y118.268 E4.92665
G1 X149.411 Y118.255 E4.95313
G1 X150.654 Y118.321 E4.97976
G1 X151.475 Y118.407 E4.99743
G1 X152.293 Y118.528 E5.01513
G1 X153.105 Y118.682 E5.03280
G1 X154.312 Y118.979 E5.05940
G1 X155.103 Y119.218 E5.07707
G1 X155.884 Y119.490 E5.09476
G1 X156.652 Y119.794 E5.11243
G1 X157.782 Y120.311 E5.13903
G1 X158.514 Y120.694 E5.15670
G1 X159.229 Y121.107 E5.17437
G1 X160.271 Y121.783 E5.20094
G1 X161.268 Y122.524 E5.22751
G1 X161.904 Y123.050 E5.24518
G1 X162.519 Y123.604 E5.26288
G1 X163.110 Y124.182 E5.28058
G1 X163.675 Y124.784 E5.29824
G1 X164.478 Y125.734 E5.32484
G1 X164.977 Y126.392 E5.34251
G1 X165.449 Y127.071 E5.36021
G1 X165.892 Y127.770 E5.37791
G1 X166.306 Y128.486 E5.39561
G1 X166.689 Y129.218 E5.41327
G1 X167.206 Y130.347 E5.43985
G1 X167.651 Y131.506 E5.46642
G1 X167.906 Y132.292 E5.48409
G1 X168.128 Y133.087 E5.50176
G1 X168.399 Y134.301 E5.52835
G1 X168.537 Y135.114 E5.54600
G1 X168.680 Y136.349 E5.57259
G1 X168.732 Y137.173 E5.59026
G1 X168.749 Y138.000 E5.60796
G1 X168.732 Y138.827 E5.62566
G1 X168.680 Y139.651 E5.64333
G1 X168.537 Y140.886 E5.66993
G1 X168.399 Y141.699 E5.68757
G1 X168.128 Y142.913 E5.71417
G1 X167.906 Y143.708 E5.73184
G1 X167.651 Y144.493 E5.74951
G1 X167.206 Y145.653 E5.77608
G1 X166.689 Y146.782 E5.80265
G1 X166.306 Y147.514 E5.82032
G1 X165.893 Y148.229 E5.83799
G1 X165.217 Y149.271 E5.86456
G1 X164.476 Y150.268 E5.89113
G1 X163.950 Y150.904 E5.90880
G1 X163.396 Y151.519 E5.92649
G1 X162.818 Y152.109 E5.94416
G1 X161.903 Y152.951 E5.97076
G1 X161.267 Y153.477 E5.98843
G1 X160.608 Y153.977 E6.00613
G1 X159.929 Y154.449 E6.02383
G1 X159.230 Y154.892 E6.04152
G1 X158.514 Y155.306 E6.05922
G1 X157.782 Y155.689 E6.07689
G1 X156.653 Y156.206 E6.10346
G1 X155.493 Y156.651 E6.13003
G1 X154.708 Y156.906 E6.14770
G1 X153.913 Y157.128 E6.16537
G1 X152.699 Y157.399 E6.19197
G1 X151.886 Y157.537 E6.20961
G1 X150.651 Y157.680 E6.23621
G1 X149.827 Y157.732 E6.25388
G1 X149.000 Y157.749 E6.27158
G1 X148.173 Y157.732 E6.28927
G1 X147.349 Y157.680 E6.30694
G1 X146.114 Y157.537 E6.33354
G1 X145.301 Y157.399 E6.35118
G1 X144.087 Y157.128 E6.37778
G1 X143.292 Y156.906 E6.39545
G1 X142.506 Y156.651 E6.41312
G1 X141.347 Y156.206 E6.43969
G1 X140.218 Y155.689 E6.46626
G1 X139.486 Y155.306 E6.48393
G1 X138.771 Y154.893 E6.50160
G1 X137.729 Y154.217 E6.52817
G1 X136.732 Y153.476 E6.55475
G1 X136.096 Y152.950 E6.57241
G1 X135.481 Y152.396 E6.59011
G1 X134.891 Y151.818 E6.60778
G1 X134.049 Y150.903 E6.63438
G1 X133.523 Y150.267 E6.65205
G1 X133.023 Y149.608 E6.66975
G1 X132.551 Y148.929 E6.68744
G1 X132.108 Y148.230 E6.70514
G1 X131.694 Y147.514 E6.72284
G1 X131.311 Y146.782 E6.74051
G1 X130.794 Y145.653 E6.76708
G1 X130.349 Y144.493 E6.79365
G1 X130.094 Y143.708 E6.81132
G1 X129.872 Y142.913 E6.82899
G1 X129.601 Y141.699 E6.85559
G1 X129.463 Y140.886 E6.87323
G1 X129.320 Y139.651 E6.89983
G1 X129.268 Y138.827 E6.91750
G1 X129.251 Y138.000 E6.93519
G1 X129.268 Y137.173 E6.95289
G1 X129.320 Y136.349 E6.97056
G1 X129.463 Y135.114 E6.99716
G1 X129.601 Y134.301 E7.01480
G1 X129.872 Y133.087 E7.04140
G1 X130.094 Y132.292 E7.05907
G1 X130.349 Y131.506 E7.07674
G1 X130.794 Y130.347 E7.10331
G1 X131.311 Y129.218 E7.12988
