; generated by Slic3r 1.1.0 on 2014-04-05 at 16:17:09

; perimeters extrusion width = 0.34mm
; infill extrusion width = 0.60mm
; solid infill extrusion width = 0.59mm
; top infill extrusion width = 0.35mm

G21 ; set units to millimeters
M107
G28 ; home all axes
M104 S220 ; lower temp after/durring first layer improve overhangs
M140 S80 ; lower temp after/durring first layer improve overhangs
G90 ; use absolute coordinates
G92 E0
M82 ; use absolute distances for extrusion
G1 F1200.000 E-1.75000
G92 E0
G1 Z0.168 F4800.000
G1 X129.035 Y119.144 F4800.000
G1 E1.75000 F1200.000
G1 X129.842 Y118.325 E1.76077 F2040
G1 X130.683 Y117.540 E1.77155
G1 X132.004 Y116.430 E1.78771
G1 X132.923 Y115.737 E1.79849
G1 X133.869 Y115.083 E1.80926
G1 X135.337 Y114.179 E1.82541
G1 X136.861 Y113.367 E1.84158
G1 X137.901 Y112.881 E1.85233
G1 X138.964 Y112.438 E1.86311
G1 X140.043 Y112.040 E1.87388
G1 X141.690 Y111.529 E1.89004
G1 X142.805 Y111.247 E1.90081
G1 X143.932 Y111.010 E1.91160
G1 X145.066 Y110.822 E1.92237
G1 X146.781 Y110.628 E1.93853
G1 X147.929 Y110.559 E1.94930
G1 X149.078 Y110.539 E1.96007
G1 X150.229 Y110.566 E1.97085
G1 X151.377 Y110.642 E1.98163
G1 X153.090 Y110.845 E1.99778
G1 X154.786 Y111.155 E2.01393
G1 X155.905 Y111.421 E2.02470
G1 X157.560 Y111.907 E2.04086
G1 X158.645 Y112.288 E2.05163
G1 X159.715 Y112.715 E2.06241
G1 X161.281 Y113.438 E2.07857
G1 X162.298 Y113.973 E2.08933
G1 X163.293 Y114.551 E2.10012
G1 X164.736 Y115.494 E2.11626
G1 X165.665 Y116.173 E2.12703
G1 X167.003 Y117.263 E2.14320
G1 X167.856 Y118.035 E2.15397
G1 X168.675 Y118.842 E2.16474
G1 X169.460 Y119.683 E2.17552
G1 X170.570 Y121.004 E2.19168
G1 X171.263 Y121.923 E2.20246
G1 X171.917 Y122.869 E2.21323
G1 X172.821 Y124.337 E2.22938
G1 X173.633 Y125.861 E2.24555
G1 X174.119 Y126.901 E2.25630
G1 X174.562 Y127.964 E2.26709
G1 X174.960 Y129.043 E2.27786
G1 X175.471 Y130.690 E2.29402
G1 X175.753 Y131.805 E2.30478
G1 X175.990 Y132.932 E2.31557
G1 X176.178 Y134.067 E2.32634
G1 X176.372 Y135.781 E2.34251
G1 X176.441 Y136.929 E2.35328
G1 X176.461 Y138.078 E2.36404
G1 X176.434 Y139.230 E2.37483
G1 X176.358 Y140.377 E2.38560
G1 X176.155 Y142.090 E2.40176
G1 X175.845 Y143.787 E2.41791
G1 X175.579 Y144.905 E2.42867
G1 X175.093 Y146.560 E2.44483
G1 X174.712 Y147.645 E2.45561
G1 X174.285 Y148.715 E2.46639
G1 X173.562 Y150.281 E2.48254
G1 X173.027 Y151.298 E2.49331
G1 X172.449 Y152.293 E2.50409
G1 X171.506 Y153.736 E2.52023
G1 X170.827 Y154.665 E2.53101
G1 X169.737 Y156.003 E2.54717
G1 X168.965 Y156.856 E2.55795
G1 X167.742 Y158.072 E2.57410
G1 X166.884 Y158.840 E2.58488
G1 X165.996 Y159.570 E2.59566
G1 X165.077 Y160.263 E2.60644
G1 X164.131 Y160.917 E2.61720
G1 X162.663 Y161.821 E2.63336
G1 X161.139 Y162.633 E2.64953
G1 X160.099 Y163.119 E2.66028
G1 X159.037 Y163.562 E2.67106
G1 X157.957 Y163.960 E2.68183
G1 X156.310 Y164.471 E2.69799
G1 X155.195 Y164.753 E2.70876
G1 X154.068 Y164.990 E2.71955
G1 X152.933 Y165.178 E2.73032
G1 X151.219 Y165.372 E2.74648
G1 X150.071 Y165.441 E2.75725
G1 X148.922 Y165.461 E2.76801
G1 X147.770 Y165.434 E2.77880
G1 X146.623 Y165.358 E2.78957
G1 X144.910 Y165.155 E2.80573
G1 X143.213 Y164.845 E2.82188
G1 X142.095 Y164.579 E2.83265
G1 X140.440 Y164.093 E2.84881
G1 X139.355 Y163.712 E2.85958
G1 X138.285 Y163.285 E2.87036
G1 X136.719 Y162.562 E2.88652
G1 X135.702 Y162.027 E2.89728
G1 X134.707 Y161.449 E2.90806
G1 X133.264 Y160.506 E2.92420
G1 X132.335 Y159.827 E2.93498
G1 X130.997 Y158.737 E2.95114
G1 X130.144 Y157.965 E2.96192
G1 X128.928 Y156.742 E2.97808
G1 X128.160 Y155.884 E2.98885
G1 X127.430 Y154.996 E2.99963
G1 X126.737 Y154.077 E3.01041
G1 X126.083 Y153.131 E3.02117
G1 X125.179 Y151.663 E3.03733
G1 X124.367 Y150.139 E3.05350
G1 X123.881 Y149.099 E3.06425
G1 X123.438 Y148.036 E3.07503
G1 X123.040 Y146.957 E3.08580
G1 X122.529 Y145.310 E3.10196
G1 X122.247 Y144.195 E3.11273
G1 X122.010 Y143.068 E3.12352
G1 X121.822 Y141.934 E3.13429
G1 X121.628 Y140.219 E3.15045
G1 X121.559 Y139.071 E3.16122
G1 X121.539 Y137.922 E3.17199
G1 X121.566 Y136.771 E3.18277
G1 X121.642 Y135.623 E3.19355
G1 X121.845 Y133.910 E3.20970
G1 X122.155 Y132.214 E3.22585
G1 X122.421 Y131.095 E3.23662
G1 X122.907 Y129.440 E3.25278
G1 X123.288 Y128.355 E3.26355
G1 X123.715 Y127.285 E3.27433
G1 X124.438 Y125.719 E3.29049
G1 X124.973 Y124.702 E3.30125
G1 X125.551 Y123.707 E3.31203
G1 X126.494 Y122.264 E3.32817
G1 X127.173 Y121.335 E3.33895
G1 X127.890 Y120.436 E3.34973
G1 X128.999 Y119.183 E3.36540
G1 X129.299 Y119.398 F4800.000
G1 X130.506 Y118.197 E3.38134 F2040
G1 X131.352 Y117.440 E3.39198
G1 X132.228 Y116.719 E3.40261
G1 X133.135 Y116.035 E3.41324
G1 X134.068 Y115.390 E3.42387
G1 X135.517 Y114.497 E3.43981
G1 X137.020 Y113.696 E3.45576
G1 X138.046 Y113.217 E3.46637
G1 X139.095 Y112.780 E3.47701
G1 X140.159 Y112.387 E3.48763
G1 X141.785 Y111.882 E3.50358
G1 X142.885 Y111.603 E3.51420
G1 X143.997 Y111.370 E3.52485
G1 X145.116 Y111.184 E3.53547
G1 X146.808 Y110.993 E3.55142
G1 X147.941 Y110.925 E3.56205
G1 X149.075 Y110.904 E3.57267
G1 X150.210 Y110.931 E3.58331
G1 X151.343 Y111.006 E3.59394
G1 X153.033 Y111.206 E3.60988
G1 X154.150 Y111.398 E3.62050
G1 X155.810 Y111.774 E3.63644
G1 X157.444 Y112.253 E3.65239
G1 X158.514 Y112.630 E3.66302
G1 X159.569 Y113.051 E3.67365
G1 X161.115 Y113.763 E3.68960
G1 X162.118 Y114.292 E3.70022
G1 X163.100 Y114.862 E3.71085
G1 X164.524 Y115.792 E3.72678
G1 X165.441 Y116.462 E3.73741
G1 X166.761 Y117.537 E3.75336
G1 X167.602 Y118.299 E3.76399
G1 X168.411 Y119.095 E3.77462
G1 X169.186 Y119.925 E3.78525
G1 X170.281 Y121.228 E3.80120
G1 X170.965 Y122.135 E3.81184
G1 X171.610 Y123.068 E3.82246
G1 X172.503 Y124.517 E3.83840
G1 X173.304 Y126.020 E3.85435
G1 X173.783 Y127.046 E3.86496
G1 X174.220 Y128.095 E3.87560
G1 X174.613 Y129.159 E3.88623
G1 X175.118 Y130.785 E3.90217
G1 X175.397 Y131.885 E3.91280
G1 X175.630 Y132.997 E3.92344
G1 X175.816 Y134.116 E3.93407
G1 X176.007 Y135.808 E3.95002
G1 X176.075 Y136.941 E3.96064
G1 X176.096 Y138.075 E3.97127
G1 X176.069 Y139.210 E3.98191
G1 X175.994 Y140.343 E3.99253
G1 X175.794 Y142.033 E4.00848
G1 X175.602 Y143.150 E4.01910
G1 X175.226 Y144.810 E4.03504
G1 X174.747 Y146.444 E4.05098
G1 X174.370 Y147.514 E4.06161
G1 X173.949 Y148.569 E4.07225
G1 X173.237 Y150.115 E4.08819
G1 X172.708 Y151.118 E4.09881
G1 X172.138 Y152.100 E4.10945
G1 X171.208 Y153.524 E4.12537
G1 X170.538 Y154.441 E4.13601
G1 X169.463 Y155.761 E4.15196
G1 X168.701 Y156.603 E4.16259
G1 X167.494 Y157.803 E4.17853
G1 X166.648 Y158.560 E4.18916
G1 X165.772 Y159.281 E4.19979
G1 X164.865 Y159.965 E4.21043
G1 X163.932 Y160.610 E4.22105
G1 X162.483 Y161.503 E4.23699
G1 X160.980 Y162.304 E4.25295
G1 X159.954 Y162.783 E4.26356
G1 X158.905 Y163.220 E4.27419
G1 X157.841 Y163.613 E4.28482
G1 X156.215 Y164.118 E4.30077
G1 X155.115 Y164.397 E4.31139
G1 X154.003 Y164.630 E4.32204
G1 X152.884 Y164.816 E4.33266
G1 X151.192 Y165.007 E4.34861
G1 X150.059 Y165.075 E4.35924
G1 X148.925 Y165.096 E4.36986
G1 X147.790 Y165.069 E4.38050
G1 X146.657 Y164.994 E4.39113
G1 X144.967 Y164.794 E4.40707
G1 X143.850 Y164.602 E4.41769
G1 X142.190 Y164.226 E4.43363
G1 X140.556 Y163.747 E4.44957
G1 X139.486 Y163.370 E4.46020
G1 X138.431 Y162.949 E4.47084
G1 X136.885 Y162.237 E4.48678
G1 X135.882 Y161.708 E4.49740
G1 X134.900 Y161.138 E4.50804
G1 X133.476 Y160.208 E4.52396
G1 X132.559 Y159.538 E4.53460
G1 X131.239 Y158.463 E4.55055
G1 X130.397 Y157.701 E4.56118
G1 X129.197 Y156.494 E4.57712
G1 X128.440 Y155.648 E4.58776
G1 X127.719 Y154.772 E4.59839
G1 X127.035 Y153.865 E4.60902
G1 X126.390 Y152.932 E4.61965
G1 X125.497 Y151.483 E4.63559
G1 X124.696 Y149.980 E4.65154
G1 X124.217 Y148.954 E4.66215
G1 X123.780 Y147.905 E4.67279
G1 X123.387 Y146.841 E4.68341
G1 X122.882 Y145.215 E4.69936
G1 X122.603 Y144.115 E4.70998
G1 X122.370 Y143.003 E4.72063
G1 X122.184 Y141.884 E4.73125
G1 X121.993 Y140.192 E4.74720
G1 X121.925 Y139.059 E4.75783
G1 X121.904 Y137.925 E4.76845
G1 X121.931 Y136.790 E4.77909
G1 X122.006 Y135.657 E4.78972
G1 X122.206 Y133.967 E4.80566
G1 X122.512 Y132.293 E4.82160
G1 X122.774 Y131.190 E4.83222
G1 X123.253 Y129.556 E4.84817
G1 X123.630 Y128.486 E4.85880
G1 X124.051 Y127.431 E4.86943
G1 X124.763 Y125.885 E4.88538
G1 X125.292 Y124.882 E4.89600
G1 X125.862 Y123.900 E4.90663
G1 X126.792 Y122.476 E4.92256
G1 X127.462 Y121.559 E4.93319
G1 X128.170 Y120.672 E4.94383
G1 X129.263 Y119.436 E4.95928
G1 X129.563 Y119.651 F4800.000
G1 X130.348 Y118.853 E4.96977 F2040
G1 X131.167 Y118.089 E4.98025
G1 X132.452 Y117.008 E4.99599
G1 X133.346 Y116.333 E5.00648
G1 X134.267 Y115.697 E5.01696
G1 X135.696 Y114.816 E5.03268
G1 X137.179 Y114.026 E5.04842
G1 X138.192 Y113.553 E5.05889
G1 X139.226 Y113.121 E5.06938
G1 X140.276 Y112.734 E5.07987
G1 X141.880 Y112.236 E5.09560
G1 X142.964 Y111.960 E5.10608
G1 X144.062 Y111.730 E5.11658
G1 X145.166 Y111.546 E5.12706
G1 X146.835 Y111.358 E5.14279
G1 X147.952 Y111.290 E5.15328
G1 X149.071 Y111.270 E5.16376
G1 X150.191 Y111.296 E5.17425
G1 X151.308 Y111.370 E5.18474
G1 X152.976 Y111.567 E5.20047
G1 X154.078 Y111.757 E5.21094
G1 X155.716 Y112.127 E5.22667
G1 X157.327 Y112.600 E5.24240
G1 X158.383 Y112.971 E5.25288
G1 X159.424 Y113.386 E5.26338
G1 X160.949 Y114.089 E5.27910
G1 X161.939 Y114.610 E5.28958
G1 X162.908 Y115.173 E5.30007
G1 X164.312 Y116.090 E5.31578
G1 X165.217 Y116.751 E5.32628
G1 X166.519 Y117.812 E5.34201
G1 X167.349 Y118.563 E5.35250
G1 X168.147 Y119.348 E5.36298
G1 X168.911 Y120.167 E5.37347
G1 X169.992 Y121.452 E5.38920
G1 X170.667 Y122.347 E5.39969
G1 X171.303 Y123.267 E5.41017
G1 X172.184 Y124.696 E5.42590
G1 X172.974 Y126.179 E5.44164
G1 X173.447 Y127.192 E5.45210
G1 X173.879 Y128.226 E5.46260
G1 X174.266 Y129.276 E5.47308
G1 X174.764 Y130.880 E5.48881
G1 X175.040 Y131.964 E5.49929
G1 X175.270 Y133.062 E5.50979
G1 X175.454 Y134.166 E5.52027
G1 X175.642 Y135.835 E5.53601
G1 X175.710 Y136.952 E5.54649
G1 X175.730 Y138.071 E5.55697
G1 X175.704 Y139.191 E5.56747
G1 X175.630 Y140.308 E5.57795
G1 X175.433 Y141.976 E5.59368
G1 X175.131 Y143.627 E5.60940
G1 X174.873 Y144.716 E5.61988
G1 X174.400 Y146.327 E5.63561
G1 X174.029 Y147.383 E5.64609
G1 X173.614 Y148.424 E5.65659
G1 X172.911 Y149.949 E5.67232
G1 X172.390 Y150.939 E5.68279
G1 X171.827 Y151.908 E5.69329
G1 X170.910 Y153.312 E5.70900
G1 X170.249 Y154.217 E5.71949
G1 X169.188 Y155.519 E5.73522
G1 X168.437 Y156.349 E5.74571
G1 X167.247 Y157.534 E5.76144
G1 X166.412 Y158.281 E5.77193
G1 X165.548 Y158.992 E5.78241
G1 X164.653 Y159.667 E5.79291
G1 X163.733 Y160.303 E5.80339
G1 X162.304 Y161.184 E5.81911
G1 X160.821 Y161.974 E5.83485
G1 X159.808 Y162.447 E5.84532
G1 X158.774 Y162.879 E5.85581
G1 X157.724 Y163.266 E5.86629
G1 X156.120 Y163.764 E5.88202
G1 X155.036 Y164.040 E5.89250
G1 X153.938 Y164.270 E5.90301
G1 X152.834 Y164.454 E5.91349
G1 X151.165 Y164.642 E5.92922
G1 X150.048 Y164.710 E5.93970
G1 X148.929 Y164.730 E5.95018
G1 X147.809 Y164.704 E5.96068
G1 X146.692 Y164.630 E5.97117
G1 X145.024 Y164.433 E5.98689
G1 X143.373 Y164.131 E6.00261
G1 X142.284 Y163.873 E6.01309
G1 X140.673 Y163.400 E6.02882
G1 X139.617 Y163.029 E6.03931
G1 X138.576 Y162.614 E6.04980
G1 X137.051 Y161.911 E6.06553
G1 X136.061 Y161.390 E6.07601
G1 X135.092 Y160.827 E6.08650
G1 X133.688 Y159.910 E6.10221
G1 X132.783 Y159.249 E6.11270
G1 X131.481 Y158.188 E6.12844
G1 X130.651 Y157.437 E6.13892
G1 X129.466 Y156.247 E6.15465
G1 X128.719 Y155.412 E6.16514
G1 X128.008 Y154.548 E6.17563
G1 X127.333 Y153.653 E6.18612
G1 X126.697 Y152.733 E6.19660
G1 X125.816 Y151.304 E6.21232
G1 X125.026 Y149.821 E6.22806
G1 X124.553 Y148.808 E6.23853
G1 X124.121 Y147.774 E6.24902
G1 X123.734 Y146.724 E6.25951
G1 X123.236 Y145.120 E6.27524
G1 X122.960 Y144.036 E6.28572
G1 X122.730 Y142.938 E6.29622
G1 X122.546 Y141.834 E6.30670
G1 X122.358 Y140.165 E6.32243
G1 X122.290 Y139.048 E6.33292
G1 X122.270 Y137.929 E6.34340
G1 X122.296 Y136.809 E6.35389
G1 X122.370 Y135.692 E6.36438
G1 X122.567 Y134.024 E6.38011
G1 X122.869 Y132.373 E6.39583
G1 X123.127 Y131.284 E6.40631
G1 X123.600 Y129.673 E6.42204
G1 X123.971 Y128.617 E6.43252
G1 X124.386 Y127.576 E6.44302
G1 X125.089 Y126.051 E6.45874
G1 X125.610 Y125.061 E6.46922
G1 X126.173 Y124.092 E6.47971
G1 X127.090 Y122.688 E6.49542
G1 X127.751 Y121.783 E6.50592
G1 X128.449 Y120.908 E6.51640
G1 X129.527 Y119.689 E6.53165
G1 X129.827 Y119.904 F4800.000
G1 X130.601 Y119.117 E6.54199 F2040
G1 X131.408 Y118.363 E6.55233
G1 X132.677 Y117.297 E6.56785
G1 X133.558 Y116.631 E6.57820
G1 X134.466 Y116.004 E6.58853
G1 X135.876 Y115.134 E6.60404
G1 X137.338 Y114.355 E6.61957
G1 X138.337 Y113.888 E6.62989
G1 X139.357 Y113.463 E6.64024
G1 X140.393 Y113.080 E6.65058
G1 X141.974 Y112.589 E6.66609
G1 X143.044 Y112.317 E6.67643
G1 X144.126 Y112.090 E6.68679
G1 X145.215 Y111.909 E6.69713
G1 X146.861 Y111.723 E6.71265
G1 X147.963 Y111.656 E6.72299
G1 X149.067 Y111.636 E6.73332
G1 X150.172 Y111.662 E6.74367
G1 X151.274 Y111.734 E6.75402
G1 X152.918 Y111.928 E6.76953
G1 X154.006 Y112.115 E6.77986
G1 X155.621 Y112.481 E6.79537
G1 X157.210 Y112.947 E6.81089
G1 X158.252 Y113.312 E6.82123
G1 X159.279 Y113.722 E6.83158
G1 X160.783 Y114.415 E6.84709
G1 X161.759 Y114.929 E6.85742
G1 X162.715 Y115.484 E6.86777
G1 X164.100 Y116.388 E6.88327
G1 X164.992 Y117.040 E6.89362
G1 X166.277 Y118.086 E6.90914
G1 X167.096 Y118.827 E6.91948
G1 X167.883 Y119.601 E6.92982
G1 X168.637 Y120.408 E6.94016
G1 X169.703 Y121.677 E6.95568
G1 X170.369 Y122.558 E6.96603
G1 X170.996 Y123.466 E6.97637
G1 X171.866 Y124.876 E6.99188
G1 X172.645 Y126.338 E7.00740
G1 X173.112 Y127.337 E7.01772
G1 X173.537 Y128.357 E7.02807
G1 X173.920 Y129.393 E7.03842
G1 X174.411 Y130.974 E7.05393
G1 X174.683 Y132.044 E7.06427
G1 X174.910 Y133.126 E7.07462
G1 X175.091 Y134.215 E7.08496
G1 X175.278 Y135.862 E7.10048
G1 X175.344 Y136.963 E7.11082
G1 X175.364 Y138.067 E7.12116
G1 X175.338 Y139.172 E7.13151
G1 X175.266 Y140.274 E7.14185
G1 X175.072 Y141.919 E7.15736
G1 X174.774 Y143.547 E7.17287
G1 X174.519 Y144.621 E7.18321
G1 X174.053 Y146.210 E7.19872
G1 X173.688 Y147.252 E7.20906
G1 X173.278 Y148.279 E7.21941
G1 X172.585 Y149.783 E7.23492
G1 X172.071 Y150.759 E7.24526
G1 X171.516 Y151.715 E7.25561
G1 X170.612 Y153.100 E7.27110
G1 X169.960 Y153.992 E7.28145
G1 X168.914 Y155.277 E7.29697
G1 X168.173 Y156.096 E7.30731
G1 X166.999 Y157.264 E7.32283
G1 X166.176 Y158.001 E7.33317
G1 X165.323 Y158.703 E7.34352
G1 X164.442 Y159.369 E7.35386
G1 X163.534 Y159.996 E7.36420
G1 X162.124 Y160.866 E7.37971
G1 X160.662 Y161.645 E7.39523
G1 X159.663 Y162.112 E7.40556
G1 X158.643 Y162.537 E7.41591
G1 X157.607 Y162.920 E7.42625
G1 X156.026 Y163.411 E7.44176
G1 X154.956 Y163.683 E7.45210
G1 X153.874 Y163.910 E7.46246
G1 X152.785 Y164.091 E7.47280
G1 X151.138 Y164.278 E7.48831
G1 X150.037 Y164.344 E7.49865
G1 X148.933 Y164.364 E7.50899
G1 X147.828 Y164.338 E7.51934
G1 X146.726 Y164.266 E7.52968
G1 X145.081 Y164.072 E7.54520
G1 X143.994 Y163.885 E7.55553
G1 X142.379 Y163.519 E7.57104
G1 X140.790 Y163.053 E7.58655
G1 X139.748 Y162.688 E7.59690
G1 X138.721 Y162.278 E7.60725
G1 X137.217 Y161.585 E7.62276
G1 X136.241 Y161.071 E7.63309
G1 X135.285 Y160.516 E7.64344
G1 X133.900 Y159.612 E7.65894
G1 X133.008 Y158.960 E7.66929
G1 X131.723 Y157.914 E7.68480
G1 X130.904 Y157.173 E7.69515
G1 X129.736 Y155.999 E7.71066
G1 X128.999 Y155.176 E7.72101
G1 X128.297 Y154.323 E7.73135
G1 X127.631 Y153.442 E7.74170
G1 X127.004 Y152.534 E7.75204
G1 X126.134 Y151.124 E7.76755
G1 X125.355 Y149.662 E7.78307
G1 X124.888 Y148.663 E7.79339
G1 X124.463 Y147.643 E7.80374
G1 X124.080 Y146.607 E7.81408
G1 X123.589 Y145.026 E7.82960
G1 X123.317 Y143.956 E7.83993
G1 X123.090 Y142.874 E7.85029
G1 X122.909 Y141.785 E7.86063
G1 X122.722 Y140.139 E7.87615
G1 X122.656 Y139.037 E7.88649
G1 X122.636 Y137.933 E7.89682
G1 X122.662 Y136.828 E7.90718
G1 X122.734 Y135.726 E7.91752
G1 X122.928 Y134.082 E7.93303
G1 X123.115 Y132.994 E7.94336
G1 X123.481 Y131.379 E7.95887
G1 X123.947 Y129.790 E7.97439
G1 X124.312 Y128.748 E7.98473
G1 X124.722 Y127.721 E7.99508
G1 X125.415 Y126.217 E8.01059
G1 X125.929 Y125.241 E8.02093
G1 X126.484 Y124.285 E8.03128
G1 X127.388 Y122.900 E8.04677
G1 X128.040 Y122.008 E8.05712
