; generated by Slic3r 1.1.0 on 2014-04-02 at 17:55:24

; perimeters extrusion width = 0.37mm
; infill extrusion width = 0.60mm
; solid infill extrusion width = 0.38mm
; top infill extrusion width = 0.30mm

G21 ; set units to millimeters
M107
G28 ; home all axes
M203 X192 Y208 Z3 ; Speed limits to minimize skipped steps when moving really fast courtesy of forum.lulzbot.com user 1013
G90 ; use absolute coordinates
G92 E0
M82 ; use absolute distances for extrusion
M204 S1000
G1 F1500.000 E-2.00000
G92 E0
G1 Z0.300 F12000.000
G1 X121.651 Y113.179 F12000.000
G1 E2.00000 F1500.000
G1 X122.714 Y112.056 E2.03309 F4485
G1 X123.824 Y110.978 E2.06620
G1 X124.922 Y109.994 E2.09773
G1 X125.570 Y109.451 E2.11583
G1 X126.728 Y108.537 E2.14738
G1 X127.409 Y108.036 E2.16548
G1 X128.683 Y107.158 E2.19858
G1 X129.992 Y106.334 E2.23167
G1 X131.335 Y105.566 E2.26477
G1 X132.709 Y104.855 E2.29786
G1 X134.044 Y104.230 E2.32941
G1 X134.822 Y103.897 E2.34751
G1 X136.263 Y103.333 E2.38061
G1 X137.656 Y102.852 E2.41214
G1 X139.208 Y102.389 E2.44680
G1 X140.708 Y102.010 E2.47990
G1 X142.222 Y101.694 E2.51300
G1 X143.748 Y101.443 E2.54608
G1 X145.284 Y101.255 E2.57918
G1 X146.826 Y101.131 E2.61228
G1 X148.299 Y101.073 E2.64382
G1 X149.919 Y101.079 E2.67847
G1 X151.464 Y101.150 E2.71157
G1 X152.933 Y101.276 E2.74311
G1 X153.773 Y101.377 E2.76121
G1 X155.231 Y101.596 E2.79277
G1 X156.063 Y101.749 E2.81085
G1 X157.575 Y102.077 E2.84396
G1 X159.072 Y102.467 E2.87705
G1 X160.551 Y102.920 E2.91014
G1 X161.942 Y103.408 E2.94168
G1 X162.731 Y103.715 E2.95979
G1 X164.155 Y104.320 E2.99289
G1 X165.551 Y104.984 E3.02598
G1 X166.920 Y105.706 E3.05908
G1 X168.256 Y106.485 E3.09217
G1 X169.499 Y107.277 E3.12372
G1 X170.197 Y107.756 E3.14182
G1 X171.445 Y108.670 E3.17492
G1 X172.599 Y109.589 E3.20647
G1 X173.242 Y110.137 E3.22455
G1 X174.388 Y111.177 E3.25767
G1 X175.489 Y112.264 E3.29075
G1 X176.543 Y113.395 E3.32385
G1 X177.549 Y114.570 E3.35694
G1 X178.463 Y115.728 E3.38849
G1 X178.964 Y116.409 E3.40659
G1 X179.842 Y117.683 E3.43969
G1 X180.666 Y118.992 E3.47278
G1 X181.401 Y120.272 E3.50434
G1 X182.145 Y121.709 E3.53897
G1 X182.799 Y123.111 E3.57207
G1 X183.367 Y124.472 E3.60362
G1 X183.667 Y125.263 E3.62172
G1 X184.170 Y126.725 E3.65481
G1 X184.611 Y128.208 E3.68790
G1 X184.990 Y129.708 E3.72101
G1 X185.306 Y131.222 E3.75410
G1 X185.557 Y132.748 E3.78719
G1 X185.745 Y134.284 E3.82028
G1 X185.869 Y135.826 E3.85339
G1 X185.927 Y137.299 E3.88492
G1 X185.921 Y138.919 E3.91958
G1 X185.850 Y140.464 E3.95268
G1 X185.715 Y142.005 E3.98577
G1 X185.515 Y143.539 E4.01886
G1 X185.251 Y145.063 E4.05196
G1 X184.923 Y146.575 E4.08506
G1 X184.553 Y148.002 E4.11660
G1 X184.080 Y149.551 E4.15125
G1 X183.566 Y151.010 E4.18434
G1 X183.020 Y152.379 E4.21589
G1 X182.680 Y153.154 E4.23399
G1 X182.016 Y154.551 E4.26708
G1 X181.294 Y155.920 E4.30019
G1 X180.515 Y157.256 E4.33328
G1 X179.682 Y158.559 E4.36637
G1 X178.837 Y159.768 E4.39792
G1 X178.330 Y160.445 E4.41602
G1 X177.411 Y161.599 E4.44757
G1 X176.863 Y162.242 E4.46566
G1 X175.823 Y163.388 E4.49877
G1 X174.736 Y164.489 E4.53186
G1 X173.605 Y165.543 E4.56495
G1 X172.430 Y166.549 E4.59805
G1 X171.272 Y167.463 E4.62959
G1 X170.591 Y167.964 E4.64770
G1 X169.317 Y168.842 E4.68079
G1 X168.008 Y169.666 E4.71388
G1 X166.728 Y170.401 E4.74545
G1 X165.291 Y171.145 E4.78008
G1 X163.889 Y171.799 E4.81318
G1 X162.528 Y172.367 E4.84473
G1 X161.737 Y172.667 E4.86282
G1 X160.275 Y173.170 E4.89591
G1 X158.792 Y173.611 E4.92901
G1 X157.292 Y173.990 E4.96211
G1 X155.778 Y174.306 E4.99521
G1 X154.252 Y174.557 E5.02830
G1 X152.716 Y174.745 E5.06139
G1 X151.174 Y174.869 E5.09449
G1 X149.701 Y174.927 E5.12603
G1 X148.927 Y174.934 E5.14259
G1 X148.081 Y174.921 E5.16068
G1 X146.536 Y174.850 E5.19379
G1 X144.995 Y174.715 E5.22688
G1 X143.461 Y174.515 E5.25997
G1 X141.937 Y174.251 E5.29307
G1 X140.425 Y173.923 E5.32617
G1 X138.998 Y173.553 E5.35771
G1 X138.186 Y173.314 E5.37581
G1 X136.785 Y172.855 E5.40735
G1 X135.990 Y172.566 E5.42545
G1 X134.621 Y172.020 E5.45700
G1 X133.846 Y171.680 E5.47510
G1 X132.449 Y171.016 E5.50819
G1 X131.080 Y170.294 E5.54130
G1 X129.744 Y169.515 E5.57439
G1 X128.441 Y168.682 E5.60748
G1 X127.232 Y167.837 E5.63903
G1 X126.555 Y167.330 E5.65713
G1 X125.401 Y166.411 E5.68868
G1 X124.758 Y165.863 E5.70677
G1 X123.612 Y164.823 E5.73988
G1 X122.511 Y163.736 E5.77297
G1 X121.457 Y162.605 E5.80606
G1 X120.451 Y161.430 E5.83916
G1 X119.537 Y160.272 E5.87070
G1 X119.036 Y159.591 E5.88881
G1 X118.158 Y158.317 E5.92190
G1 X117.334 Y157.008 E5.95499
G1 X116.599 Y155.728 E5.98656
G1 X115.855 Y154.291 E6.02119
G1 X115.201 Y152.889 E6.05429
G1 X114.633 Y151.528 E6.08584
G1 X114.333 Y150.737 E6.10393
G1 X113.830 Y149.275 E6.13702
G1 X113.389 Y147.792 E6.17012
G1 X113.010 Y146.292 E6.20322
G1 X112.694 Y144.778 E6.23632
G1 X112.443 Y143.252 E6.26941
G1 X112.255 Y141.716 E6.30250
G1 X112.131 Y140.174 E6.33560
G1 X112.073 Y138.701 E6.36714
G1 X112.066 Y137.927 E6.38370
G1 X112.079 Y137.081 E6.40179
G1 X112.150 Y135.536 E6.43490
G1 X112.285 Y133.995 E6.46799
G1 X112.485 Y132.461 E6.50108
G1 X112.749 Y130.937 E6.53418
G1 X113.077 Y129.425 E6.56728
G1 X113.467 Y127.928 E6.60038
G1 X113.920 Y126.449 E6.63347
G1 X114.408 Y125.058 E6.66500
G1 X114.715 Y124.269 E6.68311
G1 X115.320 Y122.845 E6.71621
G1 X115.951 Y121.512 E6.74776
G1 X116.706 Y120.080 E6.78240
G1 X117.485 Y118.744 E6.81550
G1 X118.318 Y117.441 E6.84859
G1 X119.163 Y116.232 E6.88014
G1 X119.670 Y115.555 E6.89824
G1 X120.636 Y114.346 E6.93134
G1 X121.617 Y113.219 E6.96331
G1 X121.992 Y113.500 F12000.000
G1 X123.041 Y112.390 E6.99597 F4485
G1 X124.137 Y111.325 E7.02867
G1 X125.224 Y110.352 E7.05988
G1 X125.861 Y109.817 E7.07767
G1 X127.007 Y108.913 E7.10891
G1 X127.676 Y108.420 E7.12670
G1 X128.934 Y107.553 E7.15937
G1 X130.226 Y106.739 E7.19204
G1 X131.552 Y105.980 E7.22473
G1 X132.908 Y105.278 E7.25740
G1 X134.230 Y104.659 E7.28863
G1 X134.994 Y104.332 E7.30642
G1 X136.416 Y103.775 E7.33910
G1 X137.796 Y103.298 E7.37032
G1 X139.324 Y102.842 E7.40445
G1 X140.805 Y102.468 E7.43713
G1 X142.300 Y102.156 E7.46981
G1 X143.807 Y101.907 E7.50248
G1 X145.323 Y101.721 E7.53515
G1 X146.846 Y101.599 E7.56783
G1 X148.304 Y101.541 E7.59906
G1 X149.899 Y101.546 E7.63318
G1 X151.425 Y101.616 E7.66587
G1 X152.879 Y101.741 E7.69709
G1 X153.704 Y101.840 E7.71487
G1 X155.149 Y102.056 E7.74612
G1 X155.966 Y102.206 E7.76389
G1 X157.459 Y102.530 E7.79658
G1 X158.937 Y102.915 E7.82925
G1 X160.397 Y103.362 E7.86192
G1 X161.774 Y103.845 E7.89315
G1 X162.549 Y104.146 E7.91094
G1 X163.955 Y104.743 E7.94362
G1 X165.335 Y105.398 E7.97629
G1 X166.686 Y106.111 E8.00897
G1 X168.006 Y106.880 E8.04165
G1 X169.236 Y107.664 E8.07288
G1 X169.922 Y108.134 E8.09066
G1 X171.155 Y109.037 E8.12335
G1 X172.297 Y109.946 E8.15458
G1 X172.929 Y110.485 E8.17235
G1 X174.061 Y111.511 E8.20504
G1 X175.148 Y112.584 E8.23771
G1 X176.189 Y113.701 E8.27039
G1 X177.183 Y114.861 E8.30306
G1 X178.087 Y116.007 E8.33429
G1 X178.580 Y116.676 E8.35209
G1 X179.447 Y117.934 E8.38476
G1 X180.261 Y119.226 E8.41743
G1 X180.988 Y120.493 E8.44868
G1 X181.722 Y121.908 E8.48279
G1 X182.367 Y123.292 E8.51547
G1 X182.930 Y124.639 E8.54670
G1 X183.225 Y125.416 E8.56449
G1 X183.722 Y126.860 E8.59716
G1 X184.158 Y128.324 E8.62983
G1 X184.532 Y129.805 E8.66252
G1 X184.844 Y131.300 E8.69520
G1 X185.093 Y132.807 E8.72787
G1 X185.279 Y134.323 E8.76054
G1 X185.401 Y135.846 E8.79322
G1 X185.459 Y137.304 E8.82444
G1 X185.454 Y138.899 E8.85857
G1 X185.384 Y140.425 E8.89126
G1 X185.251 Y141.946 E8.92393
G1 X185.054 Y143.461 E8.95660
G1 X184.794 Y144.966 E8.98928
G1 X184.470 Y146.459 E9.02196
G1 X184.104 Y147.872 E9.05319
G1 X183.638 Y149.397 E9.08731
G1 X183.131 Y150.837 E9.11999
G1 X182.590 Y152.193 E9.15121
G1 X182.257 Y152.955 E9.16901
G1 X181.602 Y154.335 E9.20168
G1 X180.889 Y155.686 E9.23436
G1 X180.120 Y157.006 E9.26704
G1 X179.297 Y158.292 E9.29971
G1 X178.462 Y159.489 E9.33094
G1 X177.963 Y160.155 E9.34873
G1 X177.054 Y161.297 E9.37997
G1 X176.515 Y161.929 E9.39774
G1 X175.489 Y163.061 E9.43043
G1 X174.416 Y164.148 E9.46310
G1 X173.299 Y165.189 E9.49577
G1 X172.139 Y166.183 E9.52845
G1 X170.993 Y167.087 E9.55968
G1 X170.324 Y167.580 E9.57747
G1 X169.066 Y168.447 E9.61015
G1 X167.774 Y169.261 E9.64282
G1 X166.507 Y169.988 E9.67407
G1 X165.092 Y170.722 E9.70818
G1 X163.708 Y171.367 E9.74086
G1 X162.361 Y171.930 E9.77209
G1 X161.584 Y172.225 E9.78987
G1 X160.140 Y172.722 E9.82254
G1 X158.676 Y173.158 E9.85522
G1 X157.195 Y173.532 E9.88791
G1 X155.700 Y173.844 E9.92058
G1 X154.193 Y174.093 E9.95325
G1 X152.677 Y174.279 E9.98592
G1 X151.154 Y174.401 E10.01861
G1 X149.696 Y174.459 E10.04983
G1 X148.932 Y174.466 E10.06618
G1 X148.101 Y174.454 E10.08396
G1 X146.575 Y174.384 E10.11665
G1 X145.054 Y174.251 E10.14932
G1 X143.539 Y174.054 E10.18199
G1 X142.034 Y173.794 E10.21467
G1 X140.541 Y173.470 E10.24735
G1 X139.128 Y173.104 E10.27858
G1 X138.331 Y172.869 E10.29637
G1 X136.944 Y172.415 E10.32759
G1 X136.163 Y172.131 E10.34538
G1 X134.807 Y171.590 E10.37661
G1 X134.045 Y171.257 E10.39440
G1 X132.665 Y170.602 E10.42707
G1 X131.314 Y169.889 E10.45975
G1 X129.994 Y169.120 E10.49243
G1 X128.708 Y168.297 E10.52510
G1 X127.511 Y167.462 E10.55633
G1 X126.845 Y166.963 E10.57412
G1 X125.703 Y166.054 E10.60536
G1 X125.071 Y165.515 E10.62313
G1 X123.939 Y164.489 E10.65582
G1 X122.852 Y163.416 E10.68849
G1 X121.811 Y162.299 E10.72117
G1 X120.817 Y161.139 E10.75384
G1 X119.913 Y159.993 E10.78507
G1 X119.420 Y159.324 E10.80286
G1 X118.553 Y158.066 E10.83554
G1 X117.739 Y156.774 E10.86821
G1 X117.012 Y155.507 E10.89946
G1 X116.278 Y154.092 E10.93357
G1 X115.633 Y152.708 E10.96625
G1 X115.070 Y151.361 E10.99748
G1 X114.775 Y150.584 E11.01526
G1 X114.278 Y149.140 E11.04794
G1 X113.842 Y147.676 E11.08061
G1 X113.468 Y146.195 E11.11330
G1 X113.156 Y144.700 E11.14597
G1 X112.907 Y143.193 E11.17864
G1 X112.721 Y141.677 E11.21132
G1 X112.599 Y140.154 E11.24400
G1 X112.541 Y138.696 E11.27522
G1 X112.534 Y137.932 E11.29157
G1 X112.546 Y137.101 E11.30935
G1 X112.616 Y135.575 E11.34204
G1 X112.749 Y134.054 E11.37471
G1 X112.946 Y132.539 E11.40738
G1 X113.206 Y131.034 E11.44006
G1 X113.530 Y129.541 E11.47274
G1 X113.915 Y128.063 E11.50542
G1 X114.362 Y126.603 E11.53809
G1 X114.845 Y125.226 E11.56931
G1 X115.146 Y124.451 E11.58711
G1 X115.743 Y123.045 E11.61979
G1 X116.368 Y121.725 E11.65103
G1 X117.111 Y120.314 E11.68514
G1 X117.880 Y118.994 E11.71782
G1 X118.703 Y117.708 E11.75049
G1 X119.538 Y116.511 E11.78172
G1 X120.037 Y115.845 E11.79951
G1 X120.990 Y114.652 E11.83219
G1 X121.958 Y113.539 E11.86374
G1 F1500.000 E9.86374
G92 E0
G1 X127.240 Y118.408 F12000.000
G1 E2.00000 F1500.000
G1 X128.080 Y117.514 E2.02624 F4485
G1 X128.956 Y116.655 E2.05248
G1 X129.870 Y115.832 E2.07880
G1 X130.333 Y115.441 E2.09175
G1 X131.300 Y114.675 E2.11815
G1 X131.786 Y114.314 E2.13111
G1 X132.797 Y113.612 E2.15743
G1 X133.832 Y112.955 E2.18367
G1 X134.894 Y112.341 E2.20991
G1 X135.981 Y111.773 E2.23615
G1 X137.094 Y111.249 E2.26247
G1 X137.650 Y111.009 E2.27543
G1 X138.794 Y110.556 E2.30174
G1 X139.955 Y110.151 E2.32806
G1 X141.122 Y109.799 E2.35414
G1 X142.314 Y109.493 E2.38046
G1 X143.513 Y109.238 E2.40670
G1 X144.723 Y109.034 E2.43294
G1 X145.939 Y108.880 E2.45918
G1 X147.161 Y108.777 E2.48541
G1 X148.391 Y108.726 E2.51173
G1 X149.609 Y108.726 E2.53781
G1 X150.839 Y108.777 E2.56413
G1 X152.064 Y108.880 E2.59045
G1 X152.666 Y108.950 E2.60341
G1 X153.887 Y109.130 E2.62981
G1 X154.483 Y109.237 E2.64277
G1 X155.686 Y109.493 E2.66909
G1 X156.874 Y109.798 E2.69532
G1 X158.048 Y110.153 E2.72156
G1 X159.210 Y110.557 E2.74788
G1 X159.775 Y110.774 E2.76084
G1 X160.909 Y111.251 E2.78716
G1 X162.019 Y111.773 E2.81340
G1 X163.106 Y112.341 E2.83964
G1 X164.168 Y112.955 E2.86588
G1 X165.207 Y113.614 E2.89219
G1 X165.708 Y113.954 E2.90515
G1 X166.703 Y114.677 E2.93147
G1 X167.667 Y115.441 E2.95779
G1 X168.130 Y115.832 E2.97075
G1 X169.044 Y116.655 E2.99707
G1 X169.920 Y117.514 E3.02331
G1 X170.760 Y118.408 E3.04955
G1 X171.561 Y119.336 E3.07578
G1 X172.325 Y120.300 E3.10210
G1 X172.686 Y120.786 E3.11506
G1 X173.388 Y121.797 E3.14138
G1 X174.045 Y122.832 E3.16762
G1 X174.661 Y123.897 E3.19394
G1 X175.225 Y124.978 E3.22002
G1 X175.749 Y126.091 E3.24634
G1 X176.226 Y127.225 E3.27266
G1 X176.443 Y127.790 E3.28561
G1 X176.847 Y128.952 E3.31193
G1 X177.202 Y130.126 E3.33817
G1 X177.507 Y131.314 E3.36441
G1 X177.762 Y132.513 E3.39065
G1 X177.966 Y133.723 E3.41689
G1 X178.120 Y134.939 E3.44313
G1 X178.223 Y136.161 E3.46936
G1 X178.274 Y137.391 E3.49568
G1 X178.274 Y138.609 E3.52176
G1 X178.223 Y139.839 E3.54808
G1 X178.120 Y141.061 E3.57432
G1 X177.966 Y142.277 E3.60056
G1 X177.762 Y143.487 E3.62680
G1 X177.507 Y144.686 E3.65303
G1 X177.201 Y145.878 E3.67935
G1 X176.849 Y147.045 E3.70543
G1 X176.444 Y148.206 E3.73175
G1 X175.991 Y149.350 E3.75807
G1 X175.751 Y149.906 E3.77103
G1 X175.227 Y151.019 E3.79735
G1 X174.659 Y152.106 E3.82358
G1 X174.045 Y153.168 E3.84982
G1 X173.388 Y154.203 E3.87606
G1 X172.686 Y155.214 E3.90238
G1 X172.325 Y155.700 E3.91534
G1 X171.559 Y156.667 E3.94174
G1 X171.168 Y157.130 E3.95470
G1 X170.345 Y158.044 E3.98102
G1 X169.486 Y158.920 E4.00726
G1 X168.592 Y159.760 E4.03349
G1 X167.664 Y160.561 E4.05973
G1 X166.700 Y161.325 E4.08605
G1 X166.214 Y161.686 E4.09901
G1 X165.203 Y162.388 E4.12533
G1 X164.168 Y163.045 E4.15157
G1 X163.103 Y163.661 E4.17789
G1 X162.022 Y164.225 E4.20397
G1 X160.909 Y164.749 E4.23028
G1 X159.775 Y165.226 E4.25660
G1 X159.210 Y165.443 E4.26956
G1 X158.048 Y165.847 E4.29588
G1 X156.874 Y166.202 E4.32212
G1 X155.686 Y166.507 E4.34836
G1 X154.487 Y166.762 E4.37460
G1 X153.277 Y166.966 E4.40083
G1 X152.061 Y167.120 E4.42707
G1 X150.839 Y167.223 E4.45331
G1 X149.609 Y167.274 E4.47963
G1 X149.000 Y167.281 E4.49267
G1 X148.391 Y167.274 E4.50571
G1 X147.161 Y167.223 E4.53203
G1 X145.939 Y167.120 E4.55827
G1 X144.723 Y166.966 E4.58451
G1 X143.513 Y166.762 E4.61074
G1 X142.314 Y166.507 E4.63698
G1 X141.122 Y166.201 E4.66330
G1 X140.541 Y166.032 E4.67626
G1 X139.367 Y165.651 E4.70266
G1 X138.797 Y165.445 E4.71562
G1 X137.650 Y164.991 E4.74202
G1 X137.094 Y164.751 E4.75498
G1 X135.981 Y164.227 E4.78130
G1 X134.894 Y163.659 E4.80753
G1 X133.832 Y163.045 E4.83377
G1 X132.797 Y162.388 E4.86001
G1 X131.786 Y161.686 E4.88633
G1 X131.300 Y161.325 E4.89929
G1 X130.333 Y160.559 E4.92569
G1 X129.870 Y160.168 E4.93865
G1 X128.956 Y159.345 E4.96497
G1 X128.080 Y158.486 E4.99121
G1 X127.240 Y157.592 E5.01744
G1 X126.439 Y156.664 E5.04368
G1 X125.675 Y155.700 E5.07000
G1 X125.314 Y155.214 E5.08296
G1 X124.612 Y154.203 E5.10928
G1 X123.955 Y153.168 E5.13552
G1 X123.339 Y152.103 E5.16184
G1 X122.775 Y151.022 E5.18792
G1 X122.251 Y149.909 E5.21423
G1 X121.774 Y148.775 E5.24055
G1 X121.557 Y148.210 E5.25351
G1 X121.153 Y147.048 E5.27983
G1 X120.798 Y145.874 E5.30607
G1 X120.493 Y144.686 E5.33231
G1 X120.238 Y143.487 E5.35855
G1 X120.034 Y142.277 E5.38478
G1 X119.880 Y141.061 E5.41102
G1 X119.777 Y139.839 E5.43726
G1 X119.726 Y138.609 E5.46358
G1 X119.726 Y137.391 E5.48966
G1 X119.777 Y136.161 E5.51598
G1 X119.880 Y134.939 E5.54222
G1 X120.034 Y133.723 E5.56845
G1 X120.238 Y132.513 E5.59469
G1 X120.493 Y131.314 E5.62093
G1 X120.798 Y130.126 E5.64717
G1 X121.153 Y128.952 E5.67341
G1 X121.557 Y127.790 E5.69973
G1 X121.774 Y127.225 E5.71269
G1 X122.251 Y126.091 E5.73900
G1 X122.775 Y124.978 E5.76532
G1 X123.339 Y123.897 E5.79140
G1 X123.955 Y122.832 E5.81772
G1 X124.612 Y121.797 E5.84396
G1 X125.314 Y120.786 E5.87028
G1 X125.675 Y120.300 E5.88324
G1 X126.439 Y119.336 E5.90956
G1 X127.206 Y118.447 E5.93467
G1 X126.893 Y118.095 F12000.000
G1 X127.746 Y117.186 E5.96133 F3510
G1 X128.636 Y116.314 E5.98799
G1 X129.563 Y115.480 E6.01467
G1 X130.037 Y115.079 E6.02795
G1 X131.015 Y114.304 E6.05466
G1 X131.513 Y113.934 E6.06793
G1 X132.538 Y113.222 E6.09462
G1 X133.590 Y112.554 E6.12128
G1 X134.669 Y111.931 E6.14794
G1 X135.773 Y111.354 E6.17459
G1 X136.901 Y110.823 E6.20128
G1 X137.471 Y110.577 E6.21455
G1 X138.631 Y110.117 E6.24124
G1 X139.809 Y109.707 E6.26792
G1 X140.999 Y109.348 E6.29453
