; generated by Slic3r 1.1.7 on 2014-10-04 at 20:41:39

; perimeters extrusion width = 0.35mm
; infill extrusion width = 0.39mm
; solid infill extrusion width = 0.39mm
; top infill extrusion width = 0.39mm

G21 ; set units to millimeters
M107
M104 S220 ; set temperature
G28 ; home all axes
G1 Z5 F5000 ; lift nozzle

M109 S220 ; wait for temperature to be reached
G90 ; use absolute coordinates
G92 E0
M82 ; use absolute distances for extrusion
G1 F1800.000 E-1.00000
G92 E0
G1 Z0.350 F7800.000
G1 X92.907 Y76.259 F7800.000
G1 E1.00000 F1800.000
G1 X93.164 Y75.969 E1.03521 F1080.000
G1 X94.526 Y74.600 E1.21083
G1 X95.114 Y74.140 E1.27869
G1 X96.218 Y73.367 E1.40125
G1 X97.279 Y72.767 E1.51210
G1 X97.931 Y72.459 E1.57764
G1 X99.126 Y71.950 E1.69576
G1 X100.402 Y71.536 E1.81773
G1 X101.200 Y71.345 E1.89234
G1 X102.528 Y71.088 E2.01529
G1 X104.072 Y70.950 E2.15626
G1 X104.832 Y70.950 E2.22540
G1 X187.710 Y71.038 E9.76147 F1080.000
G1 X189.462 Y71.087 E9.92085
G1 X192.900 Y71.508 E10.23577
G1 X194.674 Y71.968 E10.40243
G1 X196.329 Y72.589 E10.56312
G1 X197.413 Y73.009 E10.66889
G1 X198.101 Y73.315 E10.73732
G1 X199.319 Y74.006 E10.86469
G1 X201.958 Y75.876 E11.15876
G1 X203.085 Y76.890 E11.29657
G1 X205.197 Y79.286 E11.58701
G1 X206.019 Y80.435 E11.71548
G1 X207.605 Y83.261 E12.01017
G1 X208.145 Y84.488 E12.13205
G1 X209.097 Y87.351 E12.40641
G1 X209.429 Y88.663 E12.52947
G1 X209.867 Y91.485 E12.78920
G1 X209.923 Y92.016 E12.83768
G1 X209.986 Y92.957 E12.92348
G1 X209.958 Y96.246 E13.22255
G1 X209.845 Y97.272 E13.31636
G1 X209.741 Y97.991 E13.38249
G1 X209.246 Y100.827 E13.64421
G1 X208.421 Y103.505 E13.89904
G1 X207.838 Y105.029 E14.04739
G1 X206.559 Y107.545 E14.30403
G1 X205.654 Y108.989 E14.45900
G1 X203.860 Y111.287 E14.72408
G1 X203.713 Y111.450 E14.74404
G1 X202.613 Y112.563 E14.88635
G1 X200.446 Y114.348 E15.14163
G1 X199.837 Y114.791 E15.21007
G1 X198.764 Y115.437 E15.32398
G1 X173.265 Y127.917 E17.90541
G1 X172.577 Y128.223 E17.97384
G1 X171.136 Y128.691 E18.11165
G1 X169.648 Y128.967 E18.24927
G1 X168.472 Y129.050 E18.35642
G1 X167.720 Y129.050 E18.42486
G1 X166.423 Y128.933 E18.54327
G1 X104.972 Y117.756 E24.22262
G1 X103.903 Y117.524 E24.32209
G1 X102.753 Y117.241 E24.42979
G1 X101.322 Y116.763 E24.56694
G1 X100.375 Y116.367 E24.66035
G1 X99.217 Y115.831 E24.77633
G1 X97.812 Y115.033 E24.92321
G1 X96.915 Y114.419 E25.02215
G1 X95.868 Y113.632 E25.14120
G1 X94.508 Y112.390 E25.30868
G1 X94.004 Y111.831 E25.37712
G1 X93.118 Y110.613 E25.51409
G1 X91.873 Y108.461 E25.74013
G1 X91.302 Y107.213 E25.86491
G1 X90.552 Y105.000 E26.07740
G1 X90.237 Y103.518 E26.21515
G1 X90.150 Y102.687 E26.29114
G1 X90.003 Y100.647 E26.47716
G1 X90.342 Y82.642 E28.11461
G1 X90.421 Y81.894 E28.18305
G1 X90.736 Y80.412 E28.32078
G1 X91.218 Y79.036 E28.45336
G1 X91.681 Y78.090 E28.54908
G1 X92.057 Y77.439 E28.61751
G1 X92.876 Y76.301 E28.74497
G1 X93.375 Y76.673 F7800.000
G1 X93.628 Y76.387 E28.77971 F1080.000
G1 X94.916 Y75.088 E28.94608
G1 X95.481 Y74.645 E29.01130
G1 X96.543 Y73.901 E29.12920
G1 X97.548 Y73.331 E29.23423
G1 X98.185 Y73.030 E29.29836
G1 X99.337 Y72.538 E29.41219
G1 X100.550 Y72.143 E29.52821
G1 X101.330 Y71.956 E29.60116
G1 X102.607 Y71.708 E29.71942
G1 X104.072 Y71.575 E29.85319
G1 X104.831 Y71.575 E29.92227
G1 X187.708 Y71.663 E37.45817 F1080.000
G1 X189.392 Y71.708 E37.61142
G1 X192.770 Y72.120 E37.92081
G1 X194.455 Y72.553 E38.07900
G1 X196.109 Y73.174 E38.23969
G1 X197.159 Y73.580 E38.34205
G1 X197.847 Y73.886 E38.41048
G1 X198.960 Y74.517 E38.52686
G1 X201.591 Y76.381 E38.82003
G1 X202.620 Y77.308 E38.94596
G1 X204.726 Y79.697 E39.23560
G1 X205.478 Y80.747 E39.35299
G1 X207.059 Y83.565 E39.64676
G1 X207.553 Y84.686 E39.75813
G1 X208.502 Y87.544 E40.03203
G1 X208.812 Y88.761 E40.14620
G1 X209.246 Y91.551 E40.40294
G1 X209.361 Y92.960 E40.53152
G1 X209.337 Y96.181 E40.82437
G1 X209.226 Y97.182 E40.91599
G1 X209.122 Y97.902 E40.98213
G1 X208.648 Y100.644 E41.23512
G1 X207.826 Y103.312 E41.48899
G1 X207.280 Y104.748 E41.62872
G1 X206.018 Y107.233 E41.88209
G1 X205.158 Y108.608 E42.02960
G1 X203.396 Y110.869 E42.29025
G1 X203.249 Y111.032 E42.31021
G1 X202.212 Y112.083 E42.44442
G1 X200.079 Y113.843 E42.69591
G1 X198.489 Y114.876 E42.86828
G1 X173.011 Y127.346 E45.44764
G1 X172.323 Y127.652 E45.51608
G1 X171.006 Y128.080 E45.64200
G1 X169.583 Y128.345 E45.77367
G1 X168.472 Y128.425 E45.87489
G1 X167.720 Y128.425 E45.94332
G1 X166.534 Y128.318 E46.05153
G1 X105.102 Y117.144 E51.72919
G1 X104.041 Y116.915 E51.82795
G1 X102.939 Y116.644 E51.93109
G1 X101.562 Y116.186 E52.06305
G1 X100.629 Y115.796 E52.15503
G1 X99.512 Y115.280 E52.26691
G1 X98.164 Y114.517 E52.40778
G1 X97.282 Y113.913 E52.50493
G1 X96.273 Y113.156 E52.61963
G1 X94.972 Y111.972 E52.77959
G1 X94.468 Y111.413 E52.84802
G1 X93.658 Y110.300 E52.97318
G1 X92.414 Y108.149 E53.19916
G1 X91.893 Y107.008 E53.31318
G1 X91.146 Y104.807 E53.52453
G1 X90.858 Y103.453 E53.65041
G1 X90.772 Y102.629 E53.72575
G1 X90.628 Y100.658 E53.90549
G1 X90.963 Y82.707 E55.53798
G1 X91.042 Y81.959 E55.60642
G1 X91.330 Y80.605 E55.73228
G1 X91.791 Y79.286 E55.85933
G1 X92.222 Y78.403 E55.94868
G1 X92.598 Y77.751 E56.01711
G1 X93.344 Y76.715 E56.13317
G1 F1800.000 E55.13317
G92 E0
G1 X145.955 Y97.010 F7800.000
G1 E1.00000 F1800.000
G1 X144.049 Y96.390 E1.18226 F540.000
G1 X144.049 Y94.386 E1.36452
G1 X145.955 Y93.766 E1.54677
G1 X147.133 Y95.388 E1.72903
G1 X145.986 Y96.967 E1.90651
G1 X145.716 Y96.275 F7800.000
G1 X144.673 Y95.936 E2.00621 F378.000
G1 X144.673 Y94.840 E2.10590
G1 X145.716 Y94.501 E2.20559
G1 X146.361 Y95.388 E2.30528
G1 X145.747 Y96.232 E2.40020
G1 F1800.000 E1.40020
G92 E0
G1 X153.401 Y95.702 F7800.000
G1 E1.00000 F1800.000
G1 X153.355 Y95.080 E1.05674 F540.000
G1 X153.475 Y93.273 E1.22138
G1 X153.873 Y91.405 E1.39509
G1 X154.492 Y89.777 E1.55344
G1 X155.299 Y88.429 E1.69630
G1 X156.265 Y87.374 E1.82639
G1 X157.413 Y86.598 E1.95240
G1 X158.783 Y86.124 E2.08422
G1 X160.815 Y85.982 E2.26942
G1 X162.147 Y85.808 E2.39153
G1 X162.543 Y85.812 E2.42755
G1 X162.760 Y85.814 E2.44734 F540.000
G1 X163.299 Y85.912 E2.49708
G1 X163.618 Y86.043 E2.52843
G1 X163.813 Y86.182 E2.55023
G1 X163.980 Y86.368 E2.57299
G1 X164.130 Y86.624 E2.59990
G1 X164.334 Y87.152 E2.65143
G1 X164.509 Y87.871 E2.71866
G1 X164.611 Y88.572 E2.78307
G1 X164.658 Y89.309 E2.85027
G1 X164.675 Y90.448 E2.95387
G1 X164.638 Y91.607 E3.05927
G1 X164.573 Y92.769 E3.16508
G1 X164.399 Y94.961 E3.36500
G1 X164.464 Y95.582 E3.42186
G1 X164.638 Y96.542 E3.51053
G1 X164.715 Y97.125 E3.56398
G1 X164.763 Y97.846 E3.62967
G1 X164.767 Y98.854 E3.72134
G1 X164.728 Y99.452 E3.77584
G1 X164.636 Y100.065 E3.83225
G1 X164.467 Y100.748 E3.89620
G1 X164.310 Y101.174 E3.93747
G1 X164.097 Y101.594 E3.98032
G1 X163.804 Y102.014 E4.02687
G1 X163.575 Y102.254 E4.05702
G1 X163.331 Y102.439 E4.08487
G1 X162.920 Y102.655 E4.12710
G1 X162.361 Y102.844 E4.18073
G1 X161.872 Y102.934 E4.22595
G1 X158.796 Y103.085 E4.50603
G1 X157.489 Y102.804 E4.62759
G1 X156.293 Y102.174 E4.75046
G1 X155.311 Y101.262 E4.87235
G1 X154.510 Y100.068 E5.00312
G1 X153.889 Y98.578 E5.14987
G1 X153.484 Y96.821 E5.31381
G1 X153.405 Y95.754 E5.41105
G1 F1800.000 E4.41105
G92 E0
G1 X163.313 Y86.593 F7800.000
G1 E1.00000 F1800.000
G1 X163.473 Y86.739 E1.01967 F378.000
G1 X163.565 Y86.896 E1.03620
G1 X163.736 Y87.340 E1.07945
G1 X163.895 Y87.990 E1.14030
G1 X163.989 Y88.637 E1.19976
G1 X164.034 Y89.334 E1.26328
G1 X164.050 Y90.443 E1.36413
G1 X164.014 Y91.579 E1.46751
G1 X163.949 Y92.727 E1.57205
G1 X163.772 Y94.968 E1.77643
G1 X163.845 Y95.671 E1.84071
G1 X164.021 Y96.638 E1.93012
G1 X164.093 Y97.186 E1.98036
G1 X164.138 Y97.868 E2.04245
G1 X164.142 Y98.835 E2.13038
G1 X164.106 Y99.385 E2.18054
G1 X164.022 Y99.944 E2.23190
G1 X163.869 Y100.565 E2.29007
G1 X163.737 Y100.924 E2.32487
G1 X163.560 Y101.272 E2.36038
G1 X163.318 Y101.617 E2.39866
G1 X163.157 Y101.786 E2.41993
G1 X162.994 Y101.910 E2.43852
G1 X162.673 Y102.079 E2.47156
G1 X162.204 Y102.238 E2.51657
G1 X161.800 Y102.312 E2.55390
G1 X158.847 Y102.457 E2.82275
G1 X157.704 Y102.211 E2.92904
G1 X156.658 Y101.660 E3.03659
G1 X155.789 Y100.853 E3.14434
G1 X155.063 Y99.770 E3.26291
G1 X154.486 Y98.386 E3.39928
G1 X154.104 Y96.727 E3.55408
G1 X153.981 Y95.077 E3.70451
G1 X154.096 Y93.359 E3.86107
G1 X154.474 Y91.582 E4.02633
G1 X155.056 Y90.051 E4.17529
G1 X155.803 Y88.804 E4.30738
G1 X156.676 Y87.850 E4.42500
G1 X157.695 Y87.162 E4.53683
G1 X158.910 Y86.741 E4.65368
G1 X160.877 Y86.604 E4.83305
G1 X162.184 Y86.433 E4.95288
G1 X162.701 Y86.439 E4.99988
G1 X163.122 Y86.515 E5.03882
G1 X163.265 Y86.573 E5.05280
G1 X181.665 Y91.690 F7800.000
G1 X181.979 Y90.559 E5.15955 F540.000
G1 X182.597 Y89.166 E5.29809
G1 X183.335 Y88.046 E5.42007
G1 X184.174 Y87.185 E5.52936
G1 X185.135 Y86.554 E5.63389
G1 X186.256 Y86.151 E5.74221
G1 X187.576 Y86.015 E5.86285
G1 X188.963 Y86.211 E5.99027
G1 X189.214 Y86.247 E6.01330 F540.000
G1 X190.418 Y86.768 E6.13262
G1 X191.500 Y87.625 E6.25812
G1 X192.409 Y88.789 E6.39239
G1 X193.130 Y90.250 E6.54059
G1 X193.604 Y91.885 E6.69535
G1 X193.826 Y93.596 E6.85225
G1 X193.798 Y95.562 E7.03099
G1 X193.511 Y97.401 E7.20027
G1 X193.029 Y98.943 E7.34720
G1 X192.273 Y100.430 E7.49888
G1 X191.358 Y101.602 E7.63406
G1 X190.309 Y102.446 E7.75647
G1 X189.231 Y102.919 E7.86355
G1 X187.781 Y103.118 E7.99659
G1 X186.040 Y102.899 E8.15614
G1 X184.929 Y102.457 E8.26489
G1 X183.973 Y101.786 E8.37110
G1 X183.155 Y100.894 E8.48107
G1 X182.455 Y99.758 E8.60247
G1 X181.884 Y98.352 E8.74047
G1 X181.479 Y96.727 E8.89273
G1 X181.333 Y95.385 E9.01549
G1 X181.359 Y93.540 E9.18327
G1 X181.573 Y92.021 E9.32272
G1 X181.651 Y91.740 E9.34923
G1 X182.267 Y91.857 F7800.000
G1 X182.569 Y90.770 E9.45180 F378.000
G1 X183.147 Y89.467 E9.58147
G1 X183.824 Y88.439 E9.69334
G1 X184.574 Y87.670 E9.79102
G1 X185.416 Y87.117 E9.88261
G1 X186.396 Y86.765 E9.97728
G1 X187.205 Y86.682 E10.05130
G1 X187.564 Y86.645 E10.08407 F378.000
G1 X189.043 Y86.854 E10.21990
G1 X190.094 Y87.309 E10.32411
G1 X191.054 Y88.068 E10.43535
G1 X191.877 Y89.123 E10.55699
G1 X192.546 Y90.477 E10.69433
G1 X192.990 Y92.013 E10.83971
G1 X193.201 Y93.632 E10.98818
G1 X193.174 Y95.509 E11.15884
G1 X192.901 Y97.259 E11.31992
G1 X192.449 Y98.707 E11.45786
G1 X191.744 Y100.093 E11.59927
G1 X190.910 Y101.161 E11.72239
G1 X189.982 Y101.907 E11.83067
G1 X189.060 Y102.312 E11.92229
G1 X187.778 Y102.487 E12.03994
G1 X186.197 Y102.288 E12.18481
G1 X185.228 Y101.904 E12.27963
G1 X184.388 Y101.313 E12.37299
G1 X183.656 Y100.516 E12.47139
G1 X183.015 Y99.474 E12.58263
G1 X182.479 Y98.158 E12.71186
G1 X182.096 Y96.617 E12.85622
G1 X181.958 Y95.355 E12.97164
G1 X181.983 Y93.588 E13.13234
G1 X182.186 Y92.149 E13.26450
G1 X182.253 Y91.907 E13.28728
G1 X174.031 Y89.389 F7800.000
G1 X174.993 Y86.893 E13.53050 F540.000
G1 X176.407 Y84.514 E13.78214
G1 X178.238 Y82.486 E14.03064
G1 X180.466 Y80.893 E14.27960
G1 X181.050 Y80.633 E14.33772
G1 X183.067 Y79.812 E14.53579
G1 X183.693 Y79.679 E14.59397
G1 X186.177 Y79.290 E14.82257
G1 X186.703 Y79.263 E14.87053
G1 X188.598 Y79.267 E15.04278
G1 X191.236 Y79.563 E15.28420
G1 X191.854 Y79.695 E15.34168
G1 X194.095 Y80.535 E15.55924
G1 X194.669 Y80.790 E15.61641
G1 X197.041 Y82.469 E15.88064
G1 X198.944 Y84.630 E16.14246
G1 X200.373 Y87.178 E16.40811
G1 X201.318 Y90.028 E16.68112
G1 X201.690 Y92.371 E16.89684
G1 X201.761 Y93.045 E16.95851
G1 X201.773 Y95.439 E17.17617
G1 X201.702 Y96.116 E17.23804
G1 X201.359 Y98.491 E17.45624
G1 X200.457 Y101.401 E17.73325
G1 X199.422 Y103.457 E17.94256
G1 X199.092 Y104.029 E18.00260
G1 X197.723 Y105.812 E18.20704
G1 X197.291 Y106.291 E18.26569
G1 X195.585 Y107.714 E18.46763
G1 X195.073 Y108.086 E18.52525
G1 X193.037 Y109.074 E18.73100
G1 X192.458 Y109.332 E18.78867
G1 X189.461 Y109.933 E19.06660
G1 X188.829 Y109.933 E19.12407
G1 X186.103 Y109.793 E19.37221
G1 X183.748 Y109.429 E19.58897
G1 X183.122 Y109.296 E19.64712
G1 X181.105 Y108.478 E19.84503
G1 X180.521 Y108.218 E19.90316
G1 X178.293 Y106.630 E20.15196
G1 X176.458 Y104.604 E20.40053
G1 X175.033 Y102.225 E20.65270
G1 X173.962 Y99.481 E20.92056
G1 X172.302 Y99.780 E21.07394
G1 X172.265 Y102.715 E21.34086
G1 X172.265 Y104.276 E21.48276
G1 X172.330 Y107.224 E21.75096
G1 X172.624 Y109.662 E21.97420
G1 X172.733 Y111.633 E22.15371
G1 X172.698 Y113.340 E22.30898
G1 X172.473 Y115.518 E22.50806
G1 X172.234 Y116.670 E22.61505
G1 X171.718 Y118.197 E22.76160
G1 X171.051 Y119.352 E22.88284
G1 X170.655 Y119.792 E22.93668
G1 X170.316 Y120.089 E22.97766
G1 X169.826 Y120.445 E23.03276
G1 X169.326 Y120.668 E23.08256
G1 X168.740 Y120.792 E23.13702
G1 X168.421 Y120.825 E23.16613
G1 X167.822 Y120.825 E23.22061
G1 X167.286 Y120.712 E23.27041
G1 X166.781 Y120.487 E23.32070
G1 X165.943 Y119.883 E23.41463
G1 X165.577 Y119.476 E23.46443
G1 X164.943 Y118.378 E23.57971
G1 X164.477 Y116.868 E23.72335
G1 X164.290 Y115.614 E23.83870
G1 X164.216 Y114.912 E23.90285
G1 X164.131 Y113.251 E24.05408
G1 X164.182 Y111.205 E24.24018
G1 X164.430 Y108.269 E24.50810
G1 X162.005 Y109.157 E24.74292
G1 X161.081 Y109.451 E24.83105
G1 X159.471 Y109.813 E24.98109
G1 X158.625 Y109.909 E25.05856
G1 X157.954 Y109.909 E25.11959
G1 X157.156 Y109.867 E25.19225
G1 X156.532 Y109.734 E25.25025
G1 X155.722 Y109.494 E25.32708
G1 X153.543 Y108.903 E25.53233
G1 X152.962 Y108.644 E25.59019
G1 X151.148 Y107.645 E25.77852
G1 X150.631 Y107.270 E25.83657
G1 X149.139 Y105.915 E26.01987
G1 X148.705 Y105.432 E26.07888
G1 X147.528 Y103.787 E26.26277
G1 X147.197 Y103.214 E26.32295
G1 X146.618 Y101.968 E26.44793
G1 X145.120 Y102.172 E26.58546
G1 X144.950 Y103.196 E26.67979
G1 X144.380 Y105.006 E26.85237
G1 X143.860 Y105.984 E26.95306
G1 X143.542 Y106.533 E27.01080
G1 X142.405 Y107.803 E27.16579
G1 X141.904 Y108.167 E27.22209
G1 X140.986 Y108.748 E27.32086
G1 X140.458 Y108.984 E27.37351
G1 X139.922 Y109.097 E27.42331
G1 X139.374 Y109.097 E27.47310
G1 X138.838 Y108.984 E27.52290
G1 X138.338 Y108.761 E27.57270
G1 X137.895 Y108.439 E27.62250
G1 X137.529 Y108.032 E27.67231
G1 X137.255 Y107.558 E27.72210
G1 X137.078 Y107.012 E27.77424
G1 X136.878 Y105.749 E27.89052
G1 X136.804 Y105.045 E27.95488
G1 X136.711 Y103.628 E28.08401
G1 X136.711 Y102.134 E28.21990
G1 X136.781 Y100.553 E28.36377
G1 X137.313 Y93.895 E28.97109
G1 X137.391 Y92.244 E29.12139
G1 X137.395 Y90.635 E29.26773
G1 X137.323 Y89.480 E29.37289
G1 X137.153 Y88.366 E29.47539
G1 X136.919 Y87.534 E29.55403
G1 X136.592 Y86.834 E29.62426
G1 X136.230 Y86.356 E29.67872
G1 X135.976 Y86.147 E29.70867
G1 X135.443 Y85.990 E29.75916
G1 X134.640 Y85.857 E29.83317
G1 X133.870 Y85.825 E29.90325
G1 X132.884 Y85.905 E29.99325
G1 X132.351 Y86.013 E30.04266
G1 X131.369 Y86.339 E30.13675
G1 X130.845 Y86.584 E30.18935
G1 X130.106 Y87.047 E30.26865
G1 X129.500 Y87.539 E30.33967
G1 X129.096 Y87.968 E30.39323
G1 X128.576 Y88.684 E30.47370
G1 X128.269 Y89.262 E30.53318
G1 X128.034 Y89.903 E30.59529
G1 X127.853 Y90.761 E30.67498
G1 X127.803 Y91.537 E30.74570
G1 X127.865 Y92.373 E30.82197
G1 X128.067 Y93.512 E30.92716
G1 X128.141 Y94.215 E30.99139
G1 X128.258 Y95.641 E31.12150
G1 X128.273 Y97.128 E31.25677
G1 X128.196 Y98.650 E31.39534
G1 X127.966 Y100.893 E31.60034
G1 X127.753 Y102.310 E31.73062
G1 X127.493 Y103.578 E31.84836
G1 X127.199 Y104.658 E31.95009
G1 X126.979 Y105.333 E32.01468
G1 X126.685 Y106.133 E32.09212
G1 X126.067 Y107.212 E32.20519
G1 X125.699 Y107.621 E32.25524
G1 X124.926 Y108.185 E32.34227
G1 X124.426 Y108.408 E32.39207
G1 X123.890 Y108.521 E32.44187
G1 X123.342 Y108.521 E32.49167
G1 X122.806 Y108.408 E32.54147
G1 X122.016 Y108.041 E32.62071
G1 X121.551 Y107.703 E32.67297
G1 X121.185 Y107.296 E32.72278
G1 X120.884 Y106.776 E32.77734
G1 X120.650 Y106.253 E32.82943
G1 X120.451 Y105.639 E32.88817
G1 X120.239 Y104.611 E32.98360
G1 X120.001 Y102.253 E33.19908
G1 X119.913 Y99.947 E33.40892
G1 X119.800 Y98.647 E33.52761
G1 X119.714 Y97.286 E33.65157
G1 X119.659 Y95.864 E33.78100
G1 X119.655 Y94.405 E33.91369
G1 X119.765 Y91.426 E34.18471
G1 X117.503 Y93.938 E34.49208
G1 X116.480 Y94.732 E34.60980
G1 X115.926 Y95.134 E34.67207
G1 X114.724 Y95.823 E34.79801
