; generated by Slic3r 1.0.0RC2 on 2014-01-31 at 18:45:08

; layer_height = 0.25
; perimeters = 2
; top_solid_layers = 2
; bottom_solid_layers = 3
; fill_density = 0.4
; perimeter_speed = 30
; infill_speed = 60
; travel_speed = 130
; nozzle_diameter = 0.35
; filament_diameter = 1.75
; extrusion_multiplier = 1
; perimeters extrusion width = 0.35mm
; infill extrusion width = 0.39mm
; solid infill extrusion width = 0.39mm
; top infill extrusion width = 0.39mm
; first layer extrusion width = 0.70mm

G21 ; set units to millimeters
M107
M104 S220 ; set temperature
G28 ; home all axes
G1 Z5 F5000 ; lift nozzle

M109 S220 ; wait for temperature to be reached
G90 ; use absolute coordinates
G92 E0
M82 ; use absolute distances for extrusion
G1 F1800.000 E-1.00000
G92 E0
G1 Z0.350 F7800.000
G1 X121.134 Y31.076 F7800.000
G1 E1.00000 F1800.000
G1 X121.564 Y29.796 E1.12278 F540.000
G1 X121.664 Y29.576 E1.14476
G1 X122.624 Y27.716 E1.33508
G1 X123.074 Y26.976 E1.41384
G1 X123.614 Y26.306 E1.49208
G1 X123.834 Y26.066 E1.52169
G1 X124.534 Y25.406 E1.60917
G1 X124.854 Y25.146 E1.64666
G1 X125.274 Y24.836 E1.69413
G1 X126.694 Y23.856 E1.85101
G1 X127.344 Y23.436 E1.92138
G1 X128.044 Y23.056 E1.99381
G1 X128.534 Y22.826 E2.04303
G1 X129.184 Y22.566 E2.10668
G1 X130.264 Y22.216 E2.20991
G1 X130.854 Y22.066 E2.26527
G1 X131.674 Y21.906 E2.34124
G1 X133.714 Y21.656 E2.52812
G1 X134.834 Y21.586 E2.63016
G1 X217.494 Y21.666 E10.14640
G1 X218.704 Y21.676 E10.25643
G1 X219.394 Y21.716 E10.31928
G1 X222.134 Y22.026 E10.57002
G1 X222.944 Y22.166 E10.64476
G1 X223.714 Y22.406 E10.71810
G1 X227.664 Y23.886 E11.10166
G1 X228.444 Y24.226 E11.17903
G1 X229.164 Y24.666 E11.25575
G1 X231.094 Y26.026 E11.47044
G1 X231.704 Y26.516 E11.54159
G1 X232.254 Y27.076 E11.61296
G1 X234.934 Y30.126 E11.98215
G1 X235.364 Y30.666 E12.04492
G1 X235.734 Y31.256 E12.10824
G1 X236.894 Y33.326 E12.32400
G1 X237.174 Y33.896 E12.38175
G1 X237.404 Y34.486 E12.43933
G1 X238.164 Y36.786 E12.65959
G1 X238.304 Y37.256 E12.70418
G1 X238.724 Y38.936 E12.86165
G1 X238.844 Y39.526 E12.91639
G1 X239.224 Y41.966 E13.14094
G1 X239.294 Y42.936 E13.22937
G1 X239.314 Y45.436 E13.45670
G1 X239.254 Y46.446 E13.54870
G1 X238.894 Y48.906 E13.77477
G1 X238.774 Y49.516 E13.83130
G1 X238.364 Y51.196 E13.98854
G1 X238.254 Y51.566 E14.02364
G1 X237.534 Y53.916 E14.24713
G1 X237.124 Y54.946 E14.34794
G1 X236.044 Y57.096 E14.56671
G1 X235.734 Y57.646 E14.62412
G1 X235.374 Y58.166 E14.68163
G1 X233.944 Y60.026 E14.89497
G1 X233.644 Y60.396 E14.93828
G1 X232.494 Y61.686 E15.09542
G1 X231.794 Y62.356 E15.18353
G1 X230.014 Y63.846 E15.39461
G1 X229.374 Y64.326 E15.46735
G1 X228.674 Y64.716 E15.54021
G1 X203.414 Y77.086 E18.09772
G1 X202.854 Y77.336 E18.15348
G1 X201.244 Y77.946 E18.31004
G1 X200.394 Y78.196 E18.39060
G1 X199.524 Y78.346 E18.47088
G1 X199.104 Y78.386 E18.50924
G1 X198.384 Y78.406 E18.57473
G1 X197.664 Y78.366 E18.64030
G1 X195.954 Y78.156 E18.79696
G1 X134.344 Y66.966 E24.49079
G1 X133.214 Y66.716 E24.59602
G1 X132.744 Y66.586 E24.64036
G1 X131.934 Y66.336 E24.71744
G1 X131.304 Y66.106 E24.77843
G1 X129.984 Y65.526 E24.90953
G1 X129.234 Y65.126 E24.98682
G1 X128.604 Y64.736 E25.05419
G1 X126.474 Y63.276 E25.28901
G1 X125.934 Y62.866 E25.35066
G1 X125.264 Y62.296 E25.43064
G1 X124.474 Y61.496 E25.53288
G1 X123.834 Y60.586 E25.63404
G1 X122.814 Y58.826 E25.81901
G1 X122.014 Y57.296 E25.97600
G1 X121.624 Y56.386 E26.06603
G1 X121.154 Y55.026 E26.19687
G1 X120.934 Y54.246 E26.27056
G1 X120.814 Y53.456 E26.34322
G1 X120.704 Y52.216 E26.45641
G1 X120.684 Y51.626 E26.51009
G1 X120.684 Y49.796 E26.67649
G1 X120.974 Y32.426 E28.25616
G1 X121.123 Y31.169 E28.37125
G1 F1800.000 E27.37125
G92 E0
G1 X173.371 Y43.072 F7800.000
G1 E1.00000 F1800.000
G1 X176.141 Y42.172 E1.26482 F540.000
G1 X177.853 Y44.528 E1.52965
G1 X176.141 Y46.884 E1.79447
G1 X173.371 Y45.984 E2.05929
G1 X173.371 Y43.166 E2.31559
G1 X173.996 Y43.526 F7800.000
G1 X175.903 Y42.906 E2.49785 F540.000
G1 X177.081 Y44.528 E2.68011
G1 X175.903 Y46.150 E2.86237
G1 X173.996 Y45.530 E3.04462
G1 X173.996 Y43.620 E3.21836
G1 X174.621 Y43.980 F7800.000
G1 X175.664 Y43.641 E3.31805 F540.000
G1 X176.308 Y44.528 E3.41774
G1 X175.664 Y45.415 E3.51743
G1 X174.621 Y45.076 E3.61713
G1 X174.621 Y44.074 E3.70830
G1 X174.491 Y43.369 F7800.000
G1 F1800.000 E2.70830
G92 E0
G1 X182.809 Y43.092 F7800.000
G1 E1.00000 F1800.000
G1 X182.839 Y42.635 E1.04160 F540.000
G1 X183.064 Y41.580 E1.13967
G1 X183.798 Y39.648 E1.32759
G1 X184.962 Y37.704 E1.53364
G1 X185.512 Y37.103 E1.60775
G1 X187.369 Y35.849 E1.81145
G1 X188.307 Y35.525 E1.90168
G1 X190.758 Y35.353 E2.12513
G1 X192.170 Y35.169 E2.25459
G1 X193.081 Y35.178 E2.33747
G1 X194.017 Y35.562 E2.42941
G1 X195.446 Y37.147 E2.62347
G1 X195.025 Y37.569 E2.67768
G1 X195.097 Y37.865 E2.70539
G1 X195.261 Y38.995 E2.80920
G1 X195.335 Y40.140 E2.91356
G1 X195.249 Y41.949 E3.07824
G1 X195.072 Y44.176 E3.28135
G1 X195.072 Y45.690 E3.41905
G1 X195.229 Y46.558 E3.49931
G1 X195.369 Y47.620 E3.59666
G1 X195.420 Y48.385 E3.66638
G1 X195.376 Y49.053 E3.72730
G1 X195.223 Y50.074 E3.82114
G1 X194.976 Y51.072 E3.91461
G1 X194.728 Y51.748 E3.98007
G1 X194.375 Y52.252 E4.03606
G1 X193.721 Y52.939 E4.12231
G1 X193.248 Y53.189 E4.17096
G1 X192.166 Y53.554 E4.27476
G1 X191.911 Y53.601 E4.29841
G1 X188.882 Y53.750 E4.57410
G1 X187.126 Y53.372 E4.73749
G1 X185.816 Y52.682 E4.87216
G1 X184.811 Y51.750 E4.99675
G1 X183.903 Y50.396 E5.14500
G1 X183.048 Y48.345 E5.34705
G1 X182.857 Y47.516 E5.42436
G1 X182.676 Y45.082 E5.64629
G1 X182.802 Y43.185 E5.81919
G1 X183.432 Y43.133 F7800.000
G1 X183.460 Y42.721 E5.85671 F540.000
G1 X183.665 Y41.757 E5.94633
G1 X184.363 Y39.922 E6.12486
G1 X185.466 Y38.079 E6.32015
G1 X185.923 Y37.579 E6.38178
G1 X187.651 Y36.413 E6.57130
G1 X188.433 Y36.142 E6.64655
G1 X190.820 Y35.975 E6.86419
G1 X192.207 Y35.794 E6.99136
G1 X192.955 Y35.802 E7.05935
G1 X193.648 Y36.086 E7.12746
G1 X194.585 Y37.125 E7.25463
G1 X194.334 Y37.375 E7.28681
G1 X194.482 Y37.984 E7.34377
G1 X194.639 Y39.060 E7.44263
G1 X194.709 Y40.150 E7.54198
G1 X194.625 Y41.907 E7.70195
G1 X194.447 Y44.150 E7.90653
G1 X194.447 Y45.746 E8.05164
G1 X194.612 Y46.655 E8.13564
G1 X194.747 Y47.682 E8.22979
G1 X194.794 Y48.385 E8.29392
G1 X194.754 Y48.987 E8.34872
G1 X194.610 Y49.952 E8.43751
G1 X194.378 Y50.889 E8.52521
G1 X194.169 Y51.456 E8.58019
G1 X193.890 Y51.856 E8.62452
G1 X193.339 Y52.434 E8.69716
G1 X193.001 Y52.613 E8.73195
G1 X192.009 Y52.948 E8.82716
G1 X191.839 Y52.979 E8.84291
G1 X188.934 Y53.122 E9.10737
G1 X187.341 Y52.779 E9.25549
G1 X186.180 Y52.168 E9.37483
G1 X185.290 Y51.341 E9.48528
G1 X184.456 Y50.099 E9.62133
G1 X183.645 Y48.153 E9.81300
G1 X183.477 Y47.422 E9.88118
G1 X183.302 Y45.080 E10.09477
G1 X183.426 Y43.227 E10.26366
G1 X184.056 Y43.175 F7800.000
G1 X184.080 Y42.808 E10.29711 F378.000
G1 X184.266 Y41.934 E10.37828
G1 X184.927 Y40.196 E10.54743
G1 X185.969 Y38.455 E10.73195
G1 X186.334 Y38.056 E10.78110
G1 X187.933 Y36.977 E10.95645
G1 X188.559 Y36.760 E11.01672
G1 X190.883 Y36.597 E11.22854
G1 X192.245 Y36.420 E11.35343
G1 X192.828 Y36.426 E11.40652
G1 X193.279 Y36.611 E11.45080
G1 X193.723 Y37.103 E11.51108
G1 X193.644 Y37.182 E11.52123
G1 X193.868 Y38.103 E11.60744
G1 X194.017 Y39.125 E11.70136
G1 X194.084 Y40.160 E11.79570
G1 X194.002 Y41.866 E11.95095
G1 X193.822 Y44.125 E12.15700
G1 X193.822 Y45.802 E12.30953
G1 X193.994 Y46.751 E12.39726
G1 X194.125 Y47.743 E12.48820
G1 X194.167 Y48.386 E12.54676
G1 X194.133 Y48.920 E12.59544
G1 X193.996 Y49.831 E12.67918
G1 X193.779 Y50.705 E12.76110
G1 X193.611 Y51.164 E12.80559
G1 X193.405 Y51.459 E12.83827
G1 X192.957 Y51.929 E12.89730
G1 X192.754 Y52.037 E12.91824
G1 X191.851 Y52.342 E13.00484
G1 X188.985 Y52.494 E13.26585
G1 X187.557 Y52.187 E13.39871
G1 X186.545 Y51.653 E13.50273
G1 X185.768 Y50.933 E13.59904
G1 X185.010 Y49.801 E13.72290
G1 X184.242 Y47.961 E13.90417
G1 X184.097 Y47.329 E13.96322
G1 X183.929 Y45.077 E14.16849
G1 X184.049 Y43.268 E14.33336
G1 X183.750 Y42.970 F7800.000
G1 F1800.000 E13.33336
G92 E0
G1 X210.686 Y43.281 F7800.000
G1 E1.00000 F1800.000
G1 X210.932 Y41.526 E1.16110 F540.000
G1 X211.145 Y40.760 E1.23343
G1 X212.003 Y38.827 E1.42566
G1 X212.917 Y37.440 E1.57673
G1 X213.473 Y36.869 E1.64919
G1 X215.136 Y35.777 E1.83017
G1 X215.700 Y35.574 E1.88461
G1 X217.889 Y35.349 E2.08468
G1 X218.989 Y35.504 E2.18573
G1 X220.900 Y36.332 E2.37512
G1 X221.784 Y37.032 E2.47760
G1 X223.125 Y38.750 E2.67584
G1 X223.518 Y39.545 E2.75639
G1 X224.191 Y41.870 E2.97655
G1 X224.483 Y44.122 E3.18299
G1 X224.470 Y45.022 E3.26486
G1 X224.095 Y47.430 E3.48647
G1 X223.375 Y49.736 E3.70609
G1 X223.026 Y50.423 E3.77619
G1 X221.648 Y52.187 E3.97977
G1 X220.782 Y52.884 E4.08078
G1 X219.001 Y53.665 E4.25760
G1 X218.080 Y53.791 E4.34213
G1 X215.492 Y53.465 E4.57932
G1 X214.931 Y53.243 E4.63422
G1 X213.179 Y52.010 E4.82901
G1 X212.814 Y51.612 E4.87812
G1 X211.791 Y49.953 E5.05536
G1 X210.994 Y47.992 E5.24784
G1 X210.886 Y47.556 E5.28868
G1 X210.655 Y45.440 E5.48224
G1 X210.684 Y43.374 E5.67007
G1 X211.310 Y43.329 F7800.000
G1 X211.546 Y41.654 E5.82387 F540.000
G1 X211.735 Y40.971 E5.88830
G1 X212.553 Y39.128 E6.07165
G1 X213.406 Y37.833 E6.21262
G1 X213.873 Y37.354 E6.27346
G1 X215.417 Y36.340 E6.44150
G1 X215.840 Y36.188 E6.48229
G1 X217.877 Y35.978 E6.66850
G1 X218.818 Y36.111 E6.75494
G1 X220.577 Y36.873 E6.92922
G1 X221.338 Y37.475 E7.01745
G1 X222.593 Y39.084 E7.20304
G1 X222.933 Y39.771 E7.27274
G1 X223.577 Y41.998 E7.48352
G1 X223.858 Y44.158 E7.68153
G1 X223.846 Y44.969 E7.75532
G1 X223.484 Y47.288 E7.96873
G1 X222.794 Y49.499 E8.17936
G1 X222.496 Y50.086 E8.23919
G1 X221.200 Y51.746 E8.43070
G1 X220.455 Y52.345 E8.51760
G1 X218.830 Y53.057 E8.67895
G1 X218.077 Y53.161 E8.74809
G1 X215.649 Y52.855 E8.97060
G1 X215.230 Y52.689 E9.01157
G1 X213.594 Y51.538 E9.19350
G1 X213.314 Y51.234 E9.23105
G1 X212.351 Y49.669 E9.39813
G1 X211.590 Y47.798 E9.58183
G1 X211.503 Y47.446 E9.61478
G1 X211.280 Y45.410 E9.80101
G1 X211.308 Y43.423 E9.98176
G1 X211.934 Y43.377 F7800.000
G1 X212.159 Y41.782 E10.12826 F378.000
G1 X212.325 Y41.183 E10.18479
G1 X213.103 Y39.429 E10.35927
G1 X213.895 Y38.227 E10.49012
G1 X214.273 Y37.839 E10.53935
G1 X215.699 Y36.903 E10.69446
G1 X215.979 Y36.802 E10.72159
G1 X217.865 Y36.608 E10.89395
G1 X218.647 Y36.718 E10.96576
G1 X220.253 Y37.414 E11.12494
G1 X220.891 Y37.919 E11.19891
G1 X222.061 Y39.418 E11.37186
G1 X222.348 Y39.998 E11.43070
G1 X222.964 Y42.126 E11.63210
G1 X223.232 Y44.193 E11.82168
G1 X223.222 Y44.916 E11.88740
G1 X222.874 Y47.146 E12.09261
G1 X222.214 Y49.263 E12.29425
G1 X221.967 Y49.749 E12.34381
G1 X220.752 Y51.304 E12.52325
G1 X220.128 Y51.806 E12.59603
G1 X218.659 Y52.450 E12.74192
G1 X218.073 Y52.530 E12.79567
G1 X215.806 Y52.245 E13.00349
G1 X215.529 Y52.135 E13.03054
G1 X214.008 Y51.066 E13.19960
G1 X213.815 Y50.855 E13.22558
G1 X212.910 Y49.386 E13.38252
G1 X212.186 Y47.604 E13.55744
G1 X212.119 Y47.336 E13.58250
G1 X211.905 Y45.381 E13.76138
G1 X211.933 Y43.471 E13.93506
G1 X211.426 Y43.013 F7800.000
G1 X204.353 Y40.224 F7800.000
G1 X205.312 Y37.736 E14.17750 F540.000
G1 X206.049 Y36.332 E14.32164
G1 X207.077 Y34.617 E14.50348
G1 X208.315 Y33.247 E14.67141
G1 X211.216 Y31.210 E14.99377
G1 X212.995 Y30.485 E15.16838
G1 X215.237 Y30.133 E15.37478
G1 X216.987 Y29.920 E15.53511
G1 X217.471 Y29.894 E15.57918
G1 X218.595 Y29.901 E15.68132
G1 X221.022 Y30.174 E15.90341
G1 X224.590 Y31.518 E16.25008
G1 X226.208 Y32.655 E16.42990
G1 X228.648 Y35.429 E16.76584
G1 X229.645 Y37.223 E16.95246
G1 X230.345 Y39.321 E17.15358
G1 X230.726 Y40.865 E17.29827
G1 X231.085 Y43.122 E17.50603
G1 X231.095 Y45.377 E17.71108
G1 X230.768 Y47.650 E17.91986
G1 X230.385 Y49.203 E18.06535
G1 X229.717 Y51.383 E18.27267
G1 X228.766 Y53.275 E18.46518
G1 X227.461 Y54.974 E18.66002
G1 X226.435 Y56.131 E18.80063
G1 X224.894 Y57.417 E18.98309
G1 X223.007 Y58.332 E19.17385
G1 X221.588 Y58.870 E19.31186
G1 X219.446 Y59.294 E19.51039
G1 X216.899 Y59.163 E19.74225
G1 X215.270 Y58.965 E19.89151
G1 X213.048 Y58.622 E20.09598
G1 X211.271 Y57.902 E20.27027
G1 X208.368 Y55.867 E20.59260
G1 X207.125 Y54.498 E20.76074
G1 X206.087 Y52.784 E20.94295
G1 X205.350 Y51.381 E21.08704
G1 X204.276 Y48.628 E21.35578
G1 X201.635 Y49.104 E21.59981
G1 X201.588 Y52.712 E21.92793
G1 X201.588 Y54.280 E22.07057
G1 X201.659 Y57.440 E22.35797
G1 X201.949 Y59.729 E22.56774
G1 X202.055 Y61.644 E22.74213
G1 X202.022 Y63.302 E22.89294
G1 X201.881 Y64.675 E23.01844
G1 X201.643 Y65.818 E23.12457
G1 X201.256 Y67.390 E23.27183
G1 X200.994 Y68.145 E23.34445
G1 X200.763 Y68.545 E23.38649
G1 X199.795 Y69.638 E23.51922
G1 X199.672 Y69.745 E23.53404
G1 X198.509 Y70.186 E23.64712
G1 X197.351 Y70.046 E23.75318
G1 X196.160 Y69.221 E23.88491
G1 X195.277 Y67.568 E24.05535
G1 X195.062 Y66.846 E24.12386
G1 X194.890 Y65.691 E24.23004
G1 X194.808 Y64.085 E24.37626
G1 X194.808 Y62.422 E24.52743
G1 X194.858 Y60.377 E24.71341
G1 X195.127 Y57.189 E25.00433
G1 X191.072 Y58.716 E25.39836
G1 X190.184 Y58.998 E25.48303
G1 X189.360 Y59.191 E25.55999
G1 X188.637 Y59.273 E25.62614
G1 X187.925 Y59.235 E25.69103
G1 X186.401 Y59.050 E25.83058
G1 X185.676 Y58.835 E25.89935
G1 X183.603 Y58.272 E26.09470
G1 X181.937 Y57.356 E26.26756
G1 X180.674 Y56.483 E26.40719
G1 X179.311 Y55.246 E26.57458
G1 X178.238 Y53.746 E26.74222
G1 X177.580 Y52.509 E26.86965
G1 X176.904 Y51.054 E27.01555
G1 X174.624 Y51.275 E27.22377
G1 X173.973 Y53.916 E27.47116
G1 X173.644 Y54.979 E27.57233
G1 X173.236 Y55.746 E27.65133
G1 X171.600 Y57.587 E27.87521
G1 X170.922 Y58.016 E27.94826
G1 X169.831 Y58.430 E28.05433
G1 X168.903 Y58.318 E28.13929
G1 X168.134 Y57.787 E28.22427
G1 X167.639 Y56.843 E28.32115
G1 X167.476 Y55.812 E28.41610
G1 X167.388 Y54.469 E28.53844
G1 X167.388 Y51.286 E28.82789
G1 X167.458 Y49.728 E28.96970
G1 X167.989 Y43.072 E29.57688
G1 X168.068 Y41.405 E29.72861
G1 X167.973 Y39.883 E29.86726
G1 X167.739 Y38.347 E30.00856
G1 X167.298 Y36.785 E30.15611
G1 X166.429 Y35.636 E30.28716
G1 X165.102 Y35.244 E30.41299
G1 X164.848 Y35.202 E30.43640
G1 X164.118 Y35.171 E30.50285
G1 X162.802 Y35.279 E30.62291
G1 X161.431 Y35.555 E30.75006
G1 X160.738 Y35.879 E30.81957
G1 X159.652 Y36.559 E30.93614
G1 X158.664 Y37.363 E31.05189
G1 X158.159 Y38.059 E31.13012
G1 X157.543 Y39.215 E31.24923
G1 X157.216 Y40.110 E31.33584
G1 X157.124 Y41.540 E31.46614
G1 X157.230 Y42.976 E31.59708
G1 X157.471 Y44.330 E31.72213
G1 X157.581 Y45.669 E31.84435
G1 X157.596 Y47.116 E31.97587
G1 X157.520 Y48.603 E32.11128
G1 X157.372 Y50.069 E32.24523
G1 X157.164 Y51.452 E32.37243
G1 X156.907 Y52.703 E32.48861
G1 X156.507 Y54.327 E32.64070
G1 X156.222 Y55.374 E32.73932
G1 X155.963 Y56.078 E32.80748
G1 X155.775 Y56.410 E32.84220
G1 X154.847 Y57.457 E32.96938
G1 X153.799 Y57.854 E33.07132
G1 X152.774 Y57.730 E33.16520
G1 X151.790 Y57.051 E33.27389
G1 X151.196 Y55.918 E33.39020
G1 X151.012 Y55.507 E33.43111
G1 X150.832 Y54.633 E33.51232
G1 X150.677 Y53.072 E33.65493
G1 X150.589 Y50.770 E33.86442
G1 X150.476 Y49.461 E33.98383
G1 X150.390 Y48.116 E34.10643
G1 X150.336 Y46.713 E34.23413
G1 X150.332 Y39.619 E34.87916
G1 X146.654 Y43.770 E35.38345
G1 X145.756 Y44.466 E35.48676
G1 X144.629 Y45.112 E35.60489
G1 X143.313 Y45.722 E35.73684
G1 X140.386 Y46.934 E36.02488
G1 X138.887 Y47.613 E36.17453
G1 X137.446 Y48.419 E36.32466
G1 X136.137 Y49.403 E36.47352
G1 X135.620 Y50.488 E36.58280
G1 X135.517 Y51.219 E36.64994
G1 X135.653 Y52.268 E36.74614
G1 X135.993 Y52.974 E36.81737
G1 X136.462 Y53.371 E36.87321
G1 X137.059 Y53.703 E36.93537
G1 X137.829 Y53.870 E37.00694
G1 X138.827 Y53.989 E37.09834
G1 X139.806 Y54.038 E37.18753
G1 X140.752 Y54.042 E37.27356
G1 X142.493 Y54.010 E37.43182
G1 X143.251 Y54.014 E37.50081
G1 X143.891 Y54.048 E37.55903
G1 X144.389 Y54.123 E37.60488
G1 X144.823 Y54.251 E37.64598
G1 X146.266 Y54.799 E37.78633
G1 X146.418 Y54.884 E37.80223
G1 X147.120 Y55.677 E37.89849
G1 X147.344 Y56.584 E37.98346
G1 X147.120 Y57.491 E38.06842
G1 X146.501 Y58.191 E38.15339
G1 X145.384 Y58.614 E38.26198
G1 X144.717 Y58.746 E38.32386
G1 X143.909 Y58.892 E38.39851
