; generated by Slic3r 1.0.0RC2 on 2014-02-01 at 07:47:12

; layer_height = 0.25
; perimeters = 1
; top_solid_layers = 4
; bottom_solid_layers = 4
; fill_density = 0.14
; perimeter_speed = 30
; infill_speed = 60
; travel_speed = 130
; nozzle_diameter = 0.35
; filament_diameter = 1.75
; extrusion_multiplier = 1
; perimeters extrusion width = 0.35mm
; infill extrusion width = 0.39mm
; solid infill extrusion width = 0.39mm
; top infill extrusion width = 0.39mm
; first layer extrusion width = 0.70mm

G21 ; set units to millimeters
M107
M104 S220 ; set temperature
G28 ; home all axes
G1 Z5 F5000 ; lift nozzle

M109 S220 ; wait for temperature to be reached
G90 ; use absolute coordinates
G92 E0
M82 ; use absolute distances for extrusion
G1 F1800.000 E-1.00000
G92 E0
G1 Z0.350 F7800.000
G1 X92.942 Y76.210 F7800.000
G1 E1.00000 F1800.000
G1 X93.662 Y75.410 E1.09787 F540.000
G1 X94.152 Y74.910 E1.16152
G1 X94.692 Y74.470 E1.22486
G1 X95.622 Y73.770 E1.33070
G1 X96.142 Y73.410 E1.38821
G1 X96.542 Y73.160 E1.43110
G1 X97.362 Y72.720 E1.51572
G1 X98.542 Y72.180 E1.63372
G1 X99.192 Y71.920 E1.69738
G1 X99.742 Y71.730 E1.75029
G1 X100.462 Y71.520 E1.81849
G1 X101.792 Y71.210 E1.94266
G1 X102.632 Y71.070 E2.02010
G1 X103.252 Y71.000 E2.07683
G1 X104.062 Y70.950 E2.15063
G1 X188.692 Y71.040 E9.84600
G1 X189.442 Y71.080 E9.91430
G1 X192.182 Y71.380 E10.16493
G1 X192.942 Y71.510 E10.23504
G1 X193.672 Y71.670 E10.30300
G1 X194.672 Y71.960 E10.39767
G1 X197.012 Y72.840 E10.62500
G1 X198.072 Y73.300 E10.73007
G1 X198.722 Y73.630 E10.79635
G1 X199.342 Y74.020 E10.86295
G1 X201.892 Y75.830 E11.14730
G1 X202.542 Y76.350 E11.22299
G1 X203.132 Y76.950 E11.29950
G1 X205.172 Y79.270 E11.58042
G1 X205.642 Y79.870 E11.64972
G1 X206.052 Y80.510 E11.71883
G1 X207.582 Y83.230 E12.00260
G1 X207.892 Y83.850 E12.06563
G1 X208.142 Y84.490 E12.12811
G1 X209.142 Y87.500 E12.41652
G1 X209.422 Y88.650 E12.52414
G1 X209.862 Y91.470 E12.78367
G1 X209.942 Y92.220 E12.85225
G1 X209.982 Y92.960 E12.91964
G1 X209.992 Y95.450 E13.14605
G1 X209.952 Y96.250 E13.21889
G1 X209.842 Y97.250 E13.31037
G1 X209.492 Y99.720 E13.53721
G1 X209.232 Y100.860 E13.64353
G1 X208.272 Y103.930 E13.93601
G1 X207.832 Y105.020 E14.04290
G1 X206.752 Y107.170 E14.26167
G1 X206.202 Y108.160 E14.36465
G1 X205.652 Y108.990 E14.45519
G1 X204.222 Y110.850 E14.66853
G1 X203.322 Y111.870 E14.79222
G1 X202.612 Y112.550 E14.88161
G1 X200.832 Y114.040 E15.09269
G1 X200.422 Y114.360 E15.13998
G1 X199.812 Y114.800 E15.20837
G1 X198.762 Y115.430 E15.31971
G1 X173.502 Y127.800 E17.87722
G1 X172.592 Y128.210 E17.96798
G1 X171.852 Y128.500 E18.04025
G1 X171.082 Y128.700 E18.11258
G1 X170.352 Y128.850 E18.18035
G1 X169.332 Y129.000 E18.27410
G1 X168.472 Y129.050 E18.35243
G1 X167.712 Y129.050 E18.42153
G1 X167.062 Y129.020 E18.48070
G1 X166.412 Y128.930 E18.54037
G1 X104.942 Y117.750 E24.22151
G1 X103.372 Y117.410 E24.36757
G1 X102.662 Y117.210 E24.43465
G1 X101.862 Y116.950 E24.51114
G1 X101.242 Y116.720 E24.57127
G1 X99.772 Y116.090 E24.71669
G1 X99.222 Y115.830 E24.77201
G1 X98.472 Y115.430 E24.84930
G1 X97.822 Y115.040 E24.91823
G1 X97.112 Y114.560 E24.99616
G1 X96.322 Y113.990 E25.08474
G1 X95.822 Y113.590 E25.14296
G1 X95.152 Y113.010 E25.22354
G1 X94.572 Y112.460 E25.29622
G1 X94.062 Y111.910 E25.36442
G1 X93.552 Y111.280 E25.43813
G1 X93.102 Y110.600 E25.51227
G1 X91.862 Y108.450 E25.73795
G1 X91.532 Y107.820 E25.80262
G1 X91.272 Y107.150 E25.86797
G1 X90.572 Y105.080 E26.06667
G1 X90.352 Y104.280 E26.14211
G1 X90.222 Y103.450 E26.21850
G1 X90.032 Y101.460 E26.40028
G1 X90.002 Y100.650 E26.47398
G1 X90.292 Y83.280 E28.05365
G1 X90.332 Y82.630 E28.11286
G1 X90.412 Y81.880 E28.18145
G1 X90.542 Y81.110 E28.25245
G1 X90.742 Y80.360 E28.32303
G1 X91.152 Y79.180 E28.43662
G1 X91.242 Y78.960 E28.45824
G1 X91.692 Y78.050 E28.55055
G1 X92.072 Y77.400 E28.61901
G1 X92.482 Y76.780 E28.68660
G1 X92.883 Y76.283 E28.74468
G1 X93.412 Y76.630 F7800.000
G1 X94.132 Y75.830 E28.84254 F540.000
G1 X94.582 Y75.370 E28.90106
G1 X95.072 Y74.970 E28.95857
G1 X96.002 Y74.270 E29.06442
G1 X96.472 Y73.940 E29.11664
G1 X96.872 Y73.690 E29.15953
G1 X97.622 Y73.290 E29.23682
G1 X98.802 Y72.750 E29.35482
G1 X99.402 Y72.510 E29.41358
G1 X99.952 Y72.320 E29.46649
G1 X100.612 Y72.130 E29.52894
G1 X101.942 Y71.820 E29.65312
G1 X102.702 Y71.690 E29.72323
G1 X103.322 Y71.620 E29.77996
G1 X104.062 Y71.580 E29.84735
G1 X188.682 Y71.670 E37.54181
G1 X189.372 Y71.700 E37.60461
G1 X192.112 Y72.000 E37.85525
G1 X192.812 Y72.120 E37.91983
G1 X193.542 Y72.280 E37.98778
G1 X194.452 Y72.550 E38.07409
G1 X196.792 Y73.430 E38.30142
G1 X197.812 Y73.870 E38.40243
G1 X198.412 Y74.170 E38.46343
G1 X198.972 Y74.530 E38.52396
G1 X201.522 Y76.340 E38.80830
G1 X202.122 Y76.820 E38.87817
G1 X202.672 Y77.370 E38.94890
G1 X204.712 Y79.690 E39.22981
G1 X205.132 Y80.230 E39.29202
G1 X205.502 Y80.810 E39.35457
G1 X207.032 Y83.530 E39.63834
G1 X207.322 Y84.100 E39.69650
G1 X207.552 Y84.690 E39.75408
G1 X208.552 Y87.700 E40.04248
G1 X208.802 Y88.750 E40.14063
G1 X209.242 Y91.540 E40.39746
G1 X209.322 Y92.290 E40.46604
G1 X209.352 Y92.960 E40.52703
G1 X209.362 Y95.450 E40.75344
G1 X209.332 Y96.180 E40.81988
G1 X209.222 Y97.160 E40.90955
G1 X208.872 Y99.630 E41.13639
G1 X208.632 Y100.680 E41.23433
G1 X207.672 Y103.750 E41.52681
G1 X207.272 Y104.740 E41.62390
G1 X206.032 Y107.200 E41.87440
G1 X205.662 Y107.850 E41.94241
G1 X205.152 Y108.610 E42.02563
G1 X203.722 Y110.470 E42.23897
G1 X203.372 Y110.890 E42.28868
G1 X202.862 Y111.450 E42.35755
G1 X202.212 Y112.070 E42.43923
G1 X200.432 Y113.560 E42.65031
G1 X200.062 Y113.850 E42.69306
G1 X199.452 Y114.290 E42.76145
G1 X198.482 Y114.870 E42.86421
G1 X173.222 Y127.240 E45.42172
G1 X172.332 Y127.640 E45.51044
G1 X171.662 Y127.900 E45.57579
G1 X170.952 Y128.090 E45.64262
G1 X170.222 Y128.240 E45.71039
G1 X169.252 Y128.380 E45.79951
G1 X168.472 Y128.420 E45.87052
G1 X167.112 Y128.400 E45.99420
G1 X166.522 Y128.320 E46.04834
G1 X105.282 Y117.180 E51.70825
G1 X103.502 Y116.790 E51.87395
G1 X102.852 Y116.620 E51.93504
G1 X102.052 Y116.360 E52.01153
G1 X101.492 Y116.150 E52.06591
G1 X100.022 Y115.520 E52.21133
G1 X99.512 Y115.280 E52.26259
G1 X98.762 Y114.880 E52.33988
G1 X98.172 Y114.520 E52.40272
G1 X97.462 Y114.040 E52.48065
G1 X96.682 Y113.480 E52.56796
G1 X96.222 Y113.120 E52.62108
G1 X95.552 Y112.540 E52.70166
G1 X95.032 Y112.030 E52.76789
G1 X94.522 Y111.480 E52.83609
G1 X94.052 Y110.910 E52.90327
G1 X93.642 Y110.290 E52.97086
G1 X92.402 Y108.140 E53.19654
G1 X92.102 Y107.560 E53.25591
G1 X91.862 Y106.950 E53.31552
G1 X91.162 Y104.880 E53.51422
G1 X90.962 Y104.150 E53.58304
G1 X90.852 Y103.390 E53.65287
G1 X90.662 Y101.400 E53.83464
G1 X90.632 Y100.660 E53.90198
G1 X90.922 Y83.290 E55.48165
G1 X90.952 Y82.700 E55.53537
G1 X91.032 Y81.950 E55.60395
G1 X91.152 Y81.240 E55.66943
G1 X91.342 Y80.560 E55.73363
G1 X91.732 Y79.420 E55.84319
G1 X91.822 Y79.200 E55.86480
G1 X92.232 Y78.370 E55.94898
G1 X92.612 Y77.720 E56.01744
G1 X92.982 Y77.150 E56.07923
G1 X93.352 Y76.702 E56.13206
G1 F1800.000 E55.13206
G92 E0
G1 X144.049 Y94.386 F7800.000
G1 E1.00000 F1800.000
G1 X145.955 Y93.766 E1.18226 F540.000
G1 X147.133 Y95.388 E1.36452
G1 X145.955 Y97.010 E1.54677
G1 X144.049 Y96.390 E1.72903
G1 X144.049 Y94.480 E1.90277
G1 X144.673 Y94.840 F7800.000
G1 X145.716 Y94.501 E2.00246 F540.000
G1 X146.361 Y95.388 E2.10215
G1 X145.716 Y96.275 E2.20184
G1 X144.673 Y95.936 E2.30153
G1 X144.673 Y94.934 E2.39270
G1 F1800.000 E1.39270
G92 E0
G1 X153.355 Y95.080 F7800.000
G1 E1.00000 F1800.000
G1 X153.475 Y93.273 E1.16464 F540.000
G1 X153.873 Y91.405 E1.33835
G1 X154.492 Y89.777 E1.49670
G1 X155.299 Y88.429 E1.63956
G1 X156.265 Y87.374 E1.76965
G1 X157.413 Y86.598 E1.89566
G1 X158.783 Y86.124 E2.02749
G1 X160.815 Y85.982 E2.21268
G1 X162.147 Y85.808 E2.33479
G1 X162.760 Y85.814 E2.39060
G1 X163.299 Y85.912 E2.44034
G1 X163.617 Y86.043 E2.47168
G1 X163.813 Y86.182 E2.49348
G1 X163.980 Y86.368 E2.51625
G1 X164.130 Y86.624 E2.54316
G1 X164.334 Y87.152 E2.59469
G1 X164.509 Y87.871 E2.66192
G1 X164.611 Y88.572 E2.72633
G1 X164.658 Y89.309 E2.79353
G1 X164.675 Y90.448 E2.89713
G1 X164.638 Y91.607 E3.00253
G1 X164.573 Y92.769 E3.10834
G1 X164.399 Y94.961 E3.30826
G1 X164.464 Y95.582 E3.36512
G1 X164.638 Y96.542 E3.45379
G1 X164.715 Y97.125 E3.50724
G1 X164.763 Y97.846 E3.57293
G1 X164.767 Y98.854 E3.66460
G1 X164.728 Y99.452 E3.71910
G1 X164.636 Y100.065 E3.77551
G1 X164.467 Y100.748 E3.83946
G1 X164.310 Y101.174 E3.88073
G1 X164.097 Y101.594 E3.92358
G1 X163.804 Y102.014 E3.97013
G1 X163.575 Y102.254 E4.00028
G1 X163.331 Y102.439 E4.02813
G1 X162.920 Y102.655 E4.07036
G1 X162.361 Y102.844 E4.12400
G1 X161.872 Y102.934 E4.16921
G1 X158.796 Y103.085 E4.44929
G1 X157.489 Y102.804 E4.57085
G1 X156.293 Y102.174 E4.69372
G1 X155.311 Y101.262 E4.81561
G1 X154.510 Y100.068 E4.94638
G1 X153.889 Y98.578 E5.09313
G1 X153.484 Y96.821 E5.25707
G1 X153.362 Y95.173 E5.40730
G1 X153.981 Y95.077 F7800.000
G1 X154.096 Y93.359 E5.56386 F378.000
G1 X154.474 Y91.582 E5.72912
G1 X155.056 Y90.051 E5.87808
G1 X155.803 Y88.804 E6.01017
G1 X156.676 Y87.850 E6.12779
G1 X157.695 Y87.162 E6.23962
G1 X158.910 Y86.741 E6.35647
G1 X160.877 Y86.604 E6.53584
G1 X162.184 Y86.433 E6.65567
G1 X162.701 Y86.439 E6.70267
G1 X163.122 Y86.515 E6.74161
G1 X163.313 Y86.593 E6.76036
G1 X163.473 Y86.739 E6.78004
G1 X163.565 Y86.896 E6.79656
G1 X163.736 Y87.340 E6.83982
G1 X163.895 Y87.990 E6.90066
G1 X163.989 Y88.637 E6.96013
G1 X164.034 Y89.334 E7.02365
G1 X164.050 Y90.443 E7.12450
G1 X164.014 Y91.579 E7.22788
G1 X163.949 Y92.727 E7.33242
G1 X163.771 Y94.968 E7.53680
G1 X163.845 Y95.671 E7.60108
G1 X164.021 Y96.638 E7.69048
G1 X164.093 Y97.186 E7.74072
G1 X164.138 Y97.868 E7.80282
G1 X164.142 Y98.835 E7.89075
G1 X164.106 Y99.385 E7.94090
G1 X164.022 Y99.944 E7.99227
G1 X163.869 Y100.565 E8.05043
G1 X163.737 Y100.924 E8.08524
G1 X163.560 Y101.272 E8.12074
G1 X163.318 Y101.617 E8.15903
G1 X163.157 Y101.786 E8.18030
G1 X162.994 Y101.910 E8.19888
G1 X162.673 Y102.079 E8.23192
G1 X162.204 Y102.238 E8.27694
G1 X161.800 Y102.312 E8.31427
G1 X158.847 Y102.457 E8.58312
G1 X157.704 Y102.211 E8.68941
G1 X156.658 Y101.660 E8.79695
G1 X155.789 Y100.853 E8.90471
G1 X155.063 Y99.770 E9.02328
G1 X154.486 Y98.386 E9.15964
G1 X154.104 Y96.727 E9.31445
G1 X153.988 Y95.171 E9.45636
G1 F1800.000 E8.45636
G92 E0
G1 X181.333 Y95.385 F7800.000
G1 E1.00000 F1800.000
G1 X181.359 Y93.540 E1.16777 F540.000
G1 X181.573 Y92.021 E1.30723
G1 X181.979 Y90.559 E1.44526
G1 X182.597 Y89.166 E1.58380
G1 X183.335 Y88.046 E1.70578
G1 X184.174 Y87.185 E1.81507
G1 X185.135 Y86.554 E1.91960
G1 X186.256 Y86.151 E2.02793
G1 X187.576 Y86.015 E2.14857
G1 X189.214 Y86.247 E2.29902
G1 X190.418 Y86.768 E2.41834
G1 X191.500 Y87.625 E2.54383
G1 X192.409 Y88.789 E2.67811
G1 X193.130 Y90.250 E2.82630
G1 X193.604 Y91.885 E2.98106
G1 X193.826 Y93.596 E3.13797
G1 X193.798 Y95.562 E3.31671
G1 X193.511 Y97.401 E3.48599
G1 X193.029 Y98.944 E3.63291
G1 X192.273 Y100.430 E3.78459
G1 X191.358 Y101.602 E3.91978
G1 X190.309 Y102.446 E4.04218
G1 X189.231 Y102.919 E4.14927
G1 X187.781 Y103.118 E4.28231
G1 X186.040 Y102.899 E4.44186
G1 X184.929 Y102.457 E4.55061
G1 X183.973 Y101.786 E4.65682
G1 X183.155 Y100.894 E4.76679
G1 X182.455 Y99.758 E4.88818
G1 X181.884 Y98.352 E5.02618
G1 X181.479 Y96.727 E5.17844
G1 X181.343 Y95.478 E5.29268
G1 X181.958 Y95.355 F7800.000
G1 X181.983 Y93.588 E5.45339 F378.000
G1 X182.186 Y92.149 E5.58554
G1 X182.569 Y90.770 E5.71567
G1 X183.147 Y89.466 E5.84534
G1 X183.824 Y88.439 E5.95720
G1 X184.574 Y87.670 E6.05488
G1 X185.416 Y87.117 E6.14648
G1 X186.396 Y86.765 E6.24115
G1 X187.564 Y86.645 E6.34793
G1 X189.043 Y86.854 E6.48377
G1 X190.094 Y87.309 E6.58797
G1 X191.054 Y88.068 E6.69922
G1 X191.877 Y89.123 E6.82085
G1 X192.546 Y90.477 E6.95819
G1 X192.990 Y92.013 E7.10357
G1 X193.201 Y93.632 E7.25205
G1 X193.174 Y95.509 E7.42271
G1 X192.901 Y97.259 E7.58379
G1 X192.449 Y98.707 E7.72172
G1 X191.744 Y100.093 E7.86313
G1 X190.910 Y101.161 E7.98625
G1 X189.982 Y101.907 E8.09454
G1 X189.060 Y102.312 E8.18616
G1 X187.778 Y102.487 E8.30380
G1 X186.197 Y102.288 E8.44867
G1 X185.228 Y101.904 E8.54350
G1 X184.388 Y101.313 E8.63685
G1 X183.656 Y100.516 E8.73525
G1 X183.015 Y99.474 E8.84649
G1 X182.479 Y98.158 E8.97572
G1 X182.096 Y96.617 E9.12009
G1 X181.968 Y95.448 E9.22698
G1 X173.932 Y99.404 F7800.000
G1 X172.303 Y99.698 E9.37749 F540.000
G1 X172.265 Y102.715 E9.65188
G1 X172.265 Y104.276 E9.79378
G1 X172.330 Y107.224 E10.06199
G1 X172.624 Y109.662 E10.28522
G1 X172.733 Y111.633 E10.46473
G1 X172.698 Y113.340 E10.62001
G1 X172.473 Y115.518 E10.81908
G1 X172.234 Y116.670 E10.92607
G1 X171.718 Y118.197 E11.07262
G1 X171.051 Y119.352 E11.19386
G1 X170.655 Y119.792 E11.24770
G1 X170.316 Y120.089 E11.28868
G1 X169.826 Y120.445 E11.34378
G1 X169.326 Y120.668 E11.39358
G1 X168.740 Y120.792 E11.44804
G1 X168.421 Y120.825 E11.47715
G1 X167.822 Y120.825 E11.53163
G1 X167.286 Y120.712 E11.58144
G1 X166.781 Y120.487 E11.63172
G1 X165.943 Y119.883 E11.72565
G1 X165.577 Y119.476 E11.77546
G1 X164.943 Y118.378 E11.89073
G1 X164.477 Y116.868 E12.03437
G1 X164.290 Y115.614 E12.14972
G1 X164.216 Y114.912 E12.21387
G1 X164.131 Y113.251 E12.36510
G1 X164.182 Y111.205 E12.55120
G1 X164.430 Y108.269 E12.81912
G1 X162.005 Y109.157 E13.05394
G1 X161.081 Y109.451 E13.14207
G1 X159.471 Y109.813 E13.29211
G1 X158.625 Y109.909 E13.36958
G1 X157.954 Y109.909 E13.43061
G1 X157.156 Y109.867 E13.50327
G1 X156.532 Y109.734 E13.56127
G1 X155.722 Y109.494 E13.63810
G1 X153.543 Y108.903 E13.84335
G1 X152.962 Y108.644 E13.90121
G1 X151.148 Y107.645 E14.08954
G1 X150.631 Y107.270 E14.14758
G1 X149.139 Y105.915 E14.33089
G1 X148.705 Y105.432 E14.38990
G1 X147.528 Y103.787 E14.57379
G1 X147.197 Y103.214 E14.63397
G1 X146.587 Y101.901 E14.76565
G1 X145.132 Y102.099 E14.89923
G1 X144.950 Y103.196 E15.00026
G1 X144.380 Y105.006 E15.17284
G1 X143.860 Y105.984 E15.27353
G1 X143.542 Y106.533 E15.33126
G1 X142.405 Y107.803 E15.48626
G1 X141.904 Y108.167 E15.54255
G1 X140.986 Y108.748 E15.64132
G1 X140.458 Y108.984 E15.69397
G1 X139.922 Y109.097 E15.74377
G1 X139.374 Y109.097 E15.79357
G1 X138.838 Y108.984 E15.84337
G1 X138.338 Y108.761 E15.89317
G1 X137.895 Y108.439 E15.94297
G1 X137.529 Y108.032 E15.99277
G1 X137.255 Y107.558 E16.04257
G1 X137.078 Y107.012 E16.09471
G1 X136.878 Y105.749 E16.21098
G1 X136.804 Y105.045 E16.27535
G1 X136.711 Y103.628 E16.40448
G1 X136.711 Y102.134 E16.54037
G1 X136.781 Y100.553 E16.68424
G1 X137.313 Y93.895 E17.29155
G1 X137.391 Y92.244 E17.44186
G1 X137.395 Y90.635 E17.58819
G1 X137.323 Y89.480 E17.69336
G1 X137.153 Y88.366 E17.79586
G1 X136.919 Y87.534 E17.87450
G1 X136.592 Y86.834 E17.94473
G1 X136.230 Y86.356 E17.99919
G1 X135.976 Y86.147 E18.02914
G1 X135.443 Y85.990 E18.07962
G1 X134.640 Y85.857 E18.15364
G1 X133.870 Y85.825 E18.22371
G1 X132.884 Y85.905 E18.31371
G1 X132.351 Y86.013 E18.36313
G1 X131.369 Y86.339 E18.45721
G1 X130.845 Y86.584 E18.50982
G1 X130.106 Y87.047 E18.58912
G1 X129.500 Y87.539 E18.66014
G1 X129.096 Y87.968 E18.71369
G1 X128.576 Y88.684 E18.79416
G1 X128.269 Y89.262 E18.85365
G1 X127.687 Y90.852 E19.00759
G1 X127.847 Y90.852 E19.02209
G1 X127.803 Y91.537 E19.08451
G1 X127.865 Y92.373 E19.16079
G1 X128.067 Y93.512 E19.26597
G1 X128.258 Y95.641 E19.46030
G1 X128.273 Y97.128 E19.59557
G1 X128.196 Y98.650 E19.73414
G1 X127.966 Y100.893 E19.93914
G1 X127.753 Y102.310 E20.06942
G1 X127.493 Y103.578 E20.18716
G1 X127.199 Y104.658 E20.28889
G1 X126.979 Y105.333 E20.35348
G1 X126.685 Y106.133 E20.43092
G1 X126.067 Y107.212 E20.54399
G1 X125.699 Y107.621 E20.59404
G1 X124.926 Y108.185 E20.68107
G1 X124.426 Y108.408 E20.73087
G1 X123.890 Y108.521 E20.78067
G1 X123.342 Y108.521 E20.83047
G1 X122.806 Y108.408 E20.88027
G1 X122.016 Y108.041 E20.95951
G1 X121.551 Y107.703 E21.01177
G1 X121.185 Y107.296 E21.06158
G1 X120.884 Y106.776 E21.11615
G1 X120.650 Y106.253 E21.16823
G1 X120.451 Y105.639 E21.22697
G1 X120.239 Y104.611 E21.32240
G1 X120.001 Y102.253 E21.53788
G1 X119.913 Y99.947 E21.74772
