; generated by Slic3r 1.0.0RC2 on 2014-01-31 at 19:00:30

; layer_height = 0.25
; perimeters = 1
; top_solid_layers = 5
; bottom_solid_layers = 5
; fill_density = 0.14
; perimeter_speed = 30
; infill_speed = 60
; travel_speed = 130
; nozzle_diameter = 0.35
; filament_diameter = 1.75
; extrusion_multiplier = 1
; perimeters extrusion width = 0.35mm
; infill extrusion width = 0.39mm
; solid infill extrusion width = 0.39mm
; top infill extrusion width = 0.39mm
; first layer extrusion width = 0.70mm

G21 ; set units to millimeters
M107
M104 S220 ; set temperature
G28 ; home all axes
G1 Z5 F5000 ; lift nozzle

M109 S220 ; wait for temperature to be reached
G90 ; use absolute coordinates
G92 E0
M82 ; use absolute distances for extrusion
G1 F1800.000 E-1.00000
G92 E0
G1 Z0.350 F7800.000
G1 X93.154 Y75.886 F7800.000
G1 E1.00000 F1800.000
G1 X93.374 Y75.646 E1.02960 F540.000
G1 X94.144 Y74.916 E1.12608
G1 X94.914 Y74.316 E1.21485
G1 X96.334 Y73.336 E1.37173
G1 X97.014 Y72.906 E1.44489
G1 X97.774 Y72.496 E1.52341
G1 X98.264 Y72.266 E1.57263
G1 X98.974 Y71.976 E1.64237
G1 X99.524 Y71.786 E1.69528
G1 X100.104 Y71.606 E1.75050
G1 X100.694 Y71.456 E1.80585
G1 X101.604 Y71.286 E1.89003
G1 X103.644 Y71.036 E2.07692
G1 X104.834 Y70.956 E2.18537
G1 X187.504 Y71.036 E9.70252
G1 X188.714 Y71.046 E9.81255
G1 X189.474 Y71.096 E9.88180
G1 X192.214 Y71.406 E10.13254
G1 X193.084 Y71.556 E10.21282
G1 X193.934 Y71.816 E10.29364
G1 X197.884 Y73.296 E10.67720
G1 X198.734 Y73.676 E10.76186
G1 X199.524 Y74.156 E10.84591
G1 X201.454 Y75.516 E11.06060
G1 X202.114 Y76.056 E11.13814
G1 X202.724 Y76.656 E11.21594
G1 X205.404 Y79.706 E11.58513
G1 X205.874 Y80.306 E11.65444
G1 X206.274 Y80.956 E11.72384
G1 X207.434 Y83.026 E11.93960
G1 X207.744 Y83.646 E12.00263
G1 X207.994 Y84.296 E12.06595
G1 X208.754 Y86.596 E12.28621
G1 X208.904 Y87.106 E12.33455
G1 X209.324 Y88.786 E12.49202
G1 X209.454 Y89.426 E12.55140
G1 X209.834 Y91.866 E12.77594
G1 X209.924 Y92.926 E12.87267
G1 X209.944 Y95.426 E13.10001
G1 X209.864 Y96.536 E13.20120
G1 X209.504 Y98.996 E13.42727
G1 X209.374 Y99.666 E13.48933
G1 X208.854 Y101.746 E13.68428
G1 X208.134 Y104.096 E13.90777
G1 X207.684 Y105.226 E14.01837
G1 X206.604 Y107.376 E14.23715
G1 X206.264 Y107.976 E14.29986
G1 X205.874 Y108.546 E14.36266
G1 X204.444 Y110.406 E14.57599
G1 X202.954 Y112.096 E14.78086
G1 X202.194 Y112.836 E14.87731
G1 X200.414 Y114.326 E15.08839
G1 X199.714 Y114.846 E15.16768
G1 X198.954 Y115.276 E15.24708
G1 X173.694 Y127.646 E17.80459
G1 X173.074 Y127.916 E17.86608
G1 X171.464 Y128.526 E18.02263
G1 X170.534 Y128.806 E18.11094
G1 X169.584 Y128.966 E18.19854
G1 X169.164 Y129.006 E18.23691
G1 X168.374 Y129.036 E18.30879
G1 X167.594 Y128.986 E18.37986
G1 X165.884 Y128.776 E18.53652
G1 X165.464 Y128.706 E18.57524
G1 X103.904 Y117.516 E24.26459
G1 X103.074 Y117.326 E24.34201
G1 X101.744 Y116.936 E24.46804
G1 X101.064 Y116.686 E24.53392
G1 X100.284 Y116.356 E24.61093
G1 X99.694 Y116.076 E24.67032
G1 X98.944 Y115.676 E24.74761
G1 X98.254 Y115.256 E24.82106
G1 X96.124 Y113.796 E25.05587
G1 X95.524 Y113.336 E25.12462
G1 X94.854 Y112.766 E25.20460
G1 X93.994 Y111.896 E25.31584
G1 X93.294 Y110.906 E25.42609
G1 X92.424 Y109.416 E25.58298
G1 X91.464 Y107.586 E25.77089
G1 X91.034 Y106.596 E25.86903
G1 X90.564 Y105.236 E25.99987
G1 X90.324 Y104.386 E26.08018
G1 X90.194 Y103.506 E26.16107
G1 X90.084 Y102.266 E26.27426
G1 X90.054 Y101.626 E26.33252
G1 X90.054 Y99.786 E26.49983
G1 X90.344 Y82.416 E28.07950
G1 X90.524 Y80.946 E28.21417
G1 X90.994 Y79.536 E28.34931
G1 X91.274 Y78.956 E28.40787
G1 X92.074 Y77.426 E28.56487
G1 X92.564 Y76.626 E28.65017
G1 X93.096 Y75.959 E28.72771
G1 X93.614 Y76.306 F7800.000
G1 X93.834 Y76.066 E28.75731 F540.000
G1 X94.534 Y75.406 E28.84479
G1 X95.274 Y74.836 E28.92973
G1 X96.944 Y73.686 E29.11410
G1 X97.344 Y73.436 E29.15699
G1 X98.044 Y73.056 E29.22942
G1 X98.534 Y72.826 E29.27864
G1 X99.184 Y72.566 E29.34229
G1 X99.734 Y72.376 E29.39521
G1 X100.264 Y72.216 E29.44555
G1 X100.854 Y72.066 E29.50090
G1 X101.674 Y71.906 E29.57687
G1 X103.714 Y71.656 E29.76375
G1 X104.834 Y71.586 E29.86579
G1 X187.494 Y71.666 E37.38204
G1 X188.704 Y71.676 E37.49207
G1 X189.394 Y71.716 E37.55491
G1 X192.134 Y72.026 E37.80565
G1 X192.944 Y72.166 E37.88039
G1 X193.714 Y72.406 E37.95373
G1 X197.664 Y73.886 E38.33729
G1 X198.444 Y74.226 E38.41466
G1 X199.164 Y74.666 E38.49138
G1 X201.094 Y76.026 E38.70607
G1 X201.704 Y76.516 E38.77722
G1 X202.254 Y77.076 E38.84859
G1 X204.934 Y80.126 E39.21778
G1 X205.364 Y80.666 E39.28055
G1 X205.734 Y81.256 E39.34387
G1 X206.894 Y83.326 E39.55964
G1 X207.174 Y83.896 E39.61738
G1 X207.404 Y84.486 E39.67496
G1 X208.304 Y87.256 E39.93980
G1 X208.724 Y88.936 E40.09726
G1 X208.844 Y89.526 E40.15201
G1 X209.224 Y91.966 E40.37655
G1 X209.294 Y92.936 E40.46498
G1 X209.314 Y95.436 E40.69231
G1 X209.254 Y96.446 E40.78431
G1 X208.894 Y98.906 E41.01038
G1 X208.774 Y99.516 E41.06691
G1 X208.364 Y101.196 E41.22416
G1 X207.534 Y103.916 E41.48275
G1 X207.124 Y104.946 E41.58355
G1 X206.044 Y107.096 E41.80233
G1 X205.734 Y107.646 E41.85974
G1 X205.374 Y108.166 E41.91725
G1 X203.944 Y110.026 E42.13058
G1 X203.644 Y110.396 E42.17390
G1 X202.494 Y111.686 E42.33104
G1 X201.794 Y112.356 E42.41915
G1 X200.014 Y113.846 E42.63022
G1 X199.374 Y114.326 E42.70297
G1 X198.674 Y114.716 E42.77583
G1 X173.414 Y127.086 E45.33333
G1 X172.854 Y127.336 E45.38910
G1 X171.244 Y127.946 E45.54565
G1 X170.394 Y128.196 E45.62621
G1 X169.524 Y128.346 E45.70649
G1 X169.104 Y128.386 E45.74485
G1 X168.384 Y128.406 E45.81035
G1 X167.664 Y128.366 E45.87592
G1 X165.584 Y128.096 E46.06664
G1 X104.044 Y116.906 E51.75420
G1 X103.214 Y116.716 E51.83162
G1 X101.934 Y116.336 E51.95304
G1 X101.304 Y116.106 E52.01402
G1 X99.984 Y115.526 E52.14512
G1 X99.234 Y115.126 E52.22241
G1 X98.604 Y114.736 E52.28979
G1 X96.474 Y113.276 E52.52460
G1 X95.934 Y112.866 E52.58625
G1 X95.264 Y112.296 E52.66624
G1 X94.474 Y111.496 E52.76847
G1 X93.834 Y110.586 E52.86963
G1 X92.814 Y108.826 E53.05460
G1 X92.014 Y107.296 E53.21159
G1 X91.624 Y106.386 E53.30162
G1 X91.154 Y105.026 E53.43246
G1 X90.934 Y104.246 E53.50615
G1 X90.814 Y103.456 E53.57881
G1 X90.704 Y102.216 E53.69200
G1 X90.684 Y101.626 E53.74568
G1 X90.684 Y99.796 E53.91208
G1 X90.974 Y82.426 E55.49175
G1 X91.134 Y81.076 E55.61537
G1 X91.564 Y79.796 E55.73815
G1 X91.824 Y79.246 E55.79347
G1 X92.624 Y77.716 E55.95046
G1 X93.074 Y76.976 E56.02921
G1 X93.555 Y76.379 E56.09893
G1 F1800.000 E55.09893
G92 E0
G1 X143.996 Y93.526 F7800.000
G1 E1.00000 F1800.000
G1 X145.903 Y92.906 E1.18226 F540.000
G1 X147.081 Y94.528 E1.36452
G1 X145.903 Y96.150 E1.54677
G1 X143.996 Y95.530 E1.72903
G1 X143.996 Y93.620 E1.90277
G1 X144.621 Y93.980 F7800.000
G1 X145.664 Y93.641 E2.00246 F540.000
G1 X146.308 Y94.528 E2.10215
G1 X145.664 Y95.415 E2.20184
G1 X144.621 Y95.076 E2.30153
G1 X144.621 Y94.074 E2.39270
G1 F1800.000 E1.39270
G92 E0
G1 X153.302 Y95.080 F7800.000
G1 E1.00000 F1800.000
G1 X153.460 Y92.721 E1.21493 F540.000
G1 X153.665 Y91.757 E1.30456
G1 X154.363 Y89.922 E1.48309
G1 X155.466 Y88.079 E1.67837
G1 X155.923 Y87.579 E1.74001
G1 X157.651 Y86.413 E1.92953
G1 X158.433 Y86.142 E2.00478
G1 X160.820 Y85.975 E2.22241
G1 X162.207 Y85.794 E2.34959
G1 X162.955 Y85.802 E2.41757
G1 X163.648 Y86.086 E2.48568
G1 X164.585 Y87.125 E2.61285
G1 X164.334 Y87.375 E2.64504
G1 X164.482 Y87.984 E2.70199
G1 X164.639 Y89.060 E2.80086
G1 X164.709 Y90.150 E2.90021
G1 X164.625 Y91.907 E3.06018
G1 X164.447 Y94.150 E3.26476
G1 X164.447 Y95.746 E3.40987
G1 X164.612 Y96.655 E3.49386
G1 X164.747 Y97.682 E3.58801
G1 X164.794 Y98.385 E3.65215
G1 X164.754 Y98.987 E3.70695
G1 X164.610 Y99.952 E3.79574
G1 X164.378 Y100.889 E3.88343
G1 X164.169 Y101.456 E3.93841
G1 X163.890 Y101.856 E3.98274
G1 X163.339 Y102.434 E4.05538
G1 X163.001 Y102.613 E4.09018
G1 X162.009 Y102.948 E4.18538
G1 X161.839 Y102.979 E4.20113
G1 X158.934 Y103.122 E4.46559
G1 X157.341 Y102.779 E4.61371
G1 X156.180 Y102.168 E4.73306
G1 X155.290 Y101.341 E4.84351
G1 X154.456 Y100.099 E4.97956
G1 X153.645 Y98.153 E5.17122
G1 X153.477 Y97.422 E5.23940
G1 X153.309 Y95.173 E5.44448
G1 X153.929 Y95.077 F7800.000
G1 X154.080 Y92.808 E5.65132 F378.000
G1 X154.266 Y91.934 E5.73250
G1 X154.927 Y90.196 E5.90164
G1 X155.969 Y88.455 E6.08616
G1 X156.334 Y88.056 E6.13532
G1 X157.933 Y86.977 E6.31066
G1 X158.559 Y86.760 E6.37093
G1 X160.883 Y86.597 E6.58275
G1 X162.245 Y86.420 E6.70764
G1 X162.828 Y86.426 E6.76073
G1 X163.279 Y86.611 E6.80501
G1 X163.723 Y87.103 E6.86529
G1 X163.644 Y87.182 E6.87545
G1 X163.868 Y88.103 E6.96165
G1 X164.017 Y89.125 E7.05557
G1 X164.084 Y90.160 E7.14991
G1 X164.002 Y91.866 E7.30516
G1 X163.822 Y94.125 E7.51122
G1 X163.822 Y95.802 E7.66374
G1 X163.994 Y96.751 E7.75147
G1 X164.125 Y97.743 E7.84241
G1 X164.167 Y98.386 E7.90097
G1 X164.133 Y98.920 E7.94965
G1 X163.996 Y99.831 E8.03339
G1 X163.779 Y100.705 E8.11531
G1 X163.611 Y101.164 E8.15981
G1 X163.405 Y101.459 E8.19248
G1 X162.957 Y101.929 E8.25151
G1 X162.754 Y102.037 E8.27246
G1 X161.766 Y102.357 E8.36684
G1 X158.985 Y102.494 E8.62006
G1 X157.557 Y102.187 E8.75291
G1 X156.545 Y101.653 E8.85693
G1 X155.768 Y100.933 E8.95325
G1 X155.010 Y99.801 E9.07711
G1 X154.242 Y97.961 E9.25838
G1 X154.097 Y97.329 E9.31743
G1 X153.936 Y95.171 E9.51417
G1 F1800.000 E8.51417
G92 E0
G1 X181.280 Y95.410 F7800.000
G1 E1.00000 F1800.000
G1 X181.310 Y93.329 E1.18928 F540.000
G1 X181.546 Y91.654 E1.34308
G1 X181.735 Y90.971 E1.40751
G1 X182.553 Y89.128 E1.59086
G1 X183.406 Y87.833 E1.73182
G1 X183.873 Y87.354 E1.79267
G1 X185.417 Y86.340 E1.96071
G1 X185.840 Y86.188 E2.00150
G1 X187.877 Y85.978 E2.18771
G1 X188.818 Y86.111 E2.27414
G1 X190.577 Y86.873 E2.44843
G1 X191.338 Y87.475 E2.53666
G1 X192.593 Y89.084 E2.72225
G1 X192.933 Y89.771 E2.79195
G1 X193.577 Y91.998 E3.00272
G1 X193.858 Y94.158 E3.20074
G1 X193.846 Y94.969 E3.27453
G1 X193.484 Y97.288 E3.48794
G1 X192.794 Y99.499 E3.69857
G1 X192.496 Y100.086 E3.75840
G1 X191.200 Y101.746 E3.94991
G1 X190.455 Y102.345 E4.03680
G1 X188.830 Y103.057 E4.19816
G1 X188.077 Y103.161 E4.26730
G1 X185.649 Y102.855 E4.48980
G1 X185.230 Y102.689 E4.53078
G1 X183.594 Y101.538 E4.71270
G1 X183.314 Y101.234 E4.75025
G1 X182.351 Y99.669 E4.91734
G1 X181.590 Y97.798 E5.10103
G1 X181.503 Y97.446 E5.13399
G1 X181.290 Y95.503 E5.31169
G1 X181.905 Y95.381 F7800.000
G1 X181.934 Y93.377 E5.49389 F378.000
G1 X182.159 Y91.782 E5.64039
G1 X182.325 Y91.183 E5.69692
G1 X183.103 Y89.429 E5.87140
G1 X183.895 Y88.227 E6.00225
G1 X184.273 Y87.839 E6.05148
G1 X185.699 Y86.903 E6.20659
G1 X185.979 Y86.802 E6.23372
G1 X187.865 Y86.608 E6.40608
G1 X188.647 Y86.718 E6.47790
G1 X190.253 Y87.414 E6.63707
G1 X190.891 Y87.919 E6.71104
G1 X192.061 Y89.418 E6.88399
G1 X192.348 Y89.998 E6.94284
G1 X192.964 Y92.126 E7.14424
G1 X193.232 Y94.193 E7.33381
G1 X193.222 Y94.916 E7.39953
G1 X192.874 Y97.146 E7.60474
G1 X192.214 Y99.263 E7.80638
G1 X191.967 Y99.749 E7.85594
G1 X190.752 Y101.304 E8.03539
G1 X190.128 Y101.806 E8.10816
G1 X188.659 Y102.450 E8.25405
G1 X188.073 Y102.530 E8.30780
G1 X185.806 Y102.245 E8.51562
G1 X185.529 Y102.135 E8.54267
G1 X184.008 Y101.066 E8.71173
G1 X183.815 Y100.855 E8.73771
G1 X182.910 Y99.386 E8.89465
G1 X182.186 Y97.604 E9.06957
G1 X182.119 Y97.336 E9.09463
G1 X181.916 Y95.474 E9.26499
G1 X173.881 Y99.334 F7800.000
G1 X172.252 Y99.627 E9.41549 F540.000
G1 X172.213 Y102.715 E9.69627
G1 X172.213 Y104.276 E9.83818
G1 X172.283 Y107.392 E10.12160
G1 X172.572 Y109.672 E10.33064
G1 X172.680 Y111.633 E10.50919
G1 X172.646 Y113.340 E10.66446
G1 X172.499 Y114.771 E10.79522
G1 X172.253 Y115.956 E10.90531
G1 X171.856 Y117.568 E11.05625
G1 X171.565 Y118.406 E11.13690
G1 X171.485 Y118.545 E11.15147
G1 X171.598 Y118.545 E11.16179
G1 X170.236 Y120.082 E11.34853
G1 X169.999 Y120.289 E11.37720
G1 X168.670 Y120.793 E11.50641
G1 X168.486 Y120.813 E11.52328
G1 X167.123 Y120.647 E11.64808
G1 X165.687 Y119.652 E11.80698
G1 X165.443 Y119.229 E11.85135
G1 X164.696 Y117.804 E11.99765
G1 X164.450 Y116.981 E12.07572
G1 X164.268 Y115.753 E12.18868
G1 X164.183 Y114.101 E12.33910
G1 X164.183 Y112.414 E12.49242
G1 X164.234 Y110.344 E12.68079
G1 X164.421 Y108.126 E12.88318
G1 X161.274 Y109.307 E13.18886
G1 X160.350 Y109.601 E13.27699
G1 X159.467 Y109.808 E13.35948
G1 X158.656 Y109.900 E13.43369
G1 X157.870 Y109.858 E13.50524
G1 X156.274 Y109.664 E13.65148
G1 X155.505 Y109.436 E13.72436
G1 X153.367 Y108.856 E13.92584
G1 X151.608 Y107.888 E14.10838
G1 X150.284 Y106.974 E14.25467
G1 X148.841 Y105.663 E14.43190
G1 X147.705 Y104.075 E14.60952
G1 X146.947 Y102.629 E14.75794
G1 X146.523 Y101.719 E14.84925
G1 X145.125 Y101.854 E14.97699
G1 X144.576 Y104.084 E15.18580
G1 X144.223 Y105.220 E15.29401
G1 X143.753 Y106.105 E15.38511
G1 X142.008 Y108.068 E15.62390
G1 X141.203 Y108.578 E15.71062
G1 X139.909 Y109.069 E15.83646
G1 X138.675 Y108.919 E15.94944
G1 X137.653 Y108.213 E16.06242
G1 X137.038 Y107.043 E16.18266
G1 X136.854 Y105.881 E16.28958
G1 X136.763 Y104.490 E16.41638
G1 X136.763 Y101.272 E16.70895
G1 X136.834 Y99.691 E16.85282
G1 X137.365 Y93.034 E17.46013
G1 X137.442 Y91.410 E17.60797
G1 X137.351 Y89.950 E17.74099
G1 X137.127 Y88.479 E17.87624
G1 X136.729 Y87.068 E18.00955
G1 X136.055 Y86.177 E18.11118
G1 X134.962 Y85.854 E18.21481
G1 X134.783 Y85.825 E18.23125
G1 X134.130 Y85.797 E18.29070
G1 X132.889 Y85.899 E18.40392
G1 X131.628 Y86.153 E18.52091
G1 X131.038 Y86.429 E18.58015
G1 X130.016 Y87.068 E18.68973
G1 X129.122 Y87.796 E18.79452
G1 X128.691 Y88.391 E18.86140
G1 X128.115 Y89.470 E18.97263
G1 X127.834 Y90.240 E19.04708
G1 X127.750 Y91.537 E19.16527
G1 X127.851 Y92.898 E19.28937
G1 X128.092 Y94.249 E19.41421
G1 X128.205 Y95.641 E19.54114
G1 X128.221 Y97.128 E19.67642
G1 X128.143 Y98.650 E19.81498
G1 X127.992 Y100.146 E19.95173
G1 X127.780 Y101.561 E20.08183
G1 X127.517 Y102.841 E20.20063
G1 X127.112 Y104.484 E20.35451
G1 X126.818 Y105.564 E20.45628
G1 X126.532 Y106.341 E20.53157
G1 X126.286 Y106.775 E20.57690
G1 X125.280 Y107.911 E20.71486
G1 X125.139 Y108.014 E20.73080
G1 X123.877 Y108.493 E20.85353
G1 X122.577 Y108.335 E20.97254
G1 X122.477 Y108.284 E20.98283
G1 X121.309 Y107.477 E21.11187
G1 X120.634 Y106.191 E21.24396
G1 X120.414 Y105.700 E21.29286
G1 X120.213 Y104.727 E21.38325
G1 X120.053 Y103.115 E21.53055
G1 X119.966 Y100.809 E21.74039
G1 X119.853 Y99.508 E21.85907
G1 X119.766 Y98.148 E21.98304
G1 X119.711 Y96.725 E22.11247
G1 X119.707 Y91.267 E22.60885
G1 X117.083 Y94.228 E22.96863
G1 X116.105 Y94.987 E23.08120
G1 X114.917 Y95.668 E23.20575
G1 X113.564 Y96.294 E23.34128
G1 X110.634 Y97.508 E23.62967
G1 X109.169 Y98.172 E23.77593
G1 X107.788 Y98.944 E23.91983
G1 X106.635 Y99.810 E24.05090
G1 X106.226 Y100.670 E24.13751
G1 X106.148 Y101.223 E24.18824
G1 X106.260 Y102.088 E24.26757
G1 X106.499 Y102.583 E24.31756
G1 X106.819 Y102.855 E24.35576
G1 X107.282 Y103.112 E24.40392
G1 X107.932 Y103.253 E24.46440
G1 X108.879 Y103.366 E24.55115
G1 X109.823 Y103.413 E24.63708
G1 X110.748 Y103.417 E24.72119
G1 X112.488 Y103.385 E24.87944
G1 X113.269 Y103.389 E24.95047
G1 X113.954 Y103.425 E25.01283
G1 X114.525 Y103.512 E25.06534
G1 X115.022 Y103.659 E25.11246
G1 X116.531 Y104.231 E25.25919
G1 X116.816 Y104.391 E25.28891
G1 X117.690 Y105.378 E25.40877
G1 X117.988 Y106.584 E25.52175
G1 X117.690 Y107.790 E25.63473
G1 X116.866 Y108.720 E25.74771
G1 X115.557 Y109.217 E25.87508
G1 X114.012 Y109.508 E26.01799
G1 X113.182 Y109.637 E26.09434
G1 X112.340 Y109.749 E26.17162
G1 X111.502 Y109.834 E26.24824
G1 X110.660 Y109.888 E26.32497
G1 X109.824 Y109.907 E26.40097
G1 X109.006 Y109.884 E26.47539
G1 X108.187 Y109.812 E26.55012
G1 X106.504 Y109.608 E26.70425
G1 X105.705 Y109.491 E26.77768
G1 X104.948 Y109.320 E26.84828
G1 X104.220 Y109.093 E26.91763
G1 X103.525 Y108.804 E26.98606
G1 X102.864 Y108.451 E27.05417
G1 X102.198 Y107.998 E27.12744
G1 X100.823 Y107.049 E27.27932
G1 X100.317 Y106.618 E27.33983
G1 X99.547 Y105.288 E27.47951
G1 X98.789 Y103.845 E27.62772
G1 X98.380 Y102.665 E27.74126
G1 X98.279 Y101.588 E27.83965
G1 X98.279 Y99.995 E27.98455
G1 X98.439 Y99.073 E28.06963
G1 X98.844 Y98.183 E28.15848
