; generated by Slic3r 1.1.7 on 2014-10-04 at 20:41:39

; perimeters extrusion width = 0.35mm
; infill extrusion width = 0.39mm
; solid infill extrusion width = 0.39mm
; top infill extrusion width = 0.39mm

G21 ; set units to millimeters
G28 ; home all axes
G1 Z5; lift nozzle
G90 ; use absolute coordinates
G92 E0
M82 ; use absolute distances for extrusion
G1 Z8.000
G1 X108.278 Y107.973
G1 X100.275 Y99.970
G1 X100.198 Y100.442
G1 X107.676 Y107.920
G1 X107.037 Y107.829
G1 X100.159 Y100.951
G1 X100.217 Y101.558
G1 X106.353 Y107.694
G1 X105.629 Y107.518
G1 X100.277 Y102.166
G1 X100.564 Y103.002
G1 X104.800 Y107.238
G1 X103.800 Y106.787
G1 X100.953 Y103.940
G1 X101.707 Y105.243
G1 X102.030 Y105.565
G1 X108.278 Y107.973
G1 X100.275 Y99.970
G1 X100.198 Y100.442
G1 X107.676 Y107.920
G1 X107.037 Y107.829
G1 X100.159 Y100.951
G1 X100.217 Y101.558
G1 X106.353 Y107.694
G1 X105.629 Y107.518
G1 X100.277 Y102.166
G1 X100.564 Y103.002
G1 X104.800 Y107.238
G1 X103.800 Y106.787
G1 X100.953 Y103.940
G1 X101.707 Y105.243
G1 X102.030 Y105.565
G1 X108.278 Y107.973
G1 X100.275 Y99.970
G1 X100.198 Y100.442
G1 X107.676 Y107.920
G1 X107.037 Y107.829
G1 X100.159 Y100.951
G1 X100.217 Y101.558
G1 X106.353 Y107.694
G1 X105.629 Y107.518
G1 X100.277 Y102.166
G1 X100.564 Y103.002
G1 X104.800 Y107.238
G1 X103.800 Y106.787
G1 X100.953 Y103.940
G1 X101.707 Y105.243
G1 X102.030 Y105.565
G1 X108.278 Y107.973
G1 X100.275 Y99.970
G1 X100.198 Y100.442
G1 X107.676 Y107.920
G1 X107.037 Y107.829
G1 X100.159 Y100.951
G1 X100.217 Y101.558
G1 X106.353 Y107.694
G1 X105.629 Y107.518
G1 X100.277 Y102.166
G1 X100.564 Y103.002
G1 X104.800 Y107.238
G1 X103.800 Y106.787
G1 X100.953 Y103.940
G1 X101.707 Y105.243
G1 X102.030 Y105.565
G1 X108.278 Y107.973
G1 X100.275 Y99.970
G1 X100.198 Y100.442
G1 X107.676 Y107.920
G1 X107.037 Y107.829
G1 X100.159 Y100.951
G1 X100.217 Y101.558
G1 X106.353 Y107.694
G1 X105.629 Y107.518
G1 X100.277 Y102.166
G1 X100.564 Y103.002
G1 X104.800 Y107.238
G1 X103.800 Y106.787
G1 X100.953 Y103.940
G1 X101.707 Y105.243
G1 X102.030 Y105.565
G1 X108.278 Y107.973
G1 X100.275 Y99.970
G1 X100.198 Y100.442
G1 X107.676 Y107.920
G1 X107.037 Y107.829
G1 X100.159 Y100.951
G1 X100.217 Y101.558
G1 X106.353 Y107.694
G1 X105.629 Y107.518
G1 X100.277 Y102.166
G1 X100.564 Y103.002
G1 X104.800 Y107.238
G1 X103.800 Y106.787
G1 X100.953 Y103.940
G1 X101.707 Y105.243
G1 X102.030 Y105.565
G1 X108.278 Y107.973
G1 X100.275 Y99.970
G1 X100.198 Y100.442
G1 X107.676 Y107.920
G1 X107.037 Y107.829
G1 X100.159 Y100.951
G1 X100.217 Y101.558
G1 X106.353 Y107.694
G1 X105.629 Y107.518
G1 X100.277 Y102.166
G1 X100.564 Y103.002
G1 X104.800 Y107.238
G1 X103.800 Y106.787
G1 X100.953 Y103.940
G1 X101.707 Y105.243
G1 X102.030 Y105.565
G1 X108.278 Y107.973
G1 X100.275 Y99.970
G1 X100.198 Y100.442
G1 X107.676 Y107.920
G1 X107.037 Y107.829
G1 X100.159 Y100.951
G1 X100.217 Y101.558
G1 X106.353 Y107.694
G1 X105.629 Y107.518
G1 X100.277 Y102.166
G1 X100.564 Y103.002
G1 X104.800 Y107.238
G1 X103.800 Y106.787
G1 X100.953 Y103.940
G1 X101.707 Y105.243
G1 X102.030 Y105.565
G1 X108.278 Y107.973
G1 X100.275 Y99.970
G1 X100.198 Y100.442
G1 X107.676 Y107.920
G1 X107.037 Y107.829
G1 X100.159 Y100.951
G1 X100.217 Y101.558
G1 X106.353 Y107.694
G1 X105.629 Y107.518
G1 X100.277 Y102.166
G1 X100.564 Y103.002
G1 X104.800 Y107.238
G1 X103.800 Y106.787
G1 X100.953 Y103.940
G1 X101.707 Y105.243
G1 X102.030 Y105.565
G1 X108.278 Y107.973
G1 X100.275 Y99.970
G1 X100.198 Y100.442
G1 X107.676 Y107.920
G1 X107.037 Y107.829
G1 X100.159 Y100.951
G1 X100.217 Y101.558
G1 X106.353 Y107.694
G1 X105.629 Y107.518
G1 X100.277 Y102.166
G1 X100.564 Y103.002
G1 X104.800 Y107.238
G1 X103.800 Y106.787
G1 X100.953 Y103.940
G1 X101.707 Y105.243
G1 X102.030 Y105.565
G1 X108.278 Y107.973
G1 X100.275 Y99.970
G1 X100.198 Y100.442
G1 X107.676 Y107.920
G1 X107.037 Y107.829
G1 X100.159 Y100.951
G1 X100.217 Y101.558
G1 X106.353 Y107.694
G1 X105.629 Y107.518
G1 X100.277 Y102.166
G1 X100.564 Y103.002
G1 X104.800 Y107.238
G1 X103.800 Y106.787
G1 X100.953 Y103.940
G1 X101.707 Y105.243
G1 X102.030 Y105.565
G1 X108.278 Y107.973
G1 X100.275 Y99.970
G1 X100.198 Y100.442
G1 X107.676 Y107.920
G1 X107.037 Y107.829
G1 X100.159 Y100.951
G1 X100.217 Y101.558
G1 X106.353 Y107.694
G1 X105.629 Y107.518
G1 X100.277 Y102.166
G1 X100.564 Y103.002
G1 X104.800 Y107.238
G1 X103.800 Y106.787
G1 X100.953 Y103.940
G1 X101.707 Y105.243
G1 X102.030 Y105.565
G1 X108.278 Y107.973
G1 X100.275 Y99.970
G1 X100.198 Y100.442
G1 X107.676 Y107.920
G1 X107.037 Y107.829
G1 X100.159 Y100.951
G1 X100.217 Y101.558
G1 X106.353 Y107.694
G1 X105.629 Y107.518
G1 X100.277 Y102.166
G1 X100.564 Y103.002
G1 X104.800 Y107.238
G1 X103.800 Y106.787
G1 X100.953 Y103.940
G1 X101.707 Y105.243
G1 X102.030 Y105.565
G1 X108.278 Y107.973
G1 X100.275 Y99.970
G1 X100.198 Y100.442
G1 X107.676 Y107.920
G1 X107.037 Y107.829
G1 X100.159 Y100.951
G1 X100.217 Y101.558
G1 X106.353 Y107.694
G1 X105.629 Y107.518
G1 X100.277 Y102.166
G1 X100.564 Y103.002
G1 X104.800 Y107.238
G1 X103.800 Y106.787
G1 X100.953 Y103.940
G1 X101.707 Y105.243
G1 X102.030 Y105.565
G1 X108.278 Y107.973
G1 X100.275 Y99.970
G1 X100.198 Y100.442
G1 X107.676 Y107.920
G1 X107.037 Y107.829
G1 X100.159 Y100.951
G1 X100.217 Y101.558
G1 X106.353 Y107.694
G1 X105.629 Y107.518
G1 X100.277 Y102.166
G1 X100.564 Y103.002
G1 X104.800 Y107.238
G1 X103.800 Y106.787
G1 X100.953 Y103.940
G1 X101.707 Y105.243
G1 X102.030 Y105.565
G1 X108.278 Y107.973
G1 X100.275 Y99.970
G1 X100.198 Y100.442
G1 X107.676 Y107.920
G1 X107.037 Y107.829
G1 X100.159 Y100.951
G1 X100.217 Y101.558
G1 X106.353 Y107.694
G1 X105.629 Y107.518
G1 X100.277 Y102.166
G1 X100.564 Y103.002
G1 X104.800 Y107.238
G1 X103.800 Y106.787
G1 X100.953 Y103.940
G1 X101.707 Y105.243
G1 X102.030 Y105.565
G1 X108.278 Y107.973
G1 X100.275 Y99.970
G1 X100.198 Y100.442
G1 X107.676 Y107.920
G1 X107.037 Y107.829
G1 X100.159 Y100.951
G1 X100.217 Y101.558
G1 X106.353 Y107.694
G1 X105.629 Y107.518
G1 X100.277 Y102.166
G1 X100.564 Y103.002
G1 X104.800 Y107.238
G1 X103.800 Y106.787
G1 X100.953 Y103.940
G1 X101.707 Y105.243
G1 X102.030 Y105.565
G1 X108.278 Y107.973
G1 X100.275 Y99.970
G1 X100.198 Y100.442
G1 X107.676 Y107.920
G1 X107.037 Y107.829
G1 X100.159 Y100.951
G1 X100.217 Y101.558
G1 X106.353 Y107.694
G1 X105.629 Y107.518
G1 X100.277 Y102.166
G1 X100.564 Y103.002
G1 X104.800 Y107.238
G1 X103.800 Y106.787
G1 X100.953 Y103.940
G1 X101.707 Y105.243
G1 X102.030 Y105.565
G1 X108.278 Y107.973
G1 X100.275 Y99.970
G1 X100.198 Y100.442
G1 X107.676 Y107.920
G1 X107.037 Y107.829
G1 X100.159 Y100.951
G1 X100.217 Y101.558
G1 X106.353 Y107.694
G1 X105.629 Y107.518
G1 X100.277 Y102.166
G1 X100.564 Y103.002
G1 X104.800 Y107.238
G1 X103.800 Y106.787
G1 X100.953 Y103.940
G1 X101.707 Y105.243
G1 X102.030 Y105.565
G1 X108.278 Y107.973
G1 X100.275 Y99.970
G1 X100.198 Y100.442
G1 X107.676 Y107.920
G1 X107.037 Y107.829
G1 X100.159 Y100.951
G1 X100.217 Y101.558
G1 X106.353 Y107.694
G1 X105.629 Y107.518
G1 X100.277 Y102.166
G1 X100.564 Y103.002
G1 X104.800 Y107.238
G1 X103.800 Y106.787
G1 X100.953 Y103.940
G1 X101.707 Y105.243
G1 X102.030 Y105.565
G1 X108.278 Y107.973
G1 X100.275 Y99.970
G1 X100.198 Y100.442
G1 X107.676 Y107.920
G1 X107.037 Y107.829
G1 X100.159 Y100.951
G1 X100.217 Y101.558
G1 X106.353 Y107.694
G1 X105.629 Y107.518
G1 X100.277 Y102.166
G1 X100.564 Y103.002
G1 X104.800 Y107.238
G1 X103.800 Y106.787
G1 X100.953 Y103.940
G1 X101.707 Y105.243
G1 X102.030 Y105.565
G1 X108.278 Y107.973
G1 X100.275 Y99.970
G1 X100.198 Y100.442
G1 X107.676 Y107.920
G1 X107.037 Y107.829
G1 X100.159 Y100.951
G1 X100.217 Y101.558
G1 X106.353 Y107.694
G1 X105.629 Y107.518
G1 X100.277 Y102.166
G1 X100.564 Y103.002
G1 X104.800 Y107.238
G1 X103.800 Y106.787
G1 X100.953 Y103.940
G1 X101.707 Y105.243
G1 X102.030 Y105.565
G1 X108.278 Y107.973
G1 X100.275 Y99.970
G1 X100.198 Y100.442
G1 X107.676 Y107.920
G1 X107.037 Y107.829
G1 X100.159 Y100.951
G1 X100.217 Y101.558
G1 X106.353 Y107.694
G1 X105.629 Y107.518
G1 X100.277 Y102.166
G1 X100.564 Y103.002
G1 X104.800 Y107.238
G1 X103.800 Y106.787
G1 X100.953 Y103.940
G1 X101.707 Y105.243
G1 X102.030 Y105.565
G1 X108.278 Y107.973
G1 X100.275 Y99.970
G1 X100.198 Y100.442
G1 X107.676 Y107.920
G1 X107.037 Y107.829
G1 X100.159 Y100.951
G1 X100.217 Y101.558
G1 X106.353 Y107.694
G1 X105.629 Y107.518
G1 X100.277 Y102.166
G1 X100.564 Y103.002
G1 X104.800 Y107.238
G1 X103.800 Y106.787
G1 X100.953 Y103.940
G1 X101.707 Y105.243
G1 X102.030 Y105.565
G1 X108.278 Y107.973
G1 X100.275 Y99.970
G1 X100.198 Y100.442
G1 X107.676 Y107.920
G1 X107.037 Y107.829
G1 X100.159 Y100.951
G1 X100.217 Y101.558
G1 X106.353 Y107.694
G1 X105.629 Y107.518
G1 X100.277 Y102.166
G1 X100.564 Y103.002
G1 X104.800 Y107.238
G1 X103.800 Y106.787
G1 X100.953 Y103.940
G1 X101.707 Y105.243
G1 X102.030 Y105.565
G1 X108.278 Y107.973
G1 X100.275 Y99.970
G1 X100.198 Y100.442
G1 X107.676 Y107.920
G1 X107.037 Y107.829
G1 X100.159 Y100.951
G1 X100.217 Y101.558
G1 X106.353 Y107.694
G1 X105.629 Y107.518
G1 X100.277 Y102.166
G1 X100.564 Y103.002
G1 X104.800 Y107.238
G1 X103.800 Y106.787
G1 X100.953 Y103.940
G1 X101.707 Y105.243
G1 X102.030 Y105.565
G1 X108.278 Y107.973
G1 X100.275 Y99.970
G1 X100.198 Y100.442
G1 X107.676 Y107.920
G1 X107.037 Y107.829
G1 X100.159 Y100.951
G1 X100.217 Y101.558
G1 X106.353 Y107.694
G1 X105.629 Y107.518
G1 X100.277 Y102.166
G1 X100.564 Y103.002
G1 X104.800 Y107.238
G1 X103.800 Y106.787
G1 X100.953 Y103.940
G1 X101.707 Y105.243
G1 X102.030 Y105.565
G1 X108.278 Y107.973
G1 X100.275 Y99.970
G1 X100.198 Y100.442
G1 X107.676 Y107.920
G1 X107.037 Y107.829
G1 X100.159 Y100.951
G1 X100.217 Y101.558
G1 X106.353 Y107.694
G1 X105.629 Y107.518
G1 X100.277 Y102.166
G1 X100.564 Y103.002
G1 X104.800 Y107.238
G1 X103.800 Y106.787
G1 X100.953 Y103.940
G1 X101.707 Y105.243
G1 X102.030 Y105.565
G1 X108.278 Y107.973
G1 X100.275 Y99.970
G1 X100.198 Y100.442
G1 X107.676 Y107.920
G1 X107.037 Y107.829
G1 X100.159 Y100.951
G1 X100.217 Y101.558
G1 X106.353 Y107.694
G1 X105.629 Y107.518
G1 X100.277 Y102.166
G1 X100.564 Y103.002
G1 X104.800 Y107.238
G1 X103.800 Y106.787
G1 X100.953 Y103.940
G1 X101.707 Y105.243
G1 X102.030 Y105.565
G1 X108.278 Y107.973
G1 X100.275 Y99.970
G1 X100.198 Y100.442
G1 X107.676 Y107.920
G1 X107.037 Y107.829
G1 X100.159 Y100.951
G1 X100.217 Y101.558
G1 X106.353 Y107.694
G1 X105.629 Y107.518
G1 X100.277 Y102.166
G1 X100.564 Y103.002
G1 X104.800 Y107.238
G1 X103.800 Y106.787
G1 X100.953 Y103.940
G1 X101.707 Y105.243
G1 X102.030 Y105.565
G1 X108.278 Y107.973
G1 X100.275 Y99.970
G1 X100.198 Y100.442
G1 X107.676 Y107.920
G1 X107.037 Y107.829
G1 X100.159 Y100.951
G1 X100.217 Y101.558
G1 X106.353 Y107.694
G1 X105.629 Y107.518
G1 X100.277 Y102.166
G1 X100.564 Y103.002
G1 X104.800 Y107.238
G1 X103.800 Y106.787
G1 X100.953 Y103.940
G1 X101.707 Y105.243
G1 X102.030 Y105.565
G1 X108.278 Y107.973
G1 X100.275 Y99.970
G1 X100.198 Y100.442
G1 X107.676 Y107.920
G1 X107.037 Y107.829
G1 X100.159 Y100.951
G1 X100.217 Y101.558
G1 X106.353 Y107.694
G1 X105.629 Y107.518
G1 X100.277 Y102.166
G1 X100.564 Y103.002
G1 X104.800 Y107.238
G1 X103.800 Y106.787
G1 X100.953 Y103.940
G1 X101.707 Y105.243
G1 X102.030 Y105.565
G1 X108.278 Y107.973
G1 X100.275 Y99.970
G1 X100.198 Y100.442
G1 X107.676 Y107.920
G1 X107.037 Y107.829
G1 X100.159 Y100.951
G1 X100.217 Y101.558
G1 X106.353 Y107.694
G1 X105.629 Y107.518
G1 X100.277 Y102.166
G1 X100.564 Y103.002
G1 X104.800 Y107.238
G1 X103.800 Y106.787
G1 X100.953 Y103.940
G1 X101.707 Y105.243
G1 X102.030 Y105.565
G1 X108.278 Y107.973
G1 X100.275 Y99.970
G1 X100.198 Y100.442
G1 X107.676 Y107.920
G1 X107.037 Y107.829
G1 X100.159 Y100.951
G1 X100.217 Y101.558
G1 X106.353 Y107.694
G1 X105.629 Y107.518
G1 X100.277 Y102.166
G1 X100.564 Y103.002
G1 X104.800 Y107.238
G1 X103.800 Y106.787
G1 X100.953 Y103.940
G1 X101.707 Y105.243
G1 X102.030 Y105.565
G1 X108.278 Y107.973
G1 X100.275 Y99.970
G1 X100.198 Y100.442
G1 X107.676 Y107.920
G1 X107.037 Y107.829
G1 X100.159 Y100.951
G1 X100.217 Y101.558
G1 X106.353 Y107.694
G1 X105.629 Y107.518
G1 X100.277 Y102.166
G1 X100.564 Y103.002
G1 X104.800 Y107.238
G1 X103.800 Y106.787
G1 X100.953 Y103.940
G1 X101.707 Y105.243
G1 X102.030 Y105.565
G1 X108.278 Y107.973
G1 X100.275 Y99.970
G1 X100.198 Y100.442
G1 X107.676 Y107.920
G1 X107.037 Y107.829
G1 X100.159 Y100.951
G1 X100.217 Y101.558
G1 X106.353 Y107.694
G1 X105.629 Y107.518
G1 X100.277 Y102.166
G1 X100.564 Y103.002
G1 X104.800 Y107.238
G1 X103.800 Y106.787
G1 X100.953 Y103.940
G1 X101.707 Y105.243
G1 X102.030 Y105.565
G1 X108.278 Y107.973
G1 X100.275 Y99.970
G1 X100.198 Y100.442
G1 X107.676 Y107.920
G1 X107.037 Y107.829
G1 X100.159 Y100.951
G1 X100.217 Y101.558
G1 X106.353 Y107.694
G1 X105.629 Y107.518
G1 X100.277 Y102.166
G1 X100.564 Y103.002
G1 X104.800 Y107.238
G1 X103.800 Y106.787
G1 X100.953 Y103.940
G1 X101.707 Y105.243
G1 X102.030 Y105.565
G1 X108.278 Y107.973
G1 X100.275 Y99.970
G1 X100.198 Y100.442
G1 X107.676 Y107.920
G1 X107.037 Y107.829
G1 X100.159 Y100.951
G1 X100.217 Y101.558
G1 X106.353 Y107.694
G1 X105.629 Y107.518
G1 X100.277 Y102.166
G1 X100.564 Y103.002
G1 X104.800 Y107.238
G1 X103.800 Y106.787
G1 X100.953 Y103.940
G1 X101.707 Y105.243
G1 X102.030 Y105.565
G1 X108.278 Y107.973
G1 X100.275 Y99.970
G1 X100.198 Y100.442
G1 X107.676 Y107.920
G1 X107.037 Y107.829
G1 X100.159 Y100.951
G1 X100.217 Y101.558
G1 X106.353 Y107.694
G1 X105.629 Y107.518
G1 X100.277 Y102.166
G1 X100.564 Y103.002
G1 X104.800 Y107.238
G1 X103.800 Y106.787
G1 X100.953 Y103.940
G1 X101.707 Y105.243
G1 X102.030 Y105.565
G1 X108.278 Y107.973
G1 X100.275 Y99.970
G1 X100.198 Y100.442
G1 X107.676 Y107.920
G1 X107.037 Y107.829
G1 X100.159 Y100.951
G1 X100.217 Y101.558
G1 X106.353 Y107.694
G1 X105.629 Y107.518
G1 X100.277 Y102.166
G1 X100.564 Y103.002
G1 X104.800 Y107.238
G1 X103.800 Y106.787
G1 X100.953 Y103.940
G1 X101.707 Y105.243
G1 X102.030 Y105.565
G1 X108.278 Y107.973
G1 X100.275 Y99.970
G1 X100.198 Y100.442
G1 X107.676 Y107.920
G1 X107.037 Y107.829
G1 X100.159 Y100.951
G1 X100.217 Y101.558
G1 X106.353 Y107.694
G1 X105.629 Y107.518
G1 X100.277 Y102.166
G1 X100.564 Y103.002
G1 X104.800 Y107.238
G1 X103.800 Y106.787
G1 X100.953 Y103.940
G1 X101.707 Y105.243
G1 X102.030 Y105.565
G1 X108.278 Y107.973
G1 X100.275 Y99.970
G1 X100.198 Y100.442
G1 X107.676 Y107.920
G1 X107.037 Y107.829
G1 X100.159 Y100.951
G1 X100.217 Y101.558
G1 X106.353 Y107.694
G1 X105.629 Y107.518
G1 X100.277 Y102.166
G1 X100.564 Y103.002
G1 X104.800 Y107.238
G1 X103.800 Y106.787
G1 X100.953 Y103.940
G1 X101.707 Y105.243
G1 X102.030 Y105.565
G1 X108.278 Y107.973
G1 X100.275 Y99.970
G1 X100.198 Y100.442
G1 X107.676 Y107.920
G1 X107.037 Y107.829
G1 X100.159 Y100.951
G1 X100.217 Y101.558
G1 X106.353 Y107.694
G1 X105.629 Y107.518
G1 X100.277 Y102.166
G1 X100.564 Y103.002
G1 X104.800 Y107.238
G1 X103.800 Y106.787
G1 X100.953 Y103.940
G1 X101.707 Y105.243
G1 X102.030 Y105.565
G1 X108.278 Y107.973
G1 X100.275 Y99.970
G1 X100.198 Y100.442
G1 X107.676 Y107.920
G1 X107.037 Y107.829
G1 X100.159 Y100.951
G1 X100.217 Y101.558
G1 X106.353 Y107.694
G1 X105.629 Y107.518
G1 X100.277 Y102.166
G1 X100.564 Y103.002
G1 X104.800 Y107.238
G1 X103.800 Y106.787
G1 X100.953 Y103.940
G1 X101.707 Y105.243
G1 X102.030 Y105.565
G1 X108.278 Y107.973
G1 X100.275 Y99.970
G1 X100.198 Y100.442
G1 X107.676 Y107.920
G1 X107.037 Y107.829
G1 X100.159 Y100.951
G1 X100.217 Y101.558
G1 X106.353 Y107.694
G1 X105.629 Y107.518
G1 X100.277 Y102.166
G1 X100.564 Y103.002
G1 X104.800 Y107.238
G1 X103.800 Y106.787
G1 X100.953 Y103.940
G1 X101.707 Y105.243
G1 X102.030 Y105.565
G1 X108.278 Y107.973
G1 X100.275 Y99.970
G1 X100.198 Y100.442
G1 X107.676 Y107.920
G1 X107.037 Y107.829
G1 X100.159 Y100.951
G1 X100.217 Y101.558
G1 X106.353 Y107.694
G1 X105.629 Y107.518
G1 X100.277 Y102.166
G1 X100.564 Y103.002
G1 X104.800 Y107.238
G1 X103.800 Y106.787
G1 X100.953 Y103.940
G1 X101.707 Y105.243
G1 X102.030 Y105.565
G1 X108.278 Y107.973
G1 X100.275 Y99.970
G1 X100.198 Y100.442
G1 X107.676 Y107.920
G1 X107.037 Y107.829
G1 X100.159 Y100.951
G1 X100.217 Y101.558
G1 X106.353 Y107.694
G1 X105.629 Y107.518
G1 X100.277 Y102.166
