; generated by Slic3r 1.1.7 on 2014-10-05 at 14:50:17

; perimeters extrusion width = 0.37mm
; infill extrusion width = 0.60mm
; solid infill extrusion width = 0.38mm
; top infill extrusion width = 0.30mm

G21 ; set units to millimeters
M107
G28 ; home all axes
M203 X192 Y208 Z3 ; Speed limits to minimize skipped steps when moving really fast courtesy of forum.lulzbot.com user 1013
G90 ; use absolute coordinates
G92 E0
M82 ; use absolute distances for extrusion
M204 S1000
G1 F1500.000 E-2.00000
G92 E0
G1 Z0.300 F12000.000
G1 X78.114 Y114.947 F12000.000
G1 E2.00000 F1500.000
G1 X79.308 Y114.383 E2.02826 F2340.000
G1 X83.339 Y112.750 E2.12130
G1 X137.898 Y97.073 E3.33581
G1 X139.942 Y96.785 E3.37998
G1 X142.060 Y96.880 E3.42534
G1 X188.233 Y104.450 E4.42637 F2340.000
G1 X207.306 Y110.826 E4.85663
G1 X210.700 Y112.505 E4.93766
G1 X219.236 Y117.401 E5.14818
G1 X221.451 Y118.693 E5.20304
G1 X224.018 Y120.226 E5.26700
G1 X226.010 Y121.966 E5.32359
G1 X227.267 Y123.701 E5.36944
G1 X227.470 Y124.064 E5.37835
G1 X228.225 Y126.029 E5.42337
G1 X228.433 Y126.940 E5.44336
G1 X228.619 Y128.547 E5.47799
G1 X228.620 Y128.811 E5.48362
G1 X228.435 Y130.497 E5.51991
G1 X228.085 Y131.939 E5.55165
G1 X217.782 Y165.421 E6.30115
G1 X216.923 Y167.263 E6.34463
G1 X215.645 Y169.173 E6.39380
G1 X215.062 Y169.904 E6.41379
G1 X212.487 Y171.958 E6.48427
G1 X210.737 Y172.728 E6.52517
G1 X209.010 Y173.294 E6.56406
G1 X207.134 Y173.650 E6.60491
G1 X111.082 Y179.215 E8.66335
G1 X110.147 Y179.215 E8.68335
G1 X106.878 Y178.454 E8.75517
G1 X103.204 Y176.619 E8.84304
G1 X84.810 Y165.633 E9.30140
G1 X78.621 Y161.569 E9.45983
G1 X72.939 Y157.008 E9.61569
G1 X71.786 Y155.851 E9.65065
G1 X71.203 Y155.121 E9.67064
G1 X69.773 Y152.151 E9.74115
G1 X69.565 Y151.240 E9.76115
G1 X69.388 Y149.248 E9.80394
G1 X70.394 Y127.710 E10.26523
G1 X70.571 Y126.409 E10.29334
G1 X70.936 Y124.917 E10.32618
G1 X71.776 Y122.254 E10.38593
G1 X73.049 Y119.865 E10.44384
G1 X73.900 Y118.817 E10.47272
G1 X75.806 Y116.684 E10.53393
G1 X78.072 Y114.979 E10.59460
G1 X78.317 Y115.369 F12000.000
G1 X79.489 Y114.815 E10.62234 F2340.000
G1 X83.468 Y113.199 E10.71421
G1 X138.027 Y97.522 E11.92872
G1 X139.942 Y97.252 E11.97010
G1 X141.985 Y97.342 E12.01385
G1 X188.086 Y104.894 E13.01330 F2340.000
G1 X207.100 Y111.246 E13.44221
G1 X210.468 Y112.911 E13.52258
G1 X219.001 Y117.805 E13.73303
G1 X221.212 Y119.094 E13.78779
G1 X223.778 Y120.627 E13.85175
G1 X225.644 Y122.257 E13.90476
G1 X226.859 Y123.929 E13.94898
G1 X227.062 Y124.293 E13.95788
G1 X227.769 Y126.133 E14.00006
G1 X227.977 Y127.044 E14.02005
G1 X228.151 Y128.550 E14.05249
G1 X228.152 Y128.813 E14.05812
G1 X227.979 Y130.393 E14.09212
G1 X227.638 Y131.801 E14.12312
G1 X217.335 Y165.284 E14.87262
G1 X216.530 Y167.009 E14.91335
G1 X215.279 Y168.881 E14.96152
G1 X214.696 Y169.612 E14.98151
G1 X212.284 Y171.536 E15.04754
G1 X210.591 Y172.284 E15.08712
G1 X208.864 Y172.850 E15.12601
G1 X207.107 Y173.183 E15.16428
G1 X111.082 Y178.748 E17.22214
G1 X110.147 Y178.748 E17.24214
G1 X107.084 Y178.035 E17.30942
G1 X103.443 Y176.217 E17.39648
G1 X85.065 Y165.241 E17.85447
G1 X78.913 Y161.204 E18.01189
G1 X73.232 Y156.644 E18.16775
G1 X72.152 Y155.559 E18.20050
G1 X71.569 Y154.829 E18.22049
G1 X70.229 Y152.047 E18.28655
G1 X70.021 Y151.136 E18.30654
G1 X69.855 Y149.269 E18.34663
G1 X70.861 Y127.732 E18.80792
G1 X71.027 Y126.513 E18.83425
G1 X71.383 Y125.058 E18.86629
G1 X72.223 Y122.395 E18.92603
G1 X73.414 Y120.157 E18.98028
G1 X74.248 Y119.129 E19.00860
G1 X76.155 Y116.996 E19.06981
G1 X78.275 Y115.400 E19.12658
G1 X78.520 Y115.790 F12000.000
G1 X79.670 Y115.246 E19.15379 F2340.000
G1 X83.597 Y113.649 E19.24450
G1 X138.156 Y97.972 E20.45900
G1 X139.942 Y97.720 E20.49760
G1 X141.911 Y97.803 E20.53975
G1 X187.939 Y105.339 E21.53761 F2340.000
G1 X206.894 Y111.666 E21.96516
G1 X210.235 Y113.317 E22.04489
G1 X218.765 Y118.209 E22.25526
G1 X220.972 Y119.496 E22.30991
G1 X223.538 Y121.029 E22.37387
G1 X225.279 Y122.549 E22.42331
G1 X226.451 Y124.157 E22.46589
G1 X226.654 Y124.521 E22.47479
G1 X227.313 Y126.237 E22.51412
G1 X227.521 Y127.148 E22.53412
G1 X227.683 Y128.552 E22.56436
G1 X227.685 Y128.816 E22.57000
G1 X227.523 Y130.289 E22.60170
G1 X227.191 Y131.663 E22.63196
G1 X216.887 Y165.146 E23.38146
G1 X216.137 Y166.755 E23.41945
G1 X214.913 Y168.590 E23.46662
G1 X214.331 Y169.320 E23.48662
G1 X212.081 Y171.115 E23.54819
G1 X210.446 Y171.839 E23.58645
G1 X208.718 Y172.405 E23.62534
G1 X207.080 Y172.716 E23.66102
G1 X111.082 Y178.280 E25.71831
G1 X110.147 Y178.280 E25.73830
G1 X107.291 Y177.615 E25.80105
G1 X103.683 Y175.816 E25.88730
G1 X85.320 Y164.848 E26.34491
G1 X79.206 Y160.839 E26.50133
G1 X73.525 Y156.279 E26.65719
G1 X72.517 Y155.268 E26.68773
G1 X71.935 Y154.537 E26.70772
G1 X70.685 Y151.943 E26.76932
G1 X70.477 Y151.032 E26.78932
G1 X70.322 Y149.291 E26.82670
G1 X71.328 Y127.754 E27.28799
G1 X71.483 Y126.617 E27.31255
G1 X71.829 Y125.199 E27.34377
G1 X72.669 Y122.536 E27.40351
G1 X73.780 Y120.449 E27.45410
G1 X74.597 Y119.440 E27.48186
G1 X76.504 Y117.307 E27.54307
G1 X78.478 Y115.822 E27.59593
G1 F1500.000 E25.59593
G92 E0
G1 X167.662 Y138.191 F12000.000
G1 E2.00000 F1500.000
G1 X164.818 Y137.267 E2.06398 F4485.000
G1 X164.818 Y134.277 E2.12796
G1 X167.662 Y133.353 E2.19193
G1 X169.420 Y135.772 E2.25591
G1 X167.693 Y138.149 E2.31876
G1 X167.484 Y137.642 F12000.000
G1 X165.286 Y136.928 E2.36820 F4485.000
G1 X165.286 Y134.617 E2.41763
G1 X167.484 Y133.903 E2.46707
G1 X168.842 Y135.772 E2.51650
G1 X167.514 Y137.599 E2.56481
G1 X167.305 Y137.092 F12000.000
G1 X165.754 Y136.588 E2.59970 F4485.000
G1 X165.754 Y134.957 E2.63459
G1 X167.305 Y134.453 E2.66949
G1 X168.264 Y135.772 E2.70438
G1 X167.336 Y137.049 E2.73814
G1 X167.126 Y136.542 F12000.000
G1 X166.222 Y136.248 E2.75849 F3510.000
G1 X166.222 Y135.297 E2.77884
G1 X167.126 Y135.003 E2.79919
G1 X167.685 Y135.772 E2.81953
G1 X167.157 Y136.499 E2.83876
G1 X166.984 Y136.861 F12000.000
G1 F1500.000 E0.83876
G92 E0
G1 X102.741 Y155.353 F12000.000
G1 E2.00000 F1500.000
G1 X99.211 Y151.415 E2.11316 F4485.000
G1 X98.232 Y150.266 E2.14546
G1 X95.637 Y146.808 E2.23795
G1 X92.999 Y142.621 E2.34381
G1 X91.106 Y138.218 E2.44637
G1 X90.375 Y133.874 E2.54061
G1 X91.335 Y130.942 E2.60662
G1 X93.905 Y129.193 E2.67314
G1 X96.954 Y128.979 E2.73852
G1 X99.650 Y130.618 E2.80602
G1 X102.597 Y134.746 E2.91455
G1 X104.255 Y139.701 E3.02633
G1 X104.958 Y144.737 E3.13511
G1 X105.263 Y150.108 E3.25020
G1 X104.686 Y151.461 E3.28167
G1 X102.765 Y155.306 E3.37364
G1 X102.630 Y154.528 F12000.000
G1 X99.564 Y151.107 E3.47195 F4485.000
G1 X98.597 Y149.973 E3.50382
G1 X96.023 Y146.542 E3.59559
G1 X93.415 Y142.403 E3.70026
G1 X91.558 Y138.085 E3.80083
G1 X90.855 Y133.910 E3.89140
G1 X91.730 Y131.239 E3.95154
G1 X94.064 Y129.651 E4.01194
G1 X96.838 Y129.456 E4.07144
G1 X99.325 Y130.968 E4.13370
G1 X102.176 Y134.961 E4.23867
G1 X103.798 Y139.809 E4.34804
G1 X104.492 Y144.782 E4.45548
G1 X104.790 Y150.025 E4.56782
G1 X104.262 Y151.264 E4.59664
G1 X102.654 Y154.482 E4.67359
G1 X102.520 Y153.704 F12000.000
G1 X99.916 Y150.799 E4.75705 F4485.000
G1 X98.963 Y149.681 E4.78848
G1 X96.408 Y146.277 E4.87954
G1 X93.830 Y142.185 E4.98302
G1 X92.010 Y137.951 E5.08160
G1 X91.336 Y133.946 E5.16850
G1 X92.125 Y131.536 E5.22276
G1 X94.222 Y130.108 E5.27705
G1 X96.722 Y129.934 E5.33066
G1 X99.000 Y131.318 E5.38768
G1 X101.754 Y135.176 E5.48911
G1 X103.340 Y139.916 E5.59605
G1 X104.026 Y144.828 E5.70216
G1 X104.317 Y149.942 E5.81175
G1 X103.837 Y151.068 E5.83793
G1 X102.543 Y153.657 E5.89985
G1 X102.409 Y152.879 F12000.000
G1 X100.268 Y150.491 E5.96847 F3510.000
G1 X99.328 Y149.388 E5.99946
G1 X96.794 Y146.011 E6.08980
G1 X94.245 Y141.966 E6.19208
G1 X92.462 Y137.818 E6.28868
G1 X91.816 Y133.982 E6.37191
G1 X92.520 Y131.833 E6.42030
G1 X94.381 Y130.566 E6.46847
G1 X96.607 Y130.411 E6.51619
G1 X98.675 Y131.668 E6.56798
G1 X101.333 Y135.391 E6.66585
G1 X102.883 Y140.024 E6.77037
G1 X103.560 Y144.874 E6.87514
G1 X103.843 Y149.859 E6.98198
G1 X103.412 Y150.871 E7.00552
G1 X102.432 Y152.832 E7.05242
G1 X102.179 Y153.144 F12000.000
G1 X91.136 Y150.846 F12000.000
G1 X88.006 Y147.251 E7.15440 F4485.000
G1 X87.476 Y146.586 E7.17257
G1 X83.277 Y140.620 E7.32867
G1 X80.251 Y134.085 E7.48273
G1 X79.459 Y130.737 E7.55635
G1 X79.444 Y128.237 E7.60984
G1 X79.594 Y127.578 E7.62430
G1 X80.321 Y125.272 E7.67603
G1 X80.683 Y124.818 E7.68846
G1 X82.340 Y122.964 E7.74164
G1 X82.847 Y122.720 E7.75368
G1 X85.715 Y121.519 E7.82022
G1 X89.471 Y121.598 E7.90057
G1 X92.531 Y122.529 E7.96901
G1 X96.352 Y124.352 E8.05959
G1 X99.704 Y126.247 E8.14198
G1 X103.057 Y128.192 E8.22490
G1 X106.246 Y130.262 E8.30625
G1 X109.125 Y132.521 E8.38454
G1 X112.189 Y136.263 E8.48801
G1 X113.817 Y139.816 E8.57163
G1 X114.992 Y144.654 E8.67815
G1 X115.426 Y148.402 E8.75886
G1 X116.817 Y149.111 E8.79226
G1 X120.387 Y151.147 E8.88019
G1 X120.280 Y145.184 E9.00779
G1 X119.241 Y138.701 E9.14825
G1 X118.749 Y136.594 E9.19454
G1 X117.952 Y133.677 E9.25923
G1 X117.023 Y130.794 E9.32403
G1 X115.955 Y128.010 E9.38784
G1 X115.098 Y127.526 E9.40891
G1 X114.705 Y127.045 E9.42219
G1 X114.665 Y126.869 E9.42603
G1 X114.705 Y126.694 E9.42988
G1 X115.009 Y126.313 E9.44029
G1 X115.260 Y126.193 E9.44625
G1 X115.440 Y126.193 E9.45010
G1 X115.655 Y126.296 E9.45521
G1 X116.339 Y126.496 E9.47047
G1 X116.654 Y126.412 E9.47744
G1 X117.043 Y126.412 E9.48577
G1 X119.185 Y127.290 E9.53529
G1 X121.748 Y128.081 E9.59268
G1 X124.113 Y128.682 E9.64488
G1 X124.614 Y128.923 E9.65679
G1 X125.125 Y129.357 E9.67113
G1 X125.486 Y129.811 E9.68354
G1 X127.012 Y133.057 E9.76027
G1 X128.692 Y130.950 E9.81792
G1 X128.854 Y130.872 E9.82177
G1 X129.068 Y130.872 E9.82635
G1 X131.336 Y131.855 E9.87923
G1 X131.975 Y132.162 E9.89441
G1 X132.969 Y132.966 E9.92174
G1 X135.052 Y133.854 E9.97020
G1 X135.845 Y134.236 E9.98903
G1 X138.007 Y135.332 E10.04088
G1 X138.124 Y135.479 E10.04491
G1 X138.353 Y136.531 E10.06794
G1 X138.892 Y137.710 E10.09568
G1 X139.477 Y138.785 E10.12185
G1 X139.941 Y139.839 E10.14650
G1 X141.010 Y142.047 E10.19898
G1 X141.960 Y144.214 E10.24959
G1 X142.718 Y146.374 E10.29857
G1 X143.288 Y148.901 E10.35400
G1 X144.114 Y150.406 E10.39072
G1 X144.747 Y151.446 E10.41678
G1 X145.642 Y152.227 E10.44219
G1 X147.563 Y152.417 E10.48349
G1 X148.371 Y150.594 E10.52614
G1 X148.534 Y149.323 E10.55356
G1 X148.690 Y147.627 E10.59001
G1 X148.195 Y143.133 E10.68674
G1 X146.982 Y139.127 E10.77629
G1 X145.299 Y134.810 E10.87541
G1 X143.767 Y130.547 E10.97233
G1 X141.871 Y125.061 E11.09651
G1 X140.192 Y119.541 E11.21996
G1 X140.002 Y118.707 E11.23826
G1 X138.877 Y113.142 E11.35973
G1 X138.633 Y107.654 E11.47726
G1 X138.744 Y107.170 E11.48787
G1 X139.060 Y106.566 E11.50246
G1 X139.309 Y106.254 E11.51100
G1 X139.757 Y106.038 E11.52163
G1 X140.256 Y105.841 E11.53312
G1 X140.739 Y105.841 E11.54344
G1 X141.344 Y105.943 E11.55658
G1 X141.882 Y106.202 E11.56935
G1 X142.702 Y106.731 E11.59022
G1 X146.193 Y108.703 E11.67601
G1 X149.539 Y110.699 E11.75936
G1 X152.630 Y112.889 E11.84041
G1 X155.386 Y115.458 E11.92102
G1 X157.539 Y118.041 E11.99296
G1 X158.069 Y118.706 E12.01115
G1 X159.948 Y121.494 E12.08309
G1 X160.812 Y122.979 E12.11984
G1 X161.819 Y122.979 E12.14139
G1 X163.038 Y123.294 E12.16832
G1 X166.066 Y124.368 E12.23707
G1 X167.697 Y124.789 E12.27309
G1 X170.313 Y125.397 E12.33057
G1 X170.919 Y125.688 E12.34494
G1 X171.717 Y126.173 E12.36493
G1 X171.933 Y126.444 E12.37234
G1 X172.272 Y127.463 E12.39531
G1 X172.871 Y129.596 E12.44271
G1 X173.467 Y131.815 E12.49188
G1 X174.237 Y134.100 E12.54346
G1 X175.447 Y136.529 E12.60153
G1 X178.085 Y135.894 E12.65957
G1 X178.060 Y133.603 E12.70858
G1 X177.722 Y129.775 E12.79080
G1 X177.610 Y126.218 E12.86694
G1 X178.236 Y123.024 E12.93657
G1 X178.416 Y122.234 E12.95390
G1 X179.511 Y119.178 E13.02336
G1 X181.096 Y116.401 E13.09176
G1 X181.571 Y115.805 E13.10806
G1 X183.620 Y113.502 E13.17401
G1 X183.959 Y113.339 E13.18206
G1 X185.120 Y113.133 E13.20730
G1 X185.598 Y113.133 E13.21752
G1 X186.698 Y113.562 E13.24279
G1 X187.399 Y113.900 E13.25944
G1 X188.805 Y114.784 E13.29496
G1 X192.716 Y116.720 E13.38833
G1 X194.911 Y118.085 E13.44363
G1 X196.894 Y119.674 E13.49800
G1 X198.450 Y121.332 E13.54665
G1 X199.621 Y119.500 E13.59317
G1 X199.915 Y119.132 E13.60324
G1 X200.356 Y118.920 E13.61373
G1 X201.133 Y118.621 E13.63153
G1 X201.579 Y118.621 E13.64107
G1 X203.500 Y119.047 E13.68318
G1 X206.226 Y120.381 E13.74811
G1 X208.260 Y121.619 E13.79905
G1 X210.366 Y122.751 E13.85021
G1 X212.495 Y123.992 E13.90292
G1 X214.685 Y125.231 E13.95675
G1 X216.794 Y126.461 E14.00900
G1 X218.756 Y127.711 E14.05876
G1 X219.164 Y127.908 E14.06847
G1 X219.448 Y128.275 E14.07840
G1 X219.550 Y128.721 E14.08820
G1 X219.481 Y129.025 E14.09487
G1 X219.369 Y129.166 E14.09871
G1 X219.207 Y129.244 E14.10256
G1 X218.544 Y129.244 E14.11674
G1 X218.267 Y129.590 E14.12624
G1 X217.880 Y129.777 E14.13542
G1 X217.302 Y129.951 E14.14833
G1 X216.962 Y129.951 E14.15561
G1 X215.668 Y129.350 E14.18612
G1 X214.740 Y128.690 E14.21050
G1 X212.618 Y127.589 E14.26163
G1 X209.408 Y125.642 E14.34196
G1 X208.843 Y129.745 E14.43056
G1 X208.845 Y134.335 E14.52878
G1 X209.053 Y140.354 E14.65761
G1 X209.293 Y143.419 E14.72339
G1 X209.710 Y145.960 E14.77848
G1 X210.240 Y146.921 E14.80198
G1 X210.393 Y147.611 E14.81710
G1 X210.340 Y147.844 E14.82220
G1 X210.228 Y147.984 E14.82604
G1 X210.059 Y148.066 E14.83006
G1 X209.306 Y148.072 E14.84616
G1 X205.223 Y146.236 E14.94196
G1 X205.223 Y153.816 E15.10414
G1 X207.330 Y155.686 E15.16440
G1 X207.683 Y156.129 E15.17653
G1 X208.737 Y158.603 E15.23406
G1 X209.208 Y160.157 E15.26880
G1 X209.351 Y160.781 E15.28249
G1 X209.271 Y162.097 E15.31072
G1 X209.159 Y162.591 E15.32156
G1 X208.513 Y163.590 E15.34700
G1 X208.217 Y163.961 E15.35716
G1 X207.813 Y164.156 E15.36674
G1 X206.441 Y164.605 E15.39765
G1 X205.987 Y164.605 E15.40735
G1 X204.927 Y164.322 E15.43083
G1 X204.357 Y164.048 E15.44435
G1 X203.289 Y163.275 E15.47256
G1 X202.114 Y162.366 E15.50434
G1 X201.162 Y161.992 E15.52622
G1 X199.013 Y161.063 E15.57632
G1 X196.819 Y160.160 E15.62708
G1 X194.703 Y159.250 E15.67636
G1 X192.156 Y158.008 E15.73698
G1 X191.880 Y157.662 E15.74646
G1 X191.339 Y156.740 E15.76933
G1 X191.211 Y156.178 E15.78165
G1 X191.113 Y155.197 E15.80276
G1 X191.243 Y154.629 E15.81521
G1 X191.560 Y153.687 E15.83648
G1 X191.926 Y153.228 E15.84903
G1 X192.766 Y152.312 E15.87564
G1 X193.978 Y151.405 E15.90802
G1 X194.620 Y151.095 E15.92327
G1 X195.989 Y150.556 E15.95475
G1 X197.984 Y150.520 E15.99743
G1 X201.530 Y152.182 E16.08121
G1 X201.530 Y145.258 E16.22935
G1 X199.271 Y144.607 E16.27963
G1 X198.895 Y144.426 E16.28857
G1 X198.725 Y144.213 E16.29441
G1 X198.341 Y143.100 E16.31960
G1 X198.195 Y142.464 E16.33354
G1 X198.207 Y141.147 E16.36173
G1 X198.395 Y139.509 E16.39702
G1 X198.415 Y137.643 E16.43694
G1 X197.544 Y133.880 E16.51956
G1 X195.855 Y129.488 E16.62024
G1 X193.636 Y125.360 E16.72050
G1 X191.577 Y122.421 E16.79730
G1 X189.836 Y125.006 E16.86398
G1 X188.840 Y128.379 E16.93922
G1 X188.583 Y132.230 E17.02179
G1 X188.904 Y136.076 E17.10437
G1 X188.972 Y138.906 E17.16494
G1 X188.914 Y141.724 E17.22523
G1 X188.563 Y144.452 E17.28408
G1 X188.387 Y145.222 E17.30098
G1 X187.632 Y147.637 E17.35512
G1 X186.492 Y149.017 E17.39341
G1 X186.012 Y149.248 E17.40480
G1 X184.978 Y149.675 E17.42873
G1 X184.417 Y149.675 E17.44074
G1 X183.295 Y149.613 E17.46478
G1 X182.796 Y149.373 E17.47662
G1 X181.464 Y148.626 E17.50930
G1 X176.989 Y146.293 E17.61726
G1 X173.884 Y144.499 E17.69400
G1 X173.181 Y147.610 E17.76224
G1 X172.730 Y148.360 E17.78096
G1 X172.451 Y148.710 E17.79055
G1 X172.289 Y148.789 E17.79439
G1 X172.071 Y148.789 E17.79906
G1 X169.777 Y147.807 E17.85245
G1 X168.987 Y147.426 E17.87119
G1 X166.457 Y146.124 E17.93208
G1 X163.924 Y144.733 E17.99391
G1 X161.664 Y143.538 E18.04861
G1 X161.436 Y143.252 E18.05643
G1 X158.726 Y136.906 E18.20405
G1 X155.655 Y138.098 E18.27455
G1 X158.618 Y146.559 E18.46636
G1 X158.797 Y147.340 E18.48348
G1 X159.299 Y150.181 E18.54521
G1 X159.479 Y152.997 E18.60558
G1 X159.135 Y155.751 E18.66495
