; generated by Slic3r 1.1.7 on 2014-10-05 at 11:58:07

; perimeters extrusion width = 0.37mm
; infill extrusion width = 0.60mm
; solid infill extrusion width = 0.38mm
; top infill extrusion width = 0.30mm

G21 ; set units to millimeters
G28 ; home all axes
G1 Z7; lift nozzle
G90 ; use absolute coordinates
G92 E0
M82 ; use absolute distances for extrusion
G1 Z11
G1 X168.362 Y130.879
G1 X167.739 Y130.696
G1 X171.912 Y134.870
G1 X171.986 Y135.383
G1 X167.262 Y130.659
G1 X166.822 Y130.659
G1 X172.029 Y135.866
G1 X171.974 Y136.250
G1 X166.382 Y130.659
G1 X165.987 Y130.704
G1 X171.918 Y136.635
G1 X171.863 Y137.020
G1 X165.647 Y130.804
G1 X165.307 Y130.904
G1 X171.770 Y137.366
G1 X171.632 Y137.668
G1 X164.967 Y131.004
G1 X164.649 Y131.125
G1 X171.494 Y137.970
G1 X171.356 Y138.272
G1 X164.381 Y131.297
G1 X164.113 Y131.470
G1 X171.216 Y138.572
G1 X171.012 Y138.808
G1 X163.845 Y131.642
G1 X163.578 Y131.814
G1 X170.808 Y139.044
G1 X170.603 Y139.279
G1 X163.357 Y132.033
G1 X163.149 Y132.265
G1 X170.396 Y139.512
G1 X170.175 Y139.731
G1 X162.945 Y132.501
G1 X162.741 Y132.737
G1 X169.907 Y139.903
G1 X169.639 Y140.075
G1 X162.536 Y132.972
G1 X162.397 Y133.272
G1 X169.371 Y140.247
G1 X169.104 Y140.419
G1 X162.259 Y133.574
G1 X162.121 Y133.876
G1 X168.785 Y140.541
G1 X168.445 Y140.641
G1 X161.983 Y134.178
G1 X161.890 Y134.525
G1 X168.105 Y140.741
G1 X167.765 Y140.841
G1 X161.834 Y134.910
G1 X161.779 Y135.294
G1 X167.370 Y140.886
G1 X166.931 Y140.886
G1 X161.724 Y135.679
G1 X161.766 Y136.161
G1 X166.491 Y140.886
G1 X166.013 Y140.848
G1 X161.840 Y136.675
G1 X161.914 Y137.189
G1 X165.390 Y140.665
G1 X164.768 Y140.482
G1 X162.261 Y137.976
G1 X168.362 Y130.879
G1 X167.739 Y130.696
G1 X171.912 Y134.870
G1 X171.986 Y135.383
G1 X167.262 Y130.659
G1 X166.822 Y130.659
G1 X172.029 Y135.866
G1 X171.974 Y136.250
G1 X166.382 Y130.659
G1 X165.987 Y130.704
G1 X171.918 Y136.635
G1 X171.863 Y137.020
G1 X165.647 Y130.804
G1 X165.307 Y130.904
G1 X171.770 Y137.366
G1 X171.632 Y137.668
G1 X164.967 Y131.004
G1 X164.649 Y131.125
G1 X171.494 Y137.970
G1 X171.356 Y138.272
G1 X164.381 Y131.297
G1 X164.113 Y131.470
G1 X171.216 Y138.572
G1 X171.012 Y138.808
G1 X163.845 Y131.642
G1 X163.578 Y131.814
G1 X170.808 Y139.044
G1 X170.603 Y139.279
G1 X163.357 Y132.033
G1 X163.149 Y132.265
G1 X170.396 Y139.512
G1 X170.175 Y139.731
G1 X162.945 Y132.501
G1 X162.741 Y132.737
G1 X169.907 Y139.903
G1 X169.639 Y140.075
G1 X162.536 Y132.972
G1 X162.397 Y133.272
G1 X169.371 Y140.247
G1 X169.104 Y140.419
G1 X162.259 Y133.574
G1 X162.121 Y133.876
G1 X168.785 Y140.541
G1 X168.445 Y140.641
G1 X161.983 Y134.178
G1 X161.890 Y134.525
G1 X168.105 Y140.741
G1 X167.765 Y140.841
G1 X161.834 Y134.910
G1 X161.779 Y135.294
G1 X167.370 Y140.886
G1 X166.931 Y140.886
G1 X161.724 Y135.679
G1 X161.766 Y136.161
G1 X166.491 Y140.886
G1 X166.013 Y140.848
G1 X161.840 Y136.675
G1 X161.914 Y137.189
G1 X165.390 Y140.665
G1 X164.768 Y140.482
G1 X162.261 Y137.976
G1 X168.362 Y130.879
G1 X167.739 Y130.696
G1 X171.912 Y134.870
G1 X171.986 Y135.383
G1 X167.262 Y130.659
G1 X166.822 Y130.659
G1 X172.029 Y135.866
G1 X171.974 Y136.250
G1 X166.382 Y130.659
G1 X165.987 Y130.704
G1 X171.918 Y136.635
G1 X171.863 Y137.020
G1 X165.647 Y130.804
G1 X165.307 Y130.904
G1 X171.770 Y137.366
G1 X171.632 Y137.668
G1 X164.967 Y131.004
G1 X164.649 Y131.125
G1 X171.494 Y137.970
G1 X171.356 Y138.272
G1 X164.381 Y131.297
G1 X164.113 Y131.470
G1 X171.216 Y138.572
G1 X171.012 Y138.808
G1 X163.845 Y131.642
G1 X163.578 Y131.814
G1 X170.808 Y139.044
G1 X170.603 Y139.279
G1 X163.357 Y132.033
G1 X163.149 Y132.265
G1 X170.396 Y139.512
G1 X170.175 Y139.731
G1 X162.945 Y132.501
G1 X162.741 Y132.737
G1 X169.907 Y139.903
G1 X169.639 Y140.075
G1 X162.536 Y132.972
G1 X162.397 Y133.272
G1 X169.371 Y140.247
G1 X169.104 Y140.419
G1 X162.259 Y133.574
G1 X162.121 Y133.876
G1 X168.785 Y140.541
G1 X168.445 Y140.641
G1 X161.983 Y134.178
G1 X161.890 Y134.525
G1 X168.105 Y140.741
G1 X167.765 Y140.841
G1 X161.834 Y134.910
G1 X161.779 Y135.294
G1 X167.370 Y140.886
G1 X166.931 Y140.886
G1 X161.724 Y135.679
G1 X161.766 Y136.161
G1 X166.491 Y140.886
G1 X166.013 Y140.848
G1 X161.840 Y136.675
G1 X161.914 Y137.189
G1 X165.390 Y140.665
G1 X164.768 Y140.482
G1 X162.261 Y137.976
G1 X168.362 Y130.879
G1 X167.739 Y130.696
G1 X171.912 Y134.870
G1 X171.986 Y135.383
G1 X167.262 Y130.659
G1 X166.822 Y130.659
G1 X172.029 Y135.866
G1 X171.974 Y136.250
G1 X166.382 Y130.659
G1 X165.987 Y130.704
G1 X171.918 Y136.635
G1 X171.863 Y137.020
G1 X165.647 Y130.804
G1 X165.307 Y130.904
G1 X171.770 Y137.366
G1 X171.632 Y137.668
G1 X164.967 Y131.004
G1 X164.649 Y131.125
G1 X171.494 Y137.970
G1 X171.356 Y138.272
G1 X164.381 Y131.297
G1 X164.113 Y131.470
G1 X171.216 Y138.572
G1 X171.012 Y138.808
G1 X163.845 Y131.642
G1 X163.578 Y131.814
G1 X170.808 Y139.044
G1 X170.603 Y139.279
G1 X163.357 Y132.033
G1 X163.149 Y132.265
G1 X170.396 Y139.512
G1 X170.175 Y139.731
G1 X162.945 Y132.501
G1 X162.741 Y132.737
G1 X169.907 Y139.903
G1 X169.639 Y140.075
G1 X162.536 Y132.972
G1 X162.397 Y133.272
G1 X169.371 Y140.247
G1 X169.104 Y140.419
G1 X162.259 Y133.574
G1 X162.121 Y133.876
G1 X168.785 Y140.541
G1 X168.445 Y140.641
G1 X161.983 Y134.178
G1 X161.890 Y134.525
G1 X168.105 Y140.741
G1 X167.765 Y140.841
G1 X161.834 Y134.910
G1 X161.779 Y135.294
G1 X167.370 Y140.886
G1 X166.931 Y140.886
G1 X161.724 Y135.679
G1 X161.766 Y136.161
G1 X166.491 Y140.886
G1 X166.013 Y140.848
G1 X161.840 Y136.675
G1 X161.914 Y137.189
G1 X165.390 Y140.665
G1 X164.768 Y140.482
G1 X162.261 Y137.976
G1 X168.362 Y130.879
G1 X167.739 Y130.696
G1 X171.912 Y134.870
G1 X171.986 Y135.383
G1 X167.262 Y130.659
G1 X166.822 Y130.659
G1 X172.029 Y135.866
G1 X171.974 Y136.250
G1 X166.382 Y130.659
G1 X165.987 Y130.704
G1 X171.918 Y136.635
G1 X171.863 Y137.020
G1 X165.647 Y130.804
G1 X165.307 Y130.904
G1 X171.770 Y137.366
G1 X171.632 Y137.668
G1 X164.967 Y131.004
G1 X164.649 Y131.125
G1 X171.494 Y137.970
G1 X171.356 Y138.272
G1 X164.381 Y131.297
G1 X164.113 Y131.470
G1 X171.216 Y138.572
G1 X171.012 Y138.808
G1 X163.845 Y131.642
G1 X163.578 Y131.814
G1 X170.808 Y139.044
G1 X170.603 Y139.279
G1 X163.357 Y132.033
G1 X163.149 Y132.265
G1 X170.396 Y139.512
G1 X170.175 Y139.731
G1 X162.945 Y132.501
G1 X162.741 Y132.737
G1 X169.907 Y139.903
G1 X169.639 Y140.075
G1 X162.536 Y132.972
G1 X162.397 Y133.272
G1 X169.371 Y140.247
G1 X169.104 Y140.419
G1 X162.259 Y133.574
G1 X162.121 Y133.876
G1 X168.785 Y140.541
G1 X168.445 Y140.641
G1 X161.983 Y134.178
G1 X161.890 Y134.525
G1 X168.105 Y140.741
G1 X167.765 Y140.841
G1 X161.834 Y134.910
G1 X161.779 Y135.294
G1 X167.370 Y140.886
G1 X166.931 Y140.886
G1 X161.724 Y135.679
G1 X161.766 Y136.161
G1 X166.491 Y140.886
G1 X166.013 Y140.848
G1 X161.840 Y136.675
G1 X161.914 Y137.189
G1 X165.390 Y140.665
G1 X164.768 Y140.482
G1 X162.261 Y137.976
G1 X168.362 Y130.879
G1 X167.739 Y130.696
G1 X171.912 Y134.870
G1 X171.986 Y135.383
G1 X167.262 Y130.659
G1 X166.822 Y130.659
G1 X172.029 Y135.866
G1 X171.974 Y136.250
G1 X166.382 Y130.659
G1 X165.987 Y130.704
G1 X171.918 Y136.635
G1 X171.863 Y137.020
G1 X165.647 Y130.804
G1 X165.307 Y130.904
G1 X171.770 Y137.366
G1 X171.632 Y137.668
G1 X164.967 Y131.004
G1 X164.649 Y131.125
G1 X171.494 Y137.970
G1 X171.356 Y138.272
G1 X164.381 Y131.297
G1 X164.113 Y131.470
G1 X171.216 Y138.572
G1 X171.012 Y138.808
G1 X163.845 Y131.642
G1 X163.578 Y131.814
G1 X170.808 Y139.044
G1 X170.603 Y139.279
G1 X163.357 Y132.033
G1 X163.149 Y132.265
G1 X170.396 Y139.512
G1 X170.175 Y139.731
G1 X162.945 Y132.501
G1 X162.741 Y132.737
G1 X169.907 Y139.903
G1 X169.639 Y140.075
G1 X162.536 Y132.972
G1 X162.397 Y133.272
G1 X169.371 Y140.247
G1 X169.104 Y140.419
G1 X162.259 Y133.574
G1 X162.121 Y133.876
G1 X168.785 Y140.541
G1 X168.445 Y140.641
G1 X161.983 Y134.178
G1 X161.890 Y134.525
G1 X168.105 Y140.741
G1 X167.765 Y140.841
G1 X161.834 Y134.910
G1 X161.779 Y135.294
G1 X167.370 Y140.886
G1 X166.931 Y140.886
G1 X161.724 Y135.679
G1 X161.766 Y136.161
G1 X166.491 Y140.886
G1 X166.013 Y140.848
G1 X161.840 Y136.675
G1 X161.914 Y137.189
G1 X165.390 Y140.665
G1 X164.768 Y140.482
G1 X162.261 Y137.976
G1 X168.362 Y130.879
G1 X167.739 Y130.696
G1 X171.912 Y134.870
G1 X171.986 Y135.383
G1 X167.262 Y130.659
G1 X166.822 Y130.659
G1 X172.029 Y135.866
G1 X171.974 Y136.250
G1 X166.382 Y130.659
G1 X165.987 Y130.704
G1 X171.918 Y136.635
G1 X171.863 Y137.020
G1 X165.647 Y130.804
G1 X165.307 Y130.904
G1 X171.770 Y137.366
G1 X171.632 Y137.668
G1 X164.967 Y131.004
G1 X164.649 Y131.125
G1 X171.494 Y137.970
G1 X171.356 Y138.272
G1 X164.381 Y131.297
G1 X164.113 Y131.470
G1 X171.216 Y138.572
G1 X171.012 Y138.808
G1 X163.845 Y131.642
G1 X163.578 Y131.814
G1 X170.808 Y139.044
G1 X170.603 Y139.279
G1 X163.357 Y132.033
G1 X163.149 Y132.265
G1 X170.396 Y139.512
G1 X170.175 Y139.731
G1 X162.945 Y132.501
G1 X162.741 Y132.737
G1 X169.907 Y139.903
G1 X169.639 Y140.075
G1 X162.536 Y132.972
G1 X162.397 Y133.272
G1 X169.371 Y140.247
G1 X169.104 Y140.419
G1 X162.259 Y133.574
G1 X162.121 Y133.876
G1 X168.785 Y140.541
G1 X168.445 Y140.641
G1 X161.983 Y134.178
G1 X161.890 Y134.525
G1 X168.105 Y140.741
G1 X167.765 Y140.841
G1 X161.834 Y134.910
G1 X161.779 Y135.294
G1 X167.370 Y140.886
G1 X166.931 Y140.886
G1 X161.724 Y135.679
G1 X161.766 Y136.161
G1 X166.491 Y140.886
G1 X166.013 Y140.848
G1 X161.840 Y136.675
G1 X161.914 Y137.189
G1 X165.390 Y140.665
G1 X164.768 Y140.482
G1 X162.261 Y137.976
G1 X168.362 Y130.879
G1 X167.739 Y130.696
G1 X171.912 Y134.870
G1 X171.986 Y135.383
G1 X167.262 Y130.659
G1 X166.822 Y130.659
G1 X172.029 Y135.866
G1 X171.974 Y136.250
G1 X166.382 Y130.659
G1 X165.987 Y130.704
G1 X171.918 Y136.635
G1 X171.863 Y137.020
G1 X165.647 Y130.804
G1 X165.307 Y130.904
G1 X171.770 Y137.366
G1 X171.632 Y137.668
G1 X164.967 Y131.004
G1 X164.649 Y131.125
G1 X171.494 Y137.970
G1 X171.356 Y138.272
G1 X164.381 Y131.297
G1 X164.113 Y131.470
G1 X171.216 Y138.572
G1 X171.012 Y138.808
G1 X163.845 Y131.642
G1 X163.578 Y131.814
G1 X170.808 Y139.044
G1 X170.603 Y139.279
G1 X163.357 Y132.033
G1 X163.149 Y132.265
G1 X170.396 Y139.512
G1 X170.175 Y139.731
G1 X162.945 Y132.501
G1 X162.741 Y132.737
G1 X169.907 Y139.903
G1 X169.639 Y140.075
G1 X162.536 Y132.972
G1 X162.397 Y133.272
G1 X169.371 Y140.247
G1 X169.104 Y140.419
G1 X162.259 Y133.574
G1 X162.121 Y133.876
G1 X168.785 Y140.541
G1 X168.445 Y140.641
G1 X161.983 Y134.178
G1 X161.890 Y134.525
G1 X168.105 Y140.741
G1 X167.765 Y140.841
G1 X161.834 Y134.910
G1 X161.779 Y135.294
G1 X167.370 Y140.886
G1 X166.931 Y140.886
G1 X161.724 Y135.679
G1 X161.766 Y136.161
G1 X166.491 Y140.886
G1 X166.013 Y140.848
G1 X161.840 Y136.675
G1 X161.914 Y137.189
G1 X165.390 Y140.665
G1 X164.768 Y140.482
G1 X162.261 Y137.976
G1 X168.362 Y130.879
G1 X167.739 Y130.696
G1 X171.912 Y134.870
G1 X171.986 Y135.383
G1 X167.262 Y130.659
G1 X166.822 Y130.659
G1 X172.029 Y135.866
G1 X171.974 Y136.250
G1 X166.382 Y130.659
G1 X165.987 Y130.704
G1 X171.918 Y136.635
G1 X171.863 Y137.020
G1 X165.647 Y130.804
G1 X165.307 Y130.904
G1 X171.770 Y137.366
G1 X171.632 Y137.668
G1 X164.967 Y131.004
G1 X164.649 Y131.125
G1 X171.494 Y137.970
G1 X171.356 Y138.272
G1 X164.381 Y131.297
G1 X164.113 Y131.470
G1 X171.216 Y138.572
G1 X171.012 Y138.808
G1 X163.845 Y131.642
G1 X163.578 Y131.814
G1 X170.808 Y139.044
G1 X170.603 Y139.279
G1 X163.357 Y132.033
G1 X163.149 Y132.265
G1 X170.396 Y139.512
G1 X170.175 Y139.731
G1 X162.945 Y132.501
G1 X162.741 Y132.737
G1 X169.907 Y139.903
G1 X169.639 Y140.075
G1 X162.536 Y132.972
G1 X162.397 Y133.272
G1 X169.371 Y140.247
G1 X169.104 Y140.419
G1 X162.259 Y133.574
G1 X162.121 Y133.876
G1 X168.785 Y140.541
G1 X168.445 Y140.641
G1 X161.983 Y134.178
G1 X161.890 Y134.525
G1 X168.105 Y140.741
G1 X167.765 Y140.841
G1 X161.834 Y134.910
G1 X161.779 Y135.294
G1 X167.370 Y140.886
G1 X166.931 Y140.886
G1 X161.724 Y135.679
G1 X161.766 Y136.161
G1 X166.491 Y140.886
G1 X166.013 Y140.848
G1 X161.840 Y136.675
G1 X161.914 Y137.189
G1 X165.390 Y140.665
G1 X164.768 Y140.482
G1 X162.261 Y137.976
G1 X168.362 Y130.879
G1 X167.739 Y130.696
G1 X171.912 Y134.870
G1 X171.986 Y135.383
G1 X167.262 Y130.659
G1 X166.822 Y130.659
G1 X172.029 Y135.866
G1 X171.974 Y136.250
G1 X166.382 Y130.659
G1 X165.987 Y130.704
G1 X171.918 Y136.635
G1 X171.863 Y137.020
G1 X165.647 Y130.804
G1 X165.307 Y130.904
G1 X171.770 Y137.366
G1 X171.632 Y137.668
G1 X164.967 Y131.004
G1 X164.649 Y131.125
G1 X171.494 Y137.970
G1 X171.356 Y138.272
G1 X164.381 Y131.297
G1 X164.113 Y131.470
G1 X171.216 Y138.572
G1 X171.012 Y138.808
G1 X163.845 Y131.642
G1 X163.578 Y131.814
G1 X170.808 Y139.044
G1 X170.603 Y139.279
G1 X163.357 Y132.033
G1 X163.149 Y132.265
G1 X170.396 Y139.512
G1 X170.175 Y139.731
G1 X162.945 Y132.501
G1 X162.741 Y132.737
G1 X169.907 Y139.903
G1 X169.639 Y140.075
G1 X162.536 Y132.972
G1 X162.397 Y133.272
G1 X169.371 Y140.247
G1 X169.104 Y140.419
G1 X162.259 Y133.574
G1 X162.121 Y133.876
G1 X168.785 Y140.541
G1 X168.445 Y140.641
G1 X161.983 Y134.178
G1 X161.890 Y134.525
G1 X168.105 Y140.741
G1 X167.765 Y140.841
G1 X161.834 Y134.910
G1 X161.779 Y135.294
G1 X167.370 Y140.886
G1 X166.931 Y140.886
G1 X161.724 Y135.679
G1 X161.766 Y136.161
G1 X166.491 Y140.886
G1 X166.013 Y140.848
G1 X161.840 Y136.675
G1 X161.914 Y137.189
G1 X165.390 Y140.665
G1 X164.768 Y140.482
G1 X162.261 Y137.976
G1 X168.362 Y130.879
G1 X167.739 Y130.696
G1 X171.912 Y134.870
G1 X171.986 Y135.383
G1 X167.262 Y130.659
G1 X166.822 Y130.659
G1 X172.029 Y135.866
G1 X171.974 Y136.250
G1 X166.382 Y130.659
G1 X165.987 Y130.704
G1 X171.918 Y136.635
G1 X171.863 Y137.020
G1 X165.647 Y130.804
G1 X165.307 Y130.904
G1 X171.770 Y137.366
G1 X171.632 Y137.668
G1 X164.967 Y131.004
G1 X164.649 Y131.125
G1 X171.494 Y137.970
G1 X171.356 Y138.272
G1 X164.381 Y131.297
G1 X164.113 Y131.470
G1 X171.216 Y138.572
G1 X171.012 Y138.808
G1 X163.845 Y131.642
G1 X163.578 Y131.814
G1 X170.808 Y139.044
G1 X170.603 Y139.279
G1 X163.357 Y132.033
G1 X163.149 Y132.265
G1 X170.396 Y139.512
G1 X170.175 Y139.731
G1 X162.945 Y132.501
G1 X162.741 Y132.737
G1 X169.907 Y139.903
G1 X169.639 Y140.075
G1 X162.536 Y132.972
G1 X162.397 Y133.272
G1 X169.371 Y140.247
G1 X169.104 Y140.419
G1 X162.259 Y133.574
G1 X162.121 Y133.876
G1 X168.785 Y140.541
G1 X168.445 Y140.641
G1 X161.983 Y134.178
G1 X161.890 Y134.525
G1 X168.105 Y140.741
G1 X167.765 Y140.841
G1 X161.834 Y134.910
G1 X161.779 Y135.294
G1 X167.370 Y140.886
G1 X166.931 Y140.886
G1 X161.724 Y135.679
G1 X161.766 Y136.161
G1 X166.491 Y140.886
G1 X166.013 Y140.848
G1 X161.840 Y136.675
G1 X161.914 Y137.189
G1 X165.390 Y140.665
G1 X164.768 Y140.482
G1 X162.261 Y137.976
G1 X168.362 Y130.879
G1 X167.739 Y130.696
G1 X171.912 Y134.870
G1 X171.986 Y135.383
G1 X167.262 Y130.659
G1 X166.822 Y130.659
G1 X172.029 Y135.866
G1 X171.974 Y136.250
G1 X166.382 Y130.659
G1 X165.987 Y130.704
G1 X171.918 Y136.635
G1 X171.863 Y137.020
G1 X165.647 Y130.804
G1 X165.307 Y130.904
G1 X171.770 Y137.366
G1 X171.632 Y137.668
G1 X164.967 Y131.004
G1 X164.649 Y131.125
G1 X171.494 Y137.970
G1 X171.356 Y138.272
G1 X164.381 Y131.297
G1 X164.113 Y131.470
G1 X171.216 Y138.572
G1 X171.012 Y138.808
G1 X163.845 Y131.642
G1 X163.578 Y131.814
G1 X170.808 Y139.044
G1 X170.603 Y139.279
G1 X163.357 Y132.033
G1 X163.149 Y132.265
G1 X170.396 Y139.512
G1 X170.175 Y139.731
G1 X162.945 Y132.501
G1 X162.741 Y132.737
G1 X169.907 Y139.903
G1 X169.639 Y140.075
G1 X162.536 Y132.972
G1 X162.397 Y133.272
G1 X169.371 Y140.247
G1 X169.104 Y140.419
G1 X162.259 Y133.574
G1 X162.121 Y133.876
G1 X168.785 Y140.541
G1 X168.445 Y140.641
G1 X161.983 Y134.178
G1 X161.890 Y134.525
G1 X168.105 Y140.741
G1 X167.765 Y140.841
G1 X161.834 Y134.910
G1 X161.779 Y135.294
G1 X167.370 Y140.886
G1 X166.931 Y140.886
G1 X161.724 Y135.679
G1 X161.766 Y136.161
G1 X166.491 Y140.886
G1 X166.013 Y140.848
G1 X161.840 Y136.675
G1 X161.914 Y137.189
G1 X165.390 Y140.665
G1 X164.768 Y140.482
G1 X162.261 Y137.976
G1 X168.362 Y130.879
G1 X167.739 Y130.696
G1 X171.912 Y134.870
G1 X171.986 Y135.383
G1 X167.262 Y130.659
G1 X166.822 Y130.659
G1 X172.029 Y135.866
G1 X171.974 Y136.250
G1 X166.382 Y130.659
G1 X165.987 Y130.704
G1 X171.918 Y136.635
G1 X171.863 Y137.020
