; generated by Slic3r 1.1.7 on 2014-10-05 at 10:40:51

; perimeters extrusion width = 0.37mm
; infill extrusion width = 0.60mm
; solid infill extrusion width = 0.38mm
; top infill extrusion width = 0.30mm

G21 ; set units to millimeters
M107
G28 ; home all axes
M203 X192 Y208 Z3 ; Speed limits to minimize skipped steps when moving really fast courtesy of forum.lulzbot.com user 1013
G90 ; use absolute coordinates
G92 E0
M82 ; use absolute distances for extrusion
M204 S1000
G1 F1500.000 E-2.00000
G92 E0
G1 Z0.300 F12000.000
G1 X50.666 Y107.188 F12000.000
G1 E2.00000 F1500.000
G1 X56.075 Y104.978 E2.12500 F2340.000
G1 X134.016 Y82.582 E3.86000
G1 X136.061 Y82.294 E3.90418
G1 X138.579 Y82.389 E3.95810
G1 X204.051 Y93.084 E5.37742 F2340.000
G1 X230.899 Y102.030 E5.98287
G1 X235.567 Y104.332 E6.09421
G1 X247.740 Y111.314 E6.39446
G1 X250.875 Y113.142 E6.47209
G1 X254.542 Y115.332 E6.56347
G1 X256.535 Y117.073 E6.62010
G1 X258.041 Y119.121 E6.67446
G1 X258.331 Y119.640 E6.68718
G1 X259.086 Y121.604 E6.73221
G1 X259.383 Y122.906 E6.76078
G1 X259.568 Y124.513 E6.79539
G1 X259.570 Y124.889 E6.80344
G1 X259.385 Y126.575 E6.83973
G1 X258.946 Y128.408 E6.88004
G1 X244.227 Y176.240 E7.95076
G1 X243.369 Y178.081 E7.99421
G1 X241.725 Y180.556 E8.05777
G1 X240.892 Y181.600 E8.08635
G1 X238.320 Y183.651 E8.15674
G1 X236.208 Y184.597 E8.20624
G1 X233.740 Y185.405 E8.26181
G1 X231.865 Y185.761 E8.30265
G1 X94.831 Y193.706 E11.23935
G1 X93.496 Y193.706 E11.26791
G1 X90.284 Y192.973 E11.33841
G1 X89.003 Y192.356 E11.36883
G1 X85.203 Y190.445 E11.45982
G1 X59.029 Y174.815 E12.11206
G1 X50.444 Y169.195 E12.33157
G1 X42.328 Y162.681 E12.55423
G1 X41.174 Y161.523 E12.58920
G1 X40.342 Y160.479 E12.61777
G1 X38.913 Y157.511 E12.68826
G1 X38.615 Y156.209 E12.71682
G1 X38.438 Y154.216 E12.75963
G1 X39.875 Y123.448 E13.41861
G1 X40.052 Y122.146 E13.44673
G1 X40.507 Y120.265 E13.48813
G1 X41.707 Y116.460 E13.57348
G1 X42.979 Y114.071 E13.63139
G1 X44.080 Y112.710 E13.66884
G1 X46.803 Y109.663 E13.75628
G1 X49.111 Y107.926 E13.81808
G1 X50.619 Y107.210 E13.85379
G1 X50.847 Y107.619 F12000.000
G1 X56.204 Y105.427 E13.97762 F2340.000
G1 X134.145 Y83.031 E15.71262
G1 X136.061 Y82.762 E15.75401
G1 X138.504 Y82.851 E15.80632
G1 X203.904 Y93.528 E17.22406 F2340.000
G1 X230.694 Y102.450 E17.82815
G1 X235.334 Y104.738 E17.93885
G1 X247.505 Y111.718 E18.23902
G1 X250.635 Y113.543 E18.31654
G1 X254.302 Y115.733 E18.40792
G1 X256.169 Y117.365 E18.46097
G1 X257.632 Y119.349 E18.51371
G1 X257.922 Y119.868 E18.52643
G1 X258.630 Y121.708 E18.56861
G1 X258.927 Y123.010 E18.59717
G1 X259.100 Y124.516 E18.62961
G1 X259.102 Y124.892 E18.63765
G1 X258.929 Y126.471 E18.67165
G1 X258.499 Y128.270 E18.71122
G1 X243.780 Y176.103 E19.78193
G1 X242.976 Y177.827 E19.82264
G1 X241.360 Y180.264 E19.88521
G1 X240.527 Y181.308 E19.91378
G1 X238.117 Y183.230 E19.97972
G1 X236.063 Y184.152 E20.02790
G1 X233.594 Y184.961 E20.08347
G1 X231.837 Y185.294 E20.12173
G1 X94.831 Y193.238 E23.05785
G1 X93.496 Y193.238 E23.08641
G1 X90.487 Y192.552 E23.15245
G1 X89.211 Y191.936 E23.18276
G1 X85.443 Y190.044 E23.27297
G1 X59.284 Y174.422 E23.92483
G1 X50.737 Y168.830 E24.14334
G1 X42.621 Y162.316 E24.36600
G1 X41.540 Y161.231 E24.39876
G1 X40.708 Y160.187 E24.42733
G1 X39.369 Y157.406 E24.49336
G1 X39.072 Y156.105 E24.52193
G1 X38.905 Y154.238 E24.56203
G1 X40.342 Y123.470 E25.22101
G1 X40.509 Y122.250 E25.24735
G1 X40.953 Y120.406 E25.28795
G1 X42.153 Y116.601 E25.37330
G1 X43.345 Y114.363 E25.42755
G1 X44.428 Y113.022 E25.46443
G1 X47.152 Y109.974 E25.55187
G1 X49.314 Y108.347 E25.60977
G1 X50.800 Y107.642 E25.64495
G1 X51.028 Y108.051 F12000.000
G1 X56.333 Y105.877 E25.76762 F2340.000
G1 X134.274 Y83.481 E27.50262
G1 X136.061 Y83.229 E27.54122
G1 X138.430 Y83.313 E27.59193
G1 X203.758 Y93.973 E29.00808 F2340.000
G1 X230.488 Y102.870 E29.61082
G1 X235.102 Y105.144 E29.72086
G1 X247.269 Y112.122 E30.02096
G1 X250.395 Y113.945 E30.09837
G1 X254.062 Y116.135 E30.18975
G1 X255.803 Y117.657 E30.23923
G1 X257.224 Y119.577 E30.29033
G1 X257.514 Y120.096 E30.30305
G1 X258.174 Y121.812 E30.34239
G1 X258.471 Y123.114 E30.37095
G1 X258.632 Y124.518 E30.40120
G1 X258.634 Y124.894 E30.40924
G1 X258.473 Y126.367 E30.44095
G1 X258.052 Y128.132 E30.47977
G1 X243.332 Y175.965 E31.55049
G1 X242.583 Y177.573 E31.58845
G1 X240.994 Y179.973 E31.65002
G1 X240.161 Y181.016 E31.67859
G1 X237.914 Y182.808 E31.74009
G1 X235.917 Y183.708 E31.78694
G1 X233.449 Y184.516 E31.84251
G1 X231.810 Y184.827 E31.87818
G1 X94.831 Y192.771 E34.81372
G1 X93.496 Y192.771 E34.84229
G1 X90.690 Y192.130 E34.90387
G1 X89.419 Y191.517 E34.93406
G1 X85.683 Y189.642 E35.02350
G1 X59.538 Y174.030 E35.67499
G1 X51.030 Y168.465 E35.89249
G1 X42.914 Y161.951 E36.11515
G1 X41.906 Y160.940 E36.14570
G1 X41.074 Y159.896 E36.17427
G1 X39.825 Y157.302 E36.23585
G1 X39.528 Y156.001 E36.26441
G1 X39.372 Y154.260 E36.30181
G1 X40.809 Y123.492 E36.96079
G1 X40.965 Y122.354 E36.98536
G1 X41.399 Y120.546 E37.02514
G1 X42.599 Y116.742 E37.11049
G1 X43.711 Y114.655 E37.16108
G1 X44.777 Y113.334 E37.19740
G1 X47.501 Y110.286 E37.28484
G1 X49.517 Y108.769 E37.33883
G1 X50.980 Y108.073 E37.37350
G1 F1500.000 E35.37350
G92 E0
G1 X133.324 Y160.237 F12000.000
G1 E2.00000 F1500.000
G1 X130.480 Y159.313 E2.06398 F4485.000
G1 X130.480 Y156.322 E2.12796
G1 X133.324 Y155.398 E2.19193
G1 X135.082 Y157.817 E2.25591
G1 X133.355 Y160.194 E2.31876
G1 X133.145 Y159.687 F12000.000
G1 X130.948 Y158.973 E2.36820 F4485.000
G1 X130.948 Y156.662 E2.41763
G1 X133.145 Y155.948 E2.46707
G1 X134.503 Y157.817 E2.51650
G1 X133.176 Y159.644 E2.56481
G1 X132.966 Y159.137 F12000.000
G1 X131.415 Y158.633 E2.59970 F4485.000
G1 X131.415 Y157.002 E2.63459
G1 X132.966 Y156.498 E2.66948
G1 X133.925 Y157.817 E2.70438
G1 X132.997 Y159.094 E2.73814
G1 X132.788 Y158.587 F12000.000
G1 X131.883 Y158.293 E2.75849 F3510.000
G1 X131.883 Y157.342 E2.77884
G1 X132.788 Y157.048 E2.79919
G1 X133.347 Y157.817 E2.81953
G1 X132.819 Y158.544 E2.83876
G1 X132.645 Y158.907 F12000.000
G1 F1500.000 E0.83876
G92 E0
G1 X82.758 Y161.523 F12000.000
G1 E2.00000 F1500.000
G1 X80.209 Y158.723 E2.08100 F4485.000
G1 X78.405 Y156.695 E2.13907
G1 X77.028 Y155.079 E2.18448
G1 X73.352 Y150.180 E2.31553
G1 X69.628 Y144.271 E2.46496
G1 X66.979 Y138.109 E2.60845
G1 X65.977 Y132.160 E2.73753
G1 X67.220 Y128.366 E2.82293
G1 X70.534 Y126.112 E2.90869
G1 X74.473 Y125.836 E2.99318
G1 X78.008 Y127.984 E3.08167
G1 X82.072 Y133.677 E3.23133
G1 X84.386 Y140.593 E3.38735
G1 X85.378 Y147.693 E3.54073
G1 X85.802 Y155.171 E3.70098
G1 X85.052 Y156.932 E3.74193
G1 X82.781 Y161.476 E3.85060
G1 X82.644 Y160.703 F12000.000
G1 X80.556 Y158.411 E3.91694 F4485.000
G1 X78.758 Y156.387 E3.97485
G1 X77.394 Y154.787 E4.01985
G1 X73.737 Y149.915 E4.15017
G1 X70.044 Y144.053 E4.29841
G1 X67.431 Y137.976 E4.43992
G1 X66.458 Y132.196 E4.56533
G1 X67.615 Y128.664 E4.64485
G1 X70.692 Y126.570 E4.72450
G1 X74.358 Y126.313 E4.80310
G1 X77.683 Y128.334 E4.88635
G1 X81.651 Y133.892 E5.03247
G1 X83.929 Y140.701 E5.18606
G1 X84.912 Y147.739 E5.33810
G1 X85.329 Y155.089 E5.49560
G1 X84.627 Y156.736 E5.53391
G1 X82.668 Y160.656 E5.62768
G1 X82.531 Y159.884 F12000.000
G1 X80.904 Y158.098 E5.67936 F4485.000
G1 X79.111 Y156.080 E5.73711
G1 X77.759 Y154.494 E5.78169
G1 X74.123 Y149.649 E5.91130
G1 X70.459 Y143.834 E6.05834
G1 X67.883 Y137.843 E6.19787
G1 X66.938 Y132.232 E6.31960
G1 X68.010 Y128.961 E6.39325
G1 X70.851 Y127.027 E6.46678
G1 X74.242 Y126.790 E6.53950
G1 X77.358 Y128.684 E6.61752
G1 X81.229 Y134.107 E6.76008
G1 X83.471 Y140.808 E6.91125
G1 X84.446 Y147.784 E7.06196
G1 X84.856 Y155.006 E7.21671
G1 X84.202 Y156.539 E7.25237
G1 X82.554 Y159.837 E7.33124
G1 X82.417 Y159.064 F12000.000
G1 X81.252 Y157.785 E7.36827 F3510.000
G1 X79.464 Y155.773 E7.42585
G1 X78.125 Y154.202 E7.47002
G1 X74.509 Y149.384 E7.59890
G1 X70.874 Y143.616 E7.74475
G1 X68.335 Y137.710 E7.88229
G1 X67.419 Y132.268 E8.00036
G1 X68.404 Y129.258 E8.06813
G1 X71.010 Y127.485 E8.13555
G1 X74.126 Y127.267 E8.20238
G1 X77.033 Y129.034 E8.27516
G1 X80.808 Y134.322 E8.41416
G1 X83.014 Y140.916 E8.56292
G1 X83.980 Y147.830 E8.71229
G1 X84.382 Y154.923 E8.86429
G1 X83.777 Y156.343 E8.89730
G1 X82.441 Y159.017 E8.96127
G1 X82.189 Y159.330 F12000.000
G1 X65.480 Y156.446 F12000.000
G1 X61.321 Y151.669 E9.09679 F4485.000
G1 X60.542 Y150.691 E9.12353
G1 X54.494 Y142.098 E9.34835
G1 X50.114 Y132.639 E9.57138
G1 X48.948 Y127.716 E9.67962
G1 X48.925 Y123.975 E9.75965
G1 X49.164 Y122.925 E9.78269
G1 X50.252 Y119.478 E9.86002
G1 X50.864 Y118.711 E9.88102
G1 X53.337 Y115.943 E9.96043
G1 X54.205 Y115.525 E9.98104
G1 X58.451 Y113.747 E10.07954
G1 X59.434 Y113.747 E10.10055
G1 X64.072 Y113.862 E10.19983
G1 X68.587 Y115.236 E10.30080
G1 X74.117 Y117.874 E10.43186
G1 X78.930 Y120.595 E10.55016
G1 X83.738 Y123.384 E10.66908
G1 X88.335 Y126.369 E10.78635
G1 X92.534 Y129.663 E10.90053
G1 X96.322 Y134.269 E11.02812
G1 X97.021 Y135.145 E11.05209
G1 X99.411 Y140.360 E11.17483
G1 X100.843 Y146.186 E11.30318
G1 X101.117 Y147.386 E11.32952
G1 X101.698 Y152.401 E11.43753
G1 X103.361 Y153.250 E11.47748
G1 X107.394 Y155.549 E11.57680
G1 X107.263 Y148.325 E11.73136
G1 X105.791 Y139.139 E11.93042
G1 X105.097 Y136.166 E11.99573
G1 X103.966 Y132.027 E12.08752
G1 X102.650 Y127.942 E12.17935
G1 X101.222 Y124.220 E12.26464
G1 X100.119 Y123.597 E12.29174
G1 X99.919 Y123.374 E12.29815
G1 X99.353 Y122.665 E12.31757
G1 X99.224 Y122.099 E12.32998
G1 X99.353 Y121.533 E12.34240
G1 X99.894 Y120.854 E12.36098
G1 X100.032 Y120.716 E12.36515
G1 X100.638 Y120.424 E12.37955
G1 X101.218 Y120.424 E12.39197
G1 X101.619 Y120.617 E12.40149
G1 X102.351 Y120.830 E12.41779
G1 X102.698 Y120.737 E12.42548
G1 X103.488 Y120.737 E12.44238
G1 X106.646 Y122.033 E12.51542
G1 X110.260 Y123.147 E12.59634
G1 X113.690 Y124.019 E12.67206
G1 X114.553 Y124.435 E12.69254
G1 X115.404 Y125.158 E12.71644
G1 X116.015 Y125.924 E12.73741
G1 X117.745 Y129.605 E12.82443
G1 X119.536 Y127.360 E12.88586
G1 X120.059 Y127.109 E12.89828
G1 X120.674 Y127.109 E12.91143
G1 X124.061 Y128.576 E12.99041
G1 X125.061 Y129.058 E13.01416
G1 X126.467 Y130.195 E13.05285
G1 X129.368 Y131.432 E13.12032
G1 X130.522 Y131.987 E13.14772
G1 X133.753 Y133.626 E13.22524
G1 X134.126 Y134.094 E13.23803
G1 X134.332 Y134.997 E13.25787
G1 X134.457 Y135.656 E13.27220
G1 X135.195 Y137.269 E13.31015
G1 X136.033 Y138.808 E13.34765
G1 X136.702 Y140.330 E13.38322
G1 X138.229 Y143.485 E13.45820
G1 X139.603 Y146.616 E13.53137
G1 X140.708 Y149.767 E13.60279
G1 X141.510 Y153.320 E13.68072
G1 X142.633 Y155.368 E13.73070
G1 X143.472 Y156.747 E13.76523
G1 X144.498 Y157.641 E13.79435
G1 X146.507 Y157.840 E13.83754
G1 X147.412 Y155.799 E13.88530
G1 X147.630 Y154.098 E13.92200
G1 X147.846 Y151.759 E13.97226
G1 X147.154 Y145.475 E14.10751
G1 X145.447 Y139.841 E14.23345
G1 X143.049 Y133.692 E14.37467
G1 X140.856 Y127.588 E14.51342
G1 X138.142 Y119.735 E14.69119
G1 X135.732 Y111.812 E14.86837
G1 X135.453 Y110.587 E14.89524
G1 X133.833 Y102.575 E15.07013
G1 X133.478 Y94.584 E15.24126
G1 X133.678 Y93.710 E15.26045
G1 X134.204 Y92.705 E15.28471
G1 X134.703 Y92.080 E15.30182
G1 X135.511 Y91.691 E15.32101
G1 X136.375 Y91.351 E15.34086
G1 X137.258 Y91.351 E15.35976
G1 X138.280 Y91.523 E15.38195
G1 X139.179 Y91.955 E15.40328
G1 X140.369 Y92.724 E15.43359
G1 X145.346 Y95.535 E15.55588
G1 X150.157 Y98.404 E15.67573
G1 X154.634 Y101.577 E15.79313
G1 X158.639 Y105.310 E15.91026
G1 X161.748 Y109.039 E16.01414
G1 X162.528 Y110.017 E16.04090
G1 X165.242 Y114.044 E16.14479
G1 X166.282 Y115.833 E16.18907
G1 X167.403 Y115.833 E16.21306
G1 X169.262 Y116.314 E16.25413
G1 X173.588 Y117.848 E16.35233
G1 X175.879 Y118.438 E16.40294
G1 X179.685 Y119.323 E16.48655
G1 X180.651 Y119.789 E16.50949
G1 X181.929 Y120.564 E16.54147
G1 X182.395 Y121.148 E16.55745
G1 X182.924 Y122.739 E16.59332
G1 X183.785 Y125.806 E16.66148
G1 X184.631 Y128.959 E16.73133
G1 X185.709 Y132.156 E16.80350
G1 X187.199 Y135.146 E16.87497
G1 X189.836 Y134.510 E16.93301
G1 X189.807 Y131.753 E16.99200
G1 X189.324 Y126.292 E17.10930
G1 X189.161 Y121.111 E17.22021
G1 X190.073 Y116.459 E17.32162
G1 X190.342 Y115.279 E17.34753
G1 X191.941 Y110.814 E17.44899
G1 X194.263 Y106.746 E17.54921
G1 X194.988 Y105.837 E17.57408
G1 X198.022 Y102.426 E17.67174
G1 X198.722 Y102.089 E17.68836
G1 X200.538 Y101.767 E17.72782
G1 X201.417 Y101.767 E17.74662
G1 X203.138 Y102.439 E17.78616
G1 X204.200 Y102.950 E17.81137
G1 X206.211 Y104.215 E17.86219
G1 X211.797 Y106.980 E17.99554
G1 X214.998 Y108.971 E18.07619
G1 X217.902 Y111.299 E18.15583
G1 X219.537 Y113.040 E18.20693
G1 X220.739 Y111.159 E18.25470
G1 X221.282 Y110.478 E18.27334
G1 X222.085 Y110.092 E18.29239
G1 X223.344 Y109.607 E18.32125
G1 X224.190 Y109.607 E18.33937
G1 X227.094 Y110.251 E18.40300
G1 X231.092 Y112.208 E18.49824
G1 X234.009 Y113.983 E18.57130
G1 X237.012 Y115.598 E18.64424
G1 X240.059 Y117.373 E18.71970
G1 X243.188 Y119.144 E18.79661
G1 X246.218 Y120.910 E18.87164
G1 X248.997 Y122.681 E18.94214
G1 X249.688 Y123.014 E18.95856
G1 X250.200 Y123.657 E18.97614
G1 X250.309 Y123.850 E18.98088
G1 X250.513 Y124.745 E19.00052
G1 X250.342 Y125.495 E19.01697
G1 X249.980 Y125.948 E19.02938
G1 X249.457 Y126.200 E19.04179
G1 X248.699 Y126.200 E19.05803
G1 X248.412 Y126.552 E19.06774
G1 X247.658 Y126.915 E19.08564
G1 X246.679 Y127.209 E19.10751
G1 X245.938 Y127.209 E19.12337
G1 X244.932 Y126.763 E19.14691
G1 X243.880 Y126.256 E19.17190
G1 X242.547 Y125.308 E19.20690
G1 X241.120 Y124.584 E19.24114
G1 X239.534 Y123.744 E19.27953
G1 X235.853 Y121.512 E19.37163
G1 X235.198 Y126.255 E19.47407
G1 X235.201 Y132.753 E19.61309
G1 X235.499 Y141.323 E19.79655
G1 X235.837 Y145.656 E19.88955
G1 X236.405 Y149.114 E19.96451
G1 X236.782 Y149.842 E19.98206
G1 X237.157 Y150.502 E19.99830
G1 X237.388 Y151.509 E20.02041
G1 X237.426 Y151.754 E20.02570
G1 X237.284 Y152.378 E20.03941
G1 X236.922 Y152.832 E20.05182
G1 X236.381 Y153.092 E20.06468
G1 X235.010 Y153.102 E20.09399
G1 X231.718 Y151.622 E20.17124
G1 X228.884 Y150.617 E20.23555
G1 X228.884 Y159.666 E20.42915
G1 X229.972 Y160.227 E20.45533
G1 X232.844 Y162.776 E20.53749
G1 X233.448 Y163.533 E20.55820
G1 X235.006 Y167.191 E20.64326
G1 X235.698 Y169.471 E20.69424
G1 X235.929 Y170.485 E20.71649
G1 X235.806 Y172.526 E20.76024
G1 X235.604 Y173.410 E20.77965
G1 X234.595 Y174.971 E20.81942
G1 X234.048 Y175.656 E20.83816
G1 X233.285 Y176.024 E20.85630
G1 X231.171 Y176.716 E20.90387
G1 X230.317 Y176.716 E20.92215
G1 X228.648 Y176.271 E20.95911
G1 X227.718 Y175.823 E20.98120
G1 X226.131 Y174.675 E21.02310
G1 X224.524 Y173.431 E21.06657
G1 X223.248 Y172.930 E21.09592
G1 X220.171 Y171.600 E21.16761
G1 X217.038 Y170.310 E21.24011
G1 X213.995 Y169.001 E21.31099
G1 X210.197 Y167.150 E21.40137
G1 X209.671 Y166.491 E21.41942
G1 X208.818 Y165.035 E21.45551
G1 X208.601 Y164.083 E21.47641
G1 X208.446 Y162.521 E21.50998
G1 X208.664 Y161.564 E21.53100
G1 X209.169 Y160.066 E21.56482
G1 X209.784 Y159.294 E21.58594
G1 X211.046 Y157.918 E21.62588
G1 X212.884 Y156.541 E21.67503
G1 X213.888 Y156.058 E21.69885
G1 X215.984 Y155.232 E21.74706
G1 X218.189 Y155.177 E21.79424
G1 X219.135 Y155.177 E21.81448
G1 X221.204 Y156.147 E21.86338
G1 X224.191 Y157.381 E21.93252
G1 X224.191 Y149.149 E22.10864
G1 X220.563 Y148.104 E22.18942
G1 X219.826 Y147.749 E22.20693
G1 X219.406 Y147.222 E22.22133
G1 X218.804 Y145.481 E22.26075
G1 X218.570 Y144.455 E22.28326
G1 X218.587 Y142.453 E22.32610
G1 X218.856 Y140.111 E22.37653
G1 X218.884 Y137.567 E22.43096
G1 X217.669 Y132.323 E22.54612
G1 X215.291 Y126.136 E22.68792
G1 X212.162 Y120.316 E22.82931
G1 X209.835 Y116.995 E22.91605
G1 X207.985 Y119.742 E22.98692
G1 X206.616 Y124.381 E23.09039
G1 X206.258 Y129.751 E23.20553
G1 X206.714 Y135.214 E23.32282
G1 X206.811 Y139.294 E23.41013
G1 X206.727 Y143.373 E23.49741
G1 X206.217 Y147.342 E23.58303
G1 X205.952 Y148.502 E23.60850
G1 X204.825 Y152.106 E23.68927
G1 X204.199 Y152.891 E23.71075
G1 X203.005 Y154.311 E23.75047
G1 X202.164 Y154.716 E23.77042
G1 X200.539 Y155.387 E23.80805
G1 X199.577 Y155.387 E23.82863
G1 X197.813 Y155.290 E23.86642
