; generated by Slic3r 1.0.0RC2 on 2014-01-21 at 18:46:09

; layer_height = 0.25
; perimeters = 1
; top_solid_layers = 5
; bottom_solid_layers = 3
; fill_density = 0.12
; perimeter_speed = 30
; infill_speed = 60
; travel_speed = 130
; nozzle_diameter = 0.35
; filament_diameter = 1.75
; extrusion_multiplier = 1
; perimeters extrusion width = 0.35mm
; infill extrusion width = 0.39mm
; solid infill extrusion width = 0.39mm
; top infill extrusion width = 0.39mm
; first layer extrusion width = 0.70mm

G21 ; set units to millimeters
M107
M104 S220 ; set temperature
G28 ; home all axes
G1 Z5 F5000 ; lift nozzle

M109 S220 ; wait for temperature to be reached
G90 ; use absolute coordinates
G92 E0
M82 ; use absolute distances for extrusion
G1 F1800.000 E-1.00000
G92 E0
G1 Z0.350 F7800.000
G1 X168.964 Y25.404 F7800.000
G1 E1.00000 F1800.000
G1 X169.094 Y24.634 E1.07101 F540.000
G1 X171.884 Y12.464 E2.20633
G1 X172.374 Y11.044 E2.34292
G1 X173.144 Y9.744 E2.48031
G1 X174.164 Y8.644 E2.61671
G1 X175.384 Y7.774 E2.75296
G1 X185.494 Y2.064 E3.80875
G1 X186.264 Y1.684 E3.88683
G1 X190.054 Y0.384 E4.25116
G1 X190.694 Y0.194 E4.31187
G1 X194.344 Y-0.686 E4.65327
G1 X195.484 Y-0.866 E4.75821
G1 X199.234 Y-1.156 E5.10022
G1 X200.354 Y-1.156 E5.20206
G1 X204.094 Y-0.866 E5.54316
G1 X205.234 Y-0.686 E5.64810
G1 X208.884 Y0.194 E5.98950
G1 X209.944 Y0.544 E6.09101
G1 X213.414 Y1.974 E6.43228
G1 X214.444 Y2.494 E6.53719
G1 X217.644 Y4.454 E6.87841
G1 X223.204 Y7.944 E7.47532
G1 X224.364 Y8.844 E7.60883
G1 X225.324 Y9.964 E7.74296
G1 X226.034 Y11.254 E7.87685
G1 X229.394 Y19.194 E8.66082
G1 X229.644 Y19.894 E8.72840
G1 X231.564 Y26.154 E9.32379
G1 X231.764 Y26.954 E9.39878
G1 X231.864 Y27.774 E9.47389
G1 X231.984 Y29.484 E9.62976
G1 X231.984 Y30.494 E9.72160
G1 X231.904 Y31.664 E9.82824
G1 X231.744 Y33.954 E10.03698
G1 X231.604 Y34.994 E10.13239
G1 X230.784 Y38.774 E10.48410
G1 X227.754 Y49.934 E11.53561
G1 X227.274 Y51.204 E11.65907
G1 X226.564 Y52.364 E11.78274
G1 X225.664 Y53.374 E11.90575
G1 X224.574 Y54.194 E12.02977
G1 X223.364 Y54.794 E12.15258
G1 X215.634 Y57.764 E12.90556
G1 X209.294 Y59.694 E13.50818
G1 X205.214 Y60.674 E13.88972
G1 X204.114 Y60.854 E13.99108
G1 X200.374 Y61.154 E14.33224
G1 X199.214 Y61.154 E14.43772
G1 X195.464 Y60.854 E14.77980
G1 X194.604 Y60.734 E14.85876
G1 X186.704 Y59.134 E15.59168
G1 X185.894 Y58.914 E15.66800
G1 X185.114 Y58.604 E15.74433
G1 X176.454 Y54.614 E16.61134
G1 X175.174 Y53.864 E16.74624
G1 X174.084 Y52.864 E16.88074
G1 X173.214 Y51.664 E17.01552
G1 X172.604 Y50.314 E17.15022
G1 X169.454 Y40.814 E18.06030
G1 X168.404 Y37.184 E18.40391
G1 X168.194 Y36.184 E18.49682
G1 X168.054 Y35.174 E18.58954
G1 X167.984 Y34.254 E18.67343
G1 X168.034 Y33.324 E18.75812
G1 X168.953 Y25.497 E19.47471
G1 X169.584 Y25.484 F7800.000
G1 X169.704 Y24.774 E19.54018 F540.000
G1 X172.494 Y12.604 E20.67550
G1 X172.944 Y11.304 E20.80059
G1 X173.644 Y10.124 E20.92535
G1 X174.574 Y9.114 E21.05019
G1 X175.694 Y8.314 E21.17534
G1 X185.804 Y2.604 E22.23113
G1 X186.504 Y2.264 E22.30189
G1 X186.994 Y2.084 E22.34936
G1 X190.254 Y0.974 E22.66250
G1 X190.844 Y0.804 E22.71833
G1 X194.494 Y-0.076 E23.05974
G1 X195.534 Y-0.246 E23.15556
G1 X199.284 Y-0.536 E23.49756
G1 X200.304 Y-0.536 E23.59031
G1 X204.044 Y-0.246 E23.93141
G1 X205.084 Y-0.076 E24.02723
G1 X208.734 Y0.804 E24.36863
G1 X209.704 Y1.114 E24.46123
G1 X213.174 Y2.544 E24.80250
G1 X214.114 Y3.024 E24.89847
G1 X217.314 Y4.984 E25.23969
G1 X222.874 Y8.474 E25.83660
G1 X223.934 Y9.294 E25.95846
G1 X224.804 Y10.324 E26.08106
G1 X225.454 Y11.504 E26.20355
G1 X228.814 Y19.444 E26.98752
G1 X229.044 Y20.084 E27.04936
G1 X230.964 Y26.344 E27.64475
G1 X231.144 Y27.074 E27.71312
G1 X231.244 Y27.824 E27.78192
G1 X231.364 Y29.534 E27.93779
G1 X231.364 Y30.454 E28.02144
G1 X231.284 Y31.614 E28.12717
G1 X231.124 Y33.914 E28.33682
G1 X230.994 Y34.864 E28.42400
G1 X230.264 Y38.264 E28.74021
G1 X230.174 Y38.614 E28.77307
G1 X227.144 Y49.774 E29.82458
G1 X226.574 Y51.204 E29.96456
G1 X225.674 Y52.474 E30.10610
G1 X224.514 Y53.494 E30.24656
G1 X223.144 Y54.214 E30.38728
G1 X215.914 Y57.004 E31.09196
G1 X215.454 Y57.164 E31.13624
G1 X209.114 Y59.094 E31.73886
G1 X205.074 Y60.064 E32.11665
G1 X204.064 Y60.224 E32.20964
G1 X200.324 Y60.524 E32.55080
G1 X199.264 Y60.524 E32.64719
G1 X195.514 Y60.224 E32.98927
G1 X194.724 Y60.114 E33.06179
G1 X186.824 Y58.514 E33.79472
G1 X186.084 Y58.324 E33.86419
G1 X185.374 Y58.044 E33.93359
G1 X176.714 Y54.054 E34.80060
G1 X175.544 Y53.364 E34.92411
G1 X174.544 Y52.454 E35.04706
G1 X173.754 Y51.354 E35.17020
G1 X173.194 Y50.124 E35.29309
G1 X170.044 Y40.624 E36.20317
G1 X169.004 Y37.014 E36.54478
G1 X168.814 Y36.094 E36.63020
G1 X168.674 Y35.084 E36.72291
G1 X168.614 Y34.244 E36.79949
G1 X168.654 Y33.404 E36.87596
G1 X169.573 Y25.577 E37.59254
G1 F1800.000 E36.59254
G92 E0
G1 X198.417 Y28.998 F7800.000
G1 E1.00000 F1800.000
G1 X200.323 Y28.378 E1.18226 F540.000
G1 X201.501 Y30.000 E1.36451
G1 X200.323 Y31.622 E1.54677
G1 X198.417 Y31.002 E1.72903
G1 X198.417 Y29.092 E1.90277
G1 X199.042 Y29.452 F7800.000
G1 X200.084 Y29.113 E2.00246 F540.000
G1 X200.729 Y30.000 E2.10215
G1 X200.084 Y30.887 E2.20184
G1 X199.042 Y30.548 E2.30153
G1 X199.042 Y29.546 E2.39270
G1 F1800.000 E1.39270
G92 E0
G1 X179.936 Y18.624 F7800.000
G1 E1.00000 F1800.000
G1 X179.936 Y18.027 E1.05426 F540.000
G1 X183.570 Y13.773 E1.56298
G1 X186.308 Y11.435 E1.89042
G1 X189.235 Y9.641 E2.20261
G1 X189.293 Y9.558 E2.21177
G1 X189.559 Y9.340 E2.24305
G1 X189.717 Y9.413 E2.25890
G1 X192.705 Y8.175 E2.55295
G1 X196.206 Y7.334 E2.88039
G1 X199.796 Y7.052 E3.20782
G1 X203.386 Y7.334 E3.53526
G1 X206.888 Y8.175 E3.86269
G1 X210.214 Y9.553 E4.19013
G1 X213.285 Y11.435 E4.51756
G1 X216.023 Y13.773 E4.84500
G1 X217.128 Y15.066 E4.99964
G1 X218.383 Y15.066 E5.11379
G1 X218.383 Y16.546 E5.24834
G1 X220.243 Y19.582 E5.57207
G1 X221.196 Y21.883 E5.79856
G1 X221.588 Y22.095 E5.83909
G1 X221.775 Y22.229 E5.85999
G1 X221.711 Y22.602 E5.89441
G1 X221.679 Y23.150 E5.94432
G1 X222.462 Y26.410 E6.24917
G1 X222.556 Y27.607 E6.35836
G1 X222.984 Y28.137 E6.42023
G1 X223.217 Y28.363 E6.44980
G1 X223.697 Y28.775 E6.50731
G1 X223.793 Y30.153 E6.63289
G1 X223.461 Y30.292 E6.66567
G1 X223.206 Y30.458 E6.69338
G1 X222.982 Y30.675 E6.72167
G1 X222.796 Y30.944 E6.75147
G1 X222.638 Y31.357 E6.79168
G1 X222.493 Y33.193 E6.95913
G1 X223.527 Y33.445 E7.05585
G1 X222.853 Y36.612 E7.35024
G1 X221.709 Y39.756 E7.65452
G1 X220.999 Y41.091 E7.79194
G1 X219.786 Y41.554 E7.91008
G1 X219.786 Y47.065 E8.41114
G1 X218.756 Y47.065 E8.50475
G1 X218.756 Y44.812 E8.70957
G1 X216.736 Y46.904 E8.97400
G1 X216.390 Y46.806 E9.00673
G1 X216.125 Y46.140 E9.07195
G1 X213.518 Y48.366 E9.38371
G1 X213.671 Y48.578 E9.40747
G1 X213.530 Y48.822 E9.43312
G1 X213.414 Y49.310 E9.47872
G1 X212.748 Y48.894 E9.55011
G1 X210.214 Y50.447 E9.82032
G1 X206.888 Y51.825 E10.14776
G1 X203.386 Y52.666 E10.47520
G1 X199.796 Y52.948 E10.80263
G1 X196.206 Y52.666 E11.13007
G1 X192.705 Y51.825 E11.45750
G1 X190.077 Y50.737 E11.71612
G1 X189.996 Y50.755 E11.72370
G1 X189.864 Y50.648 E11.73914
G1 X189.378 Y50.447 E11.78698
G1 X186.308 Y48.565 E12.11441
G1 X183.751 Y46.382 E12.42015
G1 X183.596 Y47.612 E12.53289
G1 X182.989 Y47.065 E12.60728
G1 X180.467 Y47.065 E12.83653
G1 X180.467 Y44.221 E13.09506
G1 X178.617 Y41.261 E13.41248
G1 X177.256 Y38.204 E13.71677
G1 X176.334 Y34.987 E14.02106
G1 X176.291 Y34.680 E14.04928
G1 X177.181 Y34.228 E14.14003
G1 X176.848 Y30.000 E14.52571
G1 X177.131 Y26.410 E14.85315
G1 X177.971 Y22.909 E15.18058
G1 X179.349 Y19.582 E15.50802
G1 X179.887 Y18.704 E15.60161
G1 X179.311 Y18.448 F7800.000
G1 X179.311 Y14.442 E15.96592 F378.000
G1 X180.788 Y14.442 E16.10023
G1 X180.788 Y16.068 E16.24808
G1 X183.126 Y13.330 E16.57543
G1 X185.939 Y10.927 E16.91181
G1 X188.799 Y9.175 E17.21676
G1 X188.834 Y9.125 E17.22239
G1 X189.096 Y8.916 E17.25284
G1 X189.255 Y8.726 E17.27535
G1 X189.390 Y8.722 E17.28759
G1 X189.615 Y8.678 E17.30844
G1 X189.730 Y8.731 E17.31997
G1 X192.511 Y7.579 E17.59368
G1 X196.108 Y6.715 E17.93006
G1 X199.796 Y6.425 E18.26644
G1 X203.484 Y6.715 E18.60282
G1 X207.081 Y7.579 E18.93920
G1 X210.499 Y8.995 E19.27558
G1 X213.653 Y10.927 E19.61196
G1 X216.466 Y13.330 E19.94834
G1 X217.416 Y14.442 E20.08125
G1 X219.008 Y14.442 E20.22603
G1 X219.008 Y16.370 E20.40138
G1 X220.802 Y19.297 E20.71356
G1 X221.689 Y21.439 E20.92435
G1 X221.921 Y21.564 E20.94832
G1 X222.101 Y21.694 E20.96853
G1 X222.218 Y21.825 E20.98448
G1 X222.402 Y22.174 E21.02040
G1 X222.398 Y22.301 E21.03191
G1 X222.330 Y22.687 E21.06758
G1 X222.306 Y23.083 E21.10367
G1 X223.081 Y26.312 E21.40563
G1 X223.164 Y27.373 E21.50236
G1 X223.437 Y27.706 E21.54152
G1 X223.642 Y27.905 E21.56749
G1 X224.302 Y28.464 E21.64609
G1 X224.409 Y30.000 E21.78614
G1 X224.359 Y30.714 E21.85122
G1 X223.985 Y30.750 E21.88542
G1 X223.755 Y30.846 E21.90813
G1 X223.597 Y30.949 E21.92525
G1 X223.461 Y31.080 E21.94241
G1 X223.353 Y31.238 E21.95977
G1 X223.253 Y31.497 E21.98500
G1 X223.158 Y32.712 E22.09584
G1 X224.202 Y32.966 E22.19354
G1 X224.170 Y33.425 E22.23541
G1 X223.456 Y36.784 E22.54765
G1 X222.281 Y40.011 E22.85988
G1 X221.387 Y41.692 E23.03300
G1 X221.075 Y41.731 E23.06162
G1 X220.411 Y41.984 E23.12629
G1 X220.411 Y47.689 E23.64506
G1 X218.131 Y47.689 E23.85230
G1 X218.131 Y46.359 E23.97331
G1 X216.823 Y47.713 E24.14454
G1 X216.561 Y47.504 E24.17508
G1 X216.349 Y47.444 E24.19506
G1 X215.989 Y47.490 E24.22808
G1 X215.867 Y47.182 E24.25825
G1 X214.362 Y48.467 E24.43818
G1 X214.449 Y48.587 E24.45166
G1 X214.217 Y48.882 E24.48577
G1 X214.117 Y49.056 E24.50399
G1 X214.066 Y49.270 E24.52401
G1 X214.111 Y49.482 E24.54372
G1 X214.279 Y49.843 E24.57993
G1 X213.611 Y50.365 E24.65703
G1 X213.358 Y50.074 E24.69208
G1 X212.978 Y49.774 E24.73612
G1 X212.745 Y49.629 E24.76104
G1 X210.499 Y51.005 E25.00057
G1 X207.081 Y52.421 E25.33695
G1 X203.484 Y53.285 E25.67333
G1 X199.796 Y53.575 E26.00971
G1 X196.108 Y53.285 E26.34609
G1 X192.511 Y52.421 E26.68246
G1 X190.022 Y51.390 E26.92744
G1 X189.952 Y51.406 E26.93402
G1 X189.801 Y51.397 E26.94778
G1 X189.541 Y51.191 E26.97793
G1 X189.093 Y51.005 E27.02199
G1 X185.939 Y49.073 E27.35837
G1 X184.227 Y47.610 E27.56317
G1 X184.067 Y48.877 E27.67930
G1 X182.749 Y47.689 E27.84067
G1 X179.842 Y47.689 E28.10493
G1 X179.842 Y44.401 E28.40398
G1 X178.064 Y41.555 E28.70909
G1 X176.668 Y38.418 E29.02133
G1 X175.721 Y35.117 E29.33356
G1 X175.613 Y34.348 E29.40420
G1 X176.525 Y33.860 E29.49825
G1 X176.221 Y30.000 E29.85035
G1 X176.512 Y26.312 E30.18673
G1 X177.375 Y22.715 E30.52311
G1 X178.791 Y19.297 E30.85949
G1 X179.262 Y18.528 E30.94152
G1 X184.537 Y49.454 F7800.000
G1 X184.801 Y49.393 E30.96617 F378.000
G1 X184.593 Y48.741 E31.02840
G1 X184.801 Y49.393 F7800.000
G1 X185.204 Y49.643 E31.07158 F378.000
G1 X185.380 Y49.307 E31.10607
G1 X185.204 Y49.643 F7800.000
G1 X185.692 Y49.921 E31.15708 F378.000
G1 X185.851 Y49.463 E31.20117
G1 X185.692 Y49.921 F7800.000
G1 X186.115 Y50.201 E31.24733 F378.000
G1 X186.435 Y49.986 E31.28238
G1 X186.714 Y50.129 F7800.000
G1 X186.688 Y50.563 E31.32190 F378.000
G1 X186.115 Y50.201 E31.38351
G1 X186.361 Y50.832 F7800.000
G1 X187.662 Y51.248 E31.50772 F378.000
G1 X188.343 Y51.312 E31.56994
G1 X188.378 Y51.295 F7800.000
G1 X188.455 Y51.470 E31.58730 F378.000
G1 X187.910 Y51.325 F7800.000
G1 X187.734 Y51.209 E31.60652 F378.000
G1 X187.710 Y51.234 F7800.000
G1 X186.688 Y50.563 E31.71772 F378.000
G1 F1800.000 E30.71772
G92 E0
G1 X223.659 Y32.318 F7800.000
G1 E1.00000 F1800.000
G1 X224.017 Y32.246 E1.03318 F378.000
G1 X224.016 Y32.245 F7800.000
G1 X224.284 Y32.244 E1.05758 F378.000
G1 X224.172 Y32.315 F7800.000
G1 X224.427 Y32.529 E1.08788 F378.000
G1 X222.861 Y33.717 F7800.000
G1 X223.007 Y33.863 E1.10666 F1080.000
G1 X222.852 Y34.592 E1.17452
G1 X196.062 Y7.803 E4.62222
G1 X195.349 Y7.974 E4.68897
G1 X222.697 Y35.321 E8.20851
G1 X222.541 Y36.051 E8.27637
G1 X194.636 Y8.145 E11.86775
G1 X193.923 Y8.316 E11.93450
G1 X222.355 Y36.749 E15.59364
G1 X222.119 Y37.397 E15.65644
G1 X193.209 Y8.488 E19.37699
G1 X192.538 Y8.701 E19.44110
G1 X221.883 Y38.045 E23.21769
G1 X221.647 Y38.694 E23.28049
G1 X191.913 Y8.960 E27.10719
G1 X191.287 Y9.219 E27.16879
G1 X221.411 Y39.342 E31.04561
G1 X221.130 Y39.946 E31.10621
G1 X190.662 Y9.478 E35.02741
G1 X190.036 Y9.737 E35.08901
G1 X220.713 Y40.414 E39.03705
G1 X220.073 Y40.658 E39.09939
G1 X189.431 Y10.016 E43.04304
G1 X188.882 Y10.352 E43.10157
G1 X219.433 Y40.903 E47.03343
G1 X219.052 Y41.405 E47.09087
G1 X188.334 Y10.688 E51.04416
G1 X187.785 Y11.024 E51.10269
G1 X219.052 Y42.290 E55.12655
G1 X219.052 Y43.174 E55.20704
G1 X187.237 Y11.360 E59.30148
G1 X186.689 Y11.696 E59.36001
G1 X218.752 Y43.759 E63.48652
G1 X218.318 Y44.209 E63.54344
G1 X186.194 Y12.086 E67.67763
G1 X185.717 Y12.493 E67.73472
G1 X217.883 Y44.659 E71.87439
G1 X217.442 Y45.103 E71.93130
G1 X201.180 Y28.841 E74.02417
G1 X200.287 Y27.947 F7800.000
G1 X185.240 Y12.901 E75.96056 F1080.000
G1 X184.763 Y13.308 E76.01765
G1 X199.619 Y28.164 E77.92952
G1 X198.951 Y28.381 E77.99340
G1 X184.286 Y13.716 E79.88075
G1 X183.836 Y14.150 E79.93767
G1 X198.284 Y28.598 E81.79709
G1 X197.995 Y29.193 E81.85733
G1 X183.411 Y14.609 E83.73431
G1 X183.003 Y15.086 E83.79140
G1 X197.995 Y30.078 E85.72082
G1 F1800.000 E84.72082
G92 E0
G1 X201.784 Y30.329 F7800.000
G1 E1.00000 F1800.000
G1 X217.000 Y45.545 E2.95828 F1080.000
G1 X216.558 Y45.987 E3.01519
G1 X201.412 Y30.841 E4.96445
G1 X201.039 Y31.353 E5.02207
G1 X215.665 Y45.978 E6.90428
G1 X215.188 Y46.386 E6.96137
G1 X200.667 Y31.865 E8.83008
G1 X199.819 Y31.901 E8.90739
G1 X214.710 Y46.793 E10.82395
G1 X214.233 Y47.200 E10.88104
G1 X182.596 Y15.563 E14.95273
G1 X182.188 Y16.040 E15.00981
G1 X213.756 Y47.608 E19.07255
G1 X213.279 Y48.015 E19.12963
G1 X181.781 Y16.517 E23.18341
G1 X181.374 Y16.994 E23.24050
G1 X212.802 Y48.423 E27.28531
G1 X212.219 Y48.724 E27.34505
G1 X180.966 Y17.471 E31.36723
G1 X180.559 Y17.948 E31.42432
G1 X211.671 Y49.060 E35.42836
G1 X211.122 Y49.396 E35.48689
G1 X180.358 Y18.631 E39.44620
G1 X180.064 Y19.222 E39.50624
G1 X210.574 Y49.732 E43.43276
G1 X210.026 Y50.068 E43.49129
G1 X179.728 Y19.771 E47.39048
G1 X179.469 Y20.396 E47.45206
G1 X209.401 Y50.328 E51.30421
G1 X208.775 Y50.587 E51.36581
G1 X179.210 Y21.021 E55.17082
G1 X178.951 Y21.646 E55.23242
G1 X208.150 Y50.846 E58.99027
G1 X207.524 Y51.105 E59.05188
G1 X178.692 Y22.272 E62.76259
G1 X178.433 Y22.897 E62.82419
G1 X206.899 Y51.364 E66.48775
G1 X206.206 Y51.555 E66.55320
G1 X178.241 Y23.590 E70.15215
G1 X178.070 Y24.304 E70.21890
G1 X205.493 Y51.726 E73.74809
G1 X204.779 Y51.897 E73.81484
G1 X177.899 Y25.017 E77.27428
G1 X177.728 Y25.730 E77.34103
G1 X204.066 Y52.069 E80.73072
G1 X203.353 Y52.240 E80.79746
G1 X177.556 Y26.443 E84.11740
G1 X177.487 Y27.258 E84.19183
G1 X202.538 Y52.309 E87.41582
G1 X201.718 Y52.374 E87.49066
G1 X177.422 Y28.078 E90.61743
G1 X177.358 Y28.898 E90.69228
G1 X200.898 Y52.438 E93.72184
G1 X200.078 Y52.503 E93.79668
G1 X177.293 Y29.718 E96.72902
G1 X177.321 Y30.630 E96.81204
G1 X199.166 Y52.475 E99.62351
G1 X198.206 Y52.400 E99.71114
G1 X177.396 Y31.590 E102.38934
G1 X177.472 Y32.550 E102.47698
G1 X197.246 Y52.324 E105.02190
G1 X196.286 Y52.249 E105.10953
G1 X177.547 Y33.510 E107.52118
G1 X177.623 Y34.470 E107.60882
G1 X195.125 Y51.972 E109.86134
G1 X193.962 Y51.693 E109.97026
G1 X177.041 Y34.772 E112.14790
G1 X176.934 Y35.550 E112.21932
G1 X192.787 Y51.402 E114.25950
G1 X191.277 Y50.777 F7800.000
G1 X177.290 Y36.790 E116.05960 F1080.000
G1 X177.645 Y38.030 E116.17700
G1 X189.767 Y50.152 E117.73703
G1 X187.584 Y48.853 F7800.000
G1 X178.347 Y39.616 E118.92583 F1080.000
G1 X179.127 Y41.280 F7800.000
G1 X183.426 Y45.580 E119.47917 F1080.000
G1 X183.328 Y46.366 E119.55125
G1 X180.600 Y43.638 E119.90230
G1 X180.889 Y44.811 E120.01229
G1 X182.721 Y46.643 E120.24798
G1 X181.836 Y46.643 E120.32847
G1 X180.889 Y45.696 E120.45034
G1 X180.889 Y46.580 E120.53083
G1 X180.952 Y46.643 E120.53888
G1 X222.090 Y32.946 F7800.000
G1 X196.851 Y7.707 E123.78704 F1080.000
G1 X197.671 Y7.642 E123.86188
