; generated by Slic3r 1.1.3 on 2014-06-03 at 18:10:42

; perimeters extrusion width = 0.35mm
; infill extrusion width = 0.39mm
; solid infill extrusion width = 0.39mm
; top infill extrusion width = 0.39mm

G21 ; set units to millimeters
M107
M104 S220 ; set temperature
G28 ; home all axes
G1 Z5 F5000 ; lift nozzle

M109 S220 ; wait for temperature to be reached
G90 ; use absolute coordinates
G92 E0
M82 ; use absolute distances for extrusion
G1 F1800.000 E-1.00000
G92 E0
G1 Z0.350 F7800.000
G1 X122.813 Y60.250 F7800.000
G1 E1.00000 F1800.000
G1 X125.394 Y57.780 E1.32485 F1080.000
G1 X135.506 Y52.065 E2.38096
G1 X136.736 Y51.514 E2.50353
G1 X140.710 Y50.196 E2.88430
G1 X145.485 Y49.141 E3.32887
G1 X150.365 Y48.847 E3.77347
G1 X155.231 Y49.319 E4.21805
G1 X159.964 Y50.547 E4.66264
G1 X164.446 Y52.500 E5.10722
G1 X167.711 Y54.501 E5.45544
G1 X173.210 Y57.950 E6.04557
G1 X175.004 Y59.544 E6.26380
G1 X176.033 Y61.263 E6.44604
G1 X179.650 Y69.899 E7.29738
G1 X181.571 Y76.164 E7.89320
G1 X181.872 Y77.784 E8.04303
G1 X181.955 Y78.958 E8.15005
G1 X181.992 Y80.506 E8.29083
G1 X181.843 Y82.637 E8.48514
G1 X181.608 Y84.982 E8.69939
G1 X180.868 Y88.462 E9.02298
G1 X178.374 Y99.621 E10.06266
G1 X177.470 Y101.844 E10.28089
G1 X175.889 Y103.650 E10.49912
G1 X173.747 Y104.863 E10.72294
G1 X165.633 Y107.766 E11.50653
G1 X158.882 Y109.804 E12.14779
G1 X157.751 Y110.076 E12.25355
G1 X154.108 Y110.859 E12.59239
G1 X152.948 Y110.950 E12.69815
G1 X149.227 Y111.153 E13.03701
G1 X148.068 Y111.062 E13.14277
G1 X144.610 Y110.736 E13.45861
G1 X136.702 Y109.129 E14.19238
G1 X135.124 Y108.615 E14.34329
G1 X126.432 Y104.630 E15.21272
G1 X124.446 Y103.282 E15.43095
G1 X122.565 Y100.299 E15.75167
G1 X119.369 Y90.536 E16.68569
G1 X118.557 Y87.706 E16.95344
G1 X118.199 Y86.199 E17.09427
G1 X118.057 Y85.192 E17.18679
G1 X118.036 Y83.340 E17.35522
G1 X119.099 Y74.633 E18.15277
G1 X121.896 Y62.467 E19.28783
G1 X122.793 Y60.298 E19.50129
G1 X123.398 Y60.495 F7800.000
G1 X125.702 Y58.324 E19.78915 F1080.000
G1 X135.813 Y52.609 E20.84527
G1 X136.937 Y52.106 E20.95727
G1 X140.856 Y50.803 E21.33278
G1 X145.534 Y49.764 E21.76846
G1 X150.316 Y49.470 E22.20416
G1 X155.086 Y49.927 E22.63983
G1 X159.725 Y51.124 E23.07553
G1 X164.120 Y53.033 E23.51120
G1 X167.379 Y55.031 E23.85884
G1 X172.878 Y58.479 E24.44897
G1 X174.580 Y60.015 E24.65751
G1 X175.458 Y61.507 E24.81487
G1 X179.053 Y70.082 E25.66036
G1 X180.974 Y76.347 E26.25617
G1 X181.249 Y77.827 E26.39309
G1 X181.331 Y79.001 E26.50011
G1 X181.369 Y80.462 E26.63298
G1 X181.220 Y82.594 E26.82728
G1 X180.997 Y84.852 E27.03361
G1 X180.258 Y88.326 E27.35660
G1 X177.764 Y99.485 E28.39628
G1 X176.884 Y101.603 E28.60483
G1 X175.334 Y103.293 E28.81337
G1 X173.536 Y104.275 E28.99963
G1 X165.452 Y107.168 E29.78041
G1 X158.736 Y109.197 E30.41830
G1 X157.605 Y109.468 E30.52405
G1 X154.059 Y110.236 E30.85399
G1 X152.899 Y110.327 E30.95975
G1 X149.276 Y110.530 E31.28971
G1 X148.117 Y110.439 E31.39547
G1 X144.734 Y110.124 E31.70439
G1 X136.826 Y108.517 E32.43816
G1 X135.384 Y108.047 E32.57607
G1 X126.693 Y104.062 E33.44549
G1 X124.805 Y102.759 E33.65403
G1 X123.159 Y100.104 E33.93812
G1 X119.970 Y90.364 E34.87001
G1 X119.158 Y87.534 E35.13775
G1 X118.818 Y86.112 E35.27067
G1 X118.676 Y85.105 E35.36318
G1 X118.657 Y83.412 E35.51709
G1 X119.708 Y74.773 E36.30844
G1 X122.505 Y62.607 E37.44350
G1 X123.377 Y60.543 E37.64727
G1 F1800.000 E36.64727
G92 E0
G1 X151.501 Y80.000 F7800.000
G1 E1.00000 F1800.000
G1 X150.323 Y81.622 E1.18226 F540.000
G1 X148.417 Y81.002 E1.36451
G1 X148.417 Y78.998 E1.54677
G1 X150.323 Y78.378 E1.72903
G1 X151.470 Y79.958 E1.90652
G1 X150.729 Y80.000 F7800.000
G1 X150.084 Y80.887 E2.00621 F378.000
G1 X149.042 Y80.548 E2.10590
G1 X149.042 Y79.452 E2.20559
G1 X150.084 Y79.113 E2.30528
G1 X150.698 Y79.958 E2.40020
G1 F1800.000 E1.40020
G92 E0
G1 X172.500 Y83.108 F7800.000
G1 E1.00000 F1800.000
G1 X173.544 Y83.363 E1.09773 F540.000
G1 X172.853 Y86.612 E1.39974
G1 X171.709 Y89.756 E1.70403
G1 X170.999 Y91.090 E1.84145
G1 X170.078 Y91.442 E1.93112
G1 X169.559 Y91.535 E1.97905
G1 X168.362 Y93.488 E2.18743
G1 X166.611 Y95.537 E2.43249
G1 X168.161 Y95.296 E2.57513
G1 X169.414 Y97.065 E2.77219
G1 X167.895 Y97.065 E2.91027
G1 X167.377 Y96.240 E2.99879
G1 X166.736 Y96.904 E3.08267
G1 X166.390 Y96.806 E3.11540
G1 X166.125 Y96.140 E3.18061
G1 X163.518 Y98.366 E3.49238
G1 X163.671 Y98.578 E3.51614
G1 X163.530 Y98.822 E3.54179
G1 X163.414 Y99.310 E3.58739
G1 X162.748 Y98.894 E3.65879
G1 X160.214 Y100.447 E3.92899
G1 X156.888 Y101.825 E4.25643
G1 X153.386 Y102.666 E4.58386
G1 X149.796 Y102.948 E4.91130
G1 X146.206 Y102.666 E5.23873
G1 X142.705 Y101.825 E5.56617
G1 X140.077 Y100.737 E5.82476
G1 X139.996 Y100.755 E5.83236
G1 X139.864 Y100.648 E5.84782
G1 X139.378 Y100.447 E5.89564
G1 X136.308 Y98.565 E6.22307
G1 X133.751 Y96.382 E6.52882
G1 X133.596 Y97.612 E6.64156
G1 X131.446 Y95.676 E6.90472
G1 X131.446 Y97.065 E7.03102
G1 X130.429 Y97.065 E7.12349
G1 X130.429 Y94.160 E7.38763
G1 X128.617 Y91.261 E7.69844
G1 X127.256 Y88.204 E8.00273
G1 X126.334 Y84.987 E8.30701
G1 X126.291 Y84.680 E8.33523
G1 X127.181 Y84.229 E8.42598
G1 X126.848 Y80.000 E8.81167
G1 X127.131 Y76.410 E9.13910
G1 X127.971 Y72.909 E9.46654
G1 X129.349 Y69.582 E9.79398
G1 X129.936 Y68.624 E9.89609
G1 X129.936 Y68.027 E9.95035
G1 X133.570 Y63.773 E10.45907
G1 X136.308 Y61.435 E10.78651
G1 X139.235 Y59.641 E11.09870
G1 X139.293 Y59.558 E11.10785
G1 X139.559 Y59.340 E11.13914
G1 X139.717 Y59.413 E11.15500
G1 X142.705 Y58.175 E11.44904
G1 X146.206 Y57.334 E11.77648
G1 X149.796 Y57.052 E12.10391
G1 X153.386 Y57.334 E12.43135
G1 X156.888 Y58.175 E12.75878
G1 X160.214 Y59.553 E13.08622
G1 X163.285 Y61.435 E13.41365
G1 X166.023 Y63.773 E13.74109
G1 X167.128 Y65.066 E13.89573
G1 X168.383 Y65.066 E14.00988
G1 X168.383 Y66.546 E14.14443
G1 X170.243 Y69.582 E14.46816
G1 X171.196 Y71.883 E14.69465
G1 X171.588 Y72.095 E14.73518
G1 X171.776 Y72.230 E14.75620
G1 X171.711 Y72.602 E14.79058
G1 X171.679 Y73.150 E14.84048
G1 X172.462 Y76.410 E15.14533
G1 X172.556 Y77.607 E15.25452
G1 X172.984 Y78.137 E15.31640
G1 X173.217 Y78.363 E15.34596
G1 X173.697 Y78.775 E15.40347
G1 X173.793 Y80.153 E15.52905
G1 X173.461 Y80.292 E15.56184
G1 X173.206 Y80.458 E15.58954
G1 X172.982 Y80.675 E15.61784
G1 X172.796 Y80.945 E15.64764
G1 X172.638 Y81.357 E15.68784
G1 X172.504 Y83.056 E15.84279
G1 X173.164 Y82.627 F7800.000
G1 X174.208 Y82.881 E15.94042 F378.000
G1 X174.170 Y83.425 E15.99003
G1 X173.456 Y86.784 E16.30226
G1 X172.281 Y90.011 E16.61450
G1 X171.387 Y91.692 E16.78762
G1 X171.075 Y91.731 E16.81624
G1 X170.245 Y92.047 E16.89697
G1 X169.945 Y92.100 E16.92470
G1 X168.869 Y93.857 E17.11203
G1 X168.182 Y94.660 E17.20813
G1 X169.661 Y94.430 E17.34421
G1 X168.979 Y95.369 E17.44975
G1 X170.622 Y97.689 E17.70826
G1 X167.550 Y97.689 E17.98760
G1 X167.272 Y97.248 E18.03499
G1 X166.823 Y97.713 E18.09378
G1 X166.561 Y97.504 E18.12431
G1 X166.349 Y97.444 E18.14429
G1 X165.989 Y97.490 E18.17731
G1 X165.867 Y97.182 E18.20749
G1 X164.362 Y98.467 E18.38742
G1 X164.468 Y98.613 E18.40382
G1 X164.217 Y98.882 E18.43725
G1 X164.117 Y99.056 E18.45547
G1 X164.066 Y99.270 E18.47548
G1 X164.111 Y99.482 E18.49520
G1 X164.279 Y99.843 E18.53141
G1 X163.611 Y100.365 E18.60851
G1 X163.358 Y100.074 E18.64356
G1 X162.978 Y99.774 E18.68760
G1 X162.745 Y99.629 E18.71252
G1 X160.499 Y101.005 E18.95204
G1 X157.081 Y102.421 E19.28843
G1 X153.484 Y103.285 E19.62480
G1 X149.796 Y103.575 E19.96118
G1 X146.108 Y103.285 E20.29756
G1 X142.511 Y102.421 E20.63394
G1 X140.022 Y101.390 E20.87890
G1 X139.850 Y101.400 E20.89458
G1 X139.763 Y101.368 E20.90305
G1 X139.541 Y101.191 E20.92885
G1 X139.093 Y101.005 E20.97291
G1 X137.525 Y100.044 E21.14017
G1 X137.481 Y100.108 E21.14721
G1 X137.095 Y99.917 E21.18629
G1 X137.132 Y99.803 E21.19715
G1 X135.939 Y99.073 E21.32433
G1 X134.227 Y97.610 E21.52914
G1 X134.067 Y98.877 E21.64526
G1 X132.071 Y97.079 E21.88960
G1 X132.071 Y97.689 E21.94512
G1 X129.804 Y97.689 E22.15122
G1 X129.804 Y94.339 E22.45590
G1 X128.064 Y91.555 E22.75438
G1 X126.668 Y88.418 E23.06662
G1 X125.721 Y85.117 E23.37885
G1 X125.613 Y84.348 E23.44949
G1 X126.525 Y83.860 E23.54353
G1 X126.221 Y80.000 E23.89564
G1 X126.512 Y76.312 E24.23202
G1 X127.375 Y72.715 E24.56840
G1 X128.791 Y69.297 E24.90478
G1 X129.311 Y68.448 E24.99534
G1 X129.311 Y64.442 E25.35964
G1 X130.788 Y64.442 E25.49396
G1 X130.788 Y66.067 E25.64181
G1 X133.126 Y63.330 E25.96915
G1 X135.939 Y60.927 E26.30553
G1 X138.799 Y59.175 E26.61048
G1 X138.834 Y59.125 E26.61611
G1 X139.096 Y58.916 E26.64656
G1 X139.255 Y58.726 E26.66907
G1 X139.390 Y58.722 E26.68131
G1 X139.615 Y58.678 E26.70216
G1 X139.730 Y58.731 E26.71370
G1 X142.511 Y57.579 E26.98740
G1 X146.108 Y56.715 E27.32378
G1 X149.796 Y56.425 E27.66016
G1 X153.484 Y56.715 E27.99654
G1 X157.081 Y57.579 E28.33292
G1 X160.499 Y58.995 E28.66930
G1 X163.653 Y60.927 E29.00568
G1 X166.466 Y63.330 E29.34206
G1 X167.416 Y64.442 E29.47497
G1 X169.008 Y64.442 E29.61975
G1 X169.008 Y66.370 E29.79510
G1 X170.802 Y69.297 E30.10728
G1 X171.689 Y71.439 E30.31807
G1 X171.921 Y71.564 E30.34205
G1 X172.101 Y71.694 E30.36225
G1 X172.218 Y71.825 E30.37821
G1 X172.386 Y72.137 E30.41039
G1 X172.398 Y72.301 E30.42535
G1 X172.330 Y72.687 E30.46102
G1 X172.306 Y73.083 E30.49711
G1 X173.081 Y76.312 E30.79907
G1 X173.164 Y77.373 E30.89580
G1 X173.437 Y77.706 E30.93496
G1 X173.642 Y77.905 E30.96093
G1 X174.302 Y78.464 E31.03953
G1 X174.409 Y80.000 E31.17958
G1 X174.359 Y80.714 E31.24466
G1 X173.985 Y80.750 E31.27886
G1 X173.755 Y80.847 E31.30157
G1 X173.597 Y80.949 E31.31869
G1 X173.461 Y81.080 E31.33586
G1 X173.353 Y81.238 E31.35321
G1 X173.253 Y81.497 E31.37844
G1 X173.169 Y82.575 E31.47678
G1 X137.221 Y100.420 F7800.000
G1 X137.261 Y101.161 E31.54431 F378.000
G1 X136.655 Y100.752 E31.61085
G1 X136.779 Y100.390 E31.64569
G1 X137.168 Y100.416 E31.68118
G1 X138.420 Y99.352 F7800.000
G1 X128.098 Y89.030 E33.00850 F1080.000
G1 X128.814 Y90.638 F7800.000
G1 X135.377 Y97.201 E33.85244 F1080.000
G1 X133.354 Y96.070 F7800.000
G1 X130.100 Y92.816 E34.27087 F1080.000
G1 X131.545 Y95.154 F7800.000
G1 X131.835 Y95.444 E34.30816 F1080.000
G1 X140.335 Y100.374 F7800.000
G1 X127.523 Y87.563 E35.95565 F1080.000
G1 X127.164 Y86.312 E36.07398
G1 X141.858 Y101.005 E37.96344
G1 X143.257 Y101.512 F7800.000
G1 X126.806 Y85.061 E40.07892 F1080.000
G1 X127.294 Y84.657 E40.13654
G1 X144.431 Y101.794 E42.34025
G1 X145.605 Y102.076 E42.45003
G1 X127.603 Y84.074 E44.76488
G1 X127.527 Y83.106 E44.85321
G1 X146.690 Y102.269 E47.31748
G1 X147.659 Y102.345 E47.40580
G1 X127.451 Y82.138 E50.00440
G1 X127.375 Y81.169 E50.09272
G1 X148.627 Y102.422 E52.82565
G1 X149.595 Y102.498 E52.91397
G1 X127.298 Y80.201 E55.78122
G1 X127.334 Y79.345 E55.85916
G1 X150.452 Y102.462 E58.83194
G1 X151.279 Y102.397 E58.90737
G1 X127.399 Y78.518 E61.97813
G1 X127.464 Y77.690 E62.05357
G1 X152.106 Y102.332 E65.22231
G1 X152.933 Y102.267 E65.29774
G1 X127.529 Y76.863 E68.56447
G1 X127.652 Y76.094 E68.63533
G1 X153.702 Y102.144 E71.98525
G1 X154.422 Y101.972 E72.05253
G1 X127.825 Y75.374 E75.47276
G1 X127.997 Y74.655 E75.54003
G1 X155.141 Y101.799 E79.03057
G1 X155.861 Y101.626 E79.09785
G1 X128.170 Y73.936 E82.65869
G1 X128.343 Y73.216 E82.72596
G1 X156.580 Y101.453 E86.35711
G1 X157.232 Y101.213 E86.42030
G1 X128.583 Y72.564 E90.10445
G1 X128.844 Y71.933 E90.16654
G1 X157.863 Y100.952 E93.89821
G1 X158.494 Y100.691 E93.96030
G1 X129.105 Y71.302 E97.73949
G1 X129.367 Y70.671 E97.80158
G1 X159.125 Y100.430 E101.62829
G1 X159.756 Y100.168 E101.69038
G1 X129.628 Y70.041 E105.56461
G1 X129.935 Y69.455 E105.62471
G1 X160.341 Y99.861 E109.53477
G1 X160.894 Y99.522 E109.59376
G1 X130.274 Y68.902 E113.53137
G1 X130.407 Y68.143 E113.60144
G1 X161.447 Y99.184 E117.59307
G1 X162.001 Y98.845 E117.65206
G1 X130.818 Y67.662 E121.66197
G1 X131.229 Y67.181 E121.71951
G1 X162.554 Y98.506 E125.74770
G1 X163.097 Y98.156 E125.80641
G1 X131.640 Y66.699 E129.85159
G1 X132.051 Y66.218 E129.90913
G1 X163.578 Y97.746 E133.96334
G1 X164.059 Y97.335 E134.02088
G1 X132.462 Y65.737 E138.08411
G1 X132.873 Y65.256 E138.14165
G1 X147.984 Y80.367 E140.08485
G1 X147.984 Y79.475 E140.16598
G1 X133.284 Y64.775 E142.05633
G1 X133.695 Y64.294 E142.11387
G1 X148.060 Y78.659 E143.96112
G1 X148.733 Y78.440 E144.02550
G1 X134.145 Y63.851 E145.90146
G1 X134.626 Y63.441 E145.95900
G1 X149.406 Y78.221 E147.85968
G1 X150.080 Y78.002 E147.92406
G1 X135.107 Y63.030 E149.84945
G1 X135.588 Y62.619 E149.90699
G1 X167.177 Y94.208 E153.96918
G1 X167.589 Y93.727 E154.02672
G1 X136.069 Y62.208 E158.07989
G1 X136.551 Y61.797 E158.13743
G1 X168.000 Y93.246 E162.18159
G1 X168.341 Y92.694 E162.24053
G1 X137.102 Y61.456 E166.25763
G1 X137.655 Y61.117 E166.31662
G1 X168.679 Y92.141 E170.30618
G1 X169.018 Y91.588 E170.36517
G1 X138.208 Y60.778 E174.32718
G1 X138.761 Y60.439 E174.38617
G1 X169.439 Y91.116 E178.33108
G1 X170.161 Y90.947 E178.39858
G1 X139.315 Y60.100 E182.36530
G1 X139.909 Y59.802 E182.42574
G1 X170.748 Y90.641 E186.39147
G1 X171.058 Y90.059 E186.45146
G1 X140.540 Y59.541 E190.37589
G1 X141.170 Y59.279 E190.43798
G1 X171.355 Y89.464 E194.31947
G1 X171.593 Y88.809 E194.38277
G1 X141.801 Y59.018 E198.21376
G1 X142.432 Y58.757 E198.27585
G1 X171.831 Y88.155 E202.05633
G1 X172.069 Y87.501 E202.11962
G1 X143.094 Y58.527 E205.84555
G1 X143.814 Y58.354 E205.91283
G1 X172.307 Y86.847 E209.57686
G1 X172.508 Y86.156 E209.64232
G1 X144.533 Y58.181 E213.23965
G1 X145.253 Y58.009 E213.30693
G1 X172.664 Y85.420 E216.83186
G1 X172.820 Y84.684 E216.90025
G1 X145.972 Y57.836 E220.35277
G1 X146.754 Y57.726 E220.42457
G1 X172.071 Y83.042 E223.68013
G1 X172.136 Y82.215 E223.75556
G1 X147.581 Y57.661 E226.91314
G1 X148.408 Y57.596 E226.98857
G1 X172.201 Y81.388 E230.04816
G1 X172.425 Y80.720 E230.11224
G1 X149.235 Y57.530 E233.09427
G1 X150.108 Y57.511 E233.17363
G1 X172.823 Y80.226 E236.09466
G1 X173.338 Y79.849 E236.15271
G1 X151.076 Y57.587 E239.01547
G1 X152.044 Y57.663 E239.10379
G1 X172.133 Y77.752 E241.68707
G1 X172.057 Y76.783 E241.77540
G1 X153.013 Y57.739 E244.22435
G1 X154.122 Y57.956 E244.32712
G1 X171.840 Y75.674 E246.60553
G1 X171.558 Y74.500 E246.71531
G1 X155.296 Y58.238 E248.80652
G1 X156.470 Y58.520 E248.91630
G1 X171.276 Y73.326 E250.82030
G1 X171.297 Y72.455 E250.89958
G1 X157.909 Y59.067 E252.62122
G1 X159.432 Y59.698 F7800.000
G1 X170.099 Y70.365 E253.99294 F1080.000
G1 X168.987 Y68.361 F7800.000
G1 X161.435 Y60.809 E254.96407 F1080.000
G1 X164.913 Y63.395 F7800.000
G1 X167.950 Y66.432 E255.35454 F1080.000
G1 X167.950 Y65.539 E255.43567
G1 X167.910 Y65.499 E255.44081
G1 X172.609 Y83.581 F7800.000
G1 X172.977 Y83.949 E255.48810 F1080.000
G1 F1800.000 E254.48810
G92 E0
G1 X151.928 Y79.850 F7800.000
G1 E1.00000 F1800.000
G1 X166.766 Y94.689 E2.90817 F1080.000
G1 X166.355 Y95.170 E2.96571
G1 X151.678 Y80.493 E4.85307
G1 X151.303 Y81.010 E4.91115
G1 X165.944 Y95.651 E6.79393
G1 X165.503 Y96.102 E6.85129
G1 X150.928 Y81.526 E8.72557
G1 X150.552 Y82.043 E8.78365
G1 X165.022 Y96.513 E10.64433
G1 X164.540 Y96.924 E10.70187
G1 X149.391 Y81.774 E12.65002
G1 F1800.000 E11.65002
G92 E0
G1 X167.936 Y95.769 F7800.000
G1 E1.00000 F1800.000
G1 X168.037 Y95.871 E1.01306 F1080.000
G1 X166.852 Y96.012 F7800.000
G1 X166.788 Y95.948 E1.02133 F1080.000
G1 X130.937 Y96.752 F7800.000
G1 X130.937 Y94.797 E1.12089 F360.000
M104 S220 ; set temperature
G1 F1800.000 E0.12089
G92 E0
G1 Z0.600 F7800.000
G1 X157.069 Y80.741 F7800.000
G1 E1.00000 F1800.000
G1 X156.853 Y82.177 E1.05283 F1800.000
G1 X155.898 Y84.160 E1.13291
G1 X154.401 Y85.774 E1.21299
G1 X152.494 Y86.874 E1.29307
G1 X150.348 Y87.364 E1.37315
G1 X148.153 Y87.200 E1.45323
G1 X146.104 Y86.395 E1.53331
G1 X144.383 Y85.023 E1.61339
G1 X143.143 Y83.204 E1.69347
G1 X142.494 Y81.101 E1.77355
G1 X142.494 Y78.899 E1.85363
G1 X143.143 Y76.796 E1.93371
G1 X144.383 Y74.977 E2.01379
G1 X146.104 Y73.605 E2.09387
G1 X148.153 Y72.800 E2.17395
G1 X150.348 Y72.636 E2.25403
G1 X152.494 Y73.126 E2.33411
G1 X154.401 Y74.226 E2.41419
G1 X155.898 Y75.840 E2.49427
G1 X156.853 Y77.823 E2.57435
