; generated by Slic3r 1.0.0RC3 on 2014-03-05 at 18:32:15

; layer_height = 0.25
; perimeters = 1
; top_solid_layers = 5
; bottom_solid_layers = 3
; fill_density = 0.12
; perimeter_speed = 30
; infill_speed = 60
; travel_speed = 130
; nozzle_diameter = 0.35
; filament_diameter = 1.75
; extrusion_multiplier = 1
; perimeters extrusion width = 0.35mm
; infill extrusion width = 0.39mm
; solid infill extrusion width = 0.39mm
; top infill extrusion width = 0.39mm
; first layer extrusion width = 0.70mm

G21 ; set units to millimeters
M107
M104 S220 ; set temperature
G28 ; home all axes
G1 Z5 F5000 ; lift nozzle

M109 S220 ; wait for temperature to be reached
G90 ; use absolute coordinates
G92 E0
M82 ; use absolute distances for extrusion
G1 F1800.000 E-1.00000
G92 E0
G1 Z0.350 F7800.000
G1 X122.374 Y61.044 F7800.000
G1 E1.00000 F1800.000
G1 X123.144 Y59.744 E1.13739 F540.000
G1 X124.164 Y58.644 E1.27379
G1 X125.384 Y57.774 E1.41005
G1 X135.494 Y52.064 E2.46583
G1 X136.264 Y51.684 E2.54391
G1 X140.054 Y50.384 E2.90824
G1 X140.694 Y50.194 E2.96895
G1 X144.344 Y49.314 E3.31035
G1 X145.484 Y49.134 E3.41530
G1 X149.234 Y48.844 E3.75730
G1 X150.354 Y48.844 E3.85914
G1 X154.094 Y49.134 E4.20024
G1 X155.234 Y49.314 E4.30518
G1 X158.884 Y50.194 E4.64658
G1 X159.944 Y50.544 E4.74809
G1 X163.414 Y51.974 E5.08936
G1 X164.444 Y52.494 E5.19427
G1 X167.644 Y54.454 E5.53549
G1 X173.204 Y57.944 E6.13240
G1 X174.364 Y58.844 E6.26591
G1 X175.324 Y59.964 E6.40004
G1 X176.034 Y61.254 E6.53393
G1 X179.394 Y69.194 E7.31790
G1 X179.644 Y69.894 E7.38549
G1 X181.564 Y76.154 E7.98088
G1 X181.764 Y76.954 E8.05586
G1 X181.864 Y77.774 E8.13097
G1 X181.984 Y79.484 E8.28685
G1 X181.984 Y80.494 E8.37868
G1 X181.744 Y83.954 E8.69406
G1 X181.604 Y84.994 E8.78948
G1 X180.864 Y88.454 E9.11121
G1 X178.374 Y99.614 E10.15093
G1 X177.914 Y100.994 E10.28320
G1 X177.184 Y102.254 E10.41562
G1 X176.224 Y103.354 E10.54837
G1 X175.054 Y104.234 E10.68149
G1 X173.744 Y104.854 E10.81328
G1 X165.634 Y107.764 E11.59675
G1 X159.294 Y109.694 E12.19937
G1 X155.214 Y110.674 E12.58091
G1 X154.114 Y110.854 E12.68226
G1 X150.374 Y111.154 E13.02343
G1 X149.214 Y111.154 E13.12891
G1 X145.464 Y110.854 E13.47099
G1 X144.604 Y110.734 E13.54994
G1 X136.704 Y109.134 E14.28287
G1 X135.894 Y108.914 E14.35919
G1 X135.114 Y108.614 E14.43518
G1 X126.424 Y104.624 E15.30467
G1 X125.144 Y103.864 E15.44003
G1 X124.044 Y102.864 E15.57521
G1 X123.174 Y101.654 E15.71072
G1 X122.564 Y100.294 E15.84626
G1 X119.444 Y90.794 E16.75548
G1 X118.404 Y87.184 E17.09709
G1 X118.194 Y86.184 E17.19000
G1 X118.054 Y85.174 E17.28272
G1 X117.984 Y84.254 E17.36661
G1 X118.034 Y83.324 E17.45130
G1 X118.964 Y75.404 E18.17641
G1 X119.094 Y74.634 E18.24742
G1 X121.884 Y62.464 E19.38274
G1 X122.343 Y61.133 E19.51081
G1 X122.944 Y61.304 F7800.000
G1 X123.644 Y60.124 E19.63556 F540.000
G1 X124.574 Y59.114 E19.76040
G1 X125.694 Y58.314 E19.88556
G1 X135.804 Y52.604 E20.94134
G1 X136.504 Y52.264 E21.01211
G1 X140.254 Y50.974 E21.37270
G1 X140.844 Y50.804 E21.42853
G1 X144.494 Y49.924 E21.76994
G1 X145.534 Y49.754 E21.86576
G1 X149.284 Y49.464 E22.20776
G1 X150.304 Y49.464 E22.30051
G1 X154.044 Y49.754 E22.64161
G1 X155.084 Y49.924 E22.73743
G1 X158.734 Y50.804 E23.07883
G1 X159.704 Y51.114 E23.17143
G1 X163.174 Y52.544 E23.51270
G1 X164.114 Y53.024 E23.60867
G1 X167.314 Y54.984 E23.94989
G1 X172.874 Y58.474 E24.54680
G1 X173.934 Y59.294 E24.66866
G1 X174.804 Y60.324 E24.79126
G1 X175.454 Y61.504 E24.91376
G1 X178.814 Y69.444 E25.69772
G1 X179.044 Y70.084 E25.75956
G1 X180.964 Y76.344 E26.35495
G1 X181.144 Y77.074 E26.42332
G1 X181.244 Y77.824 E26.49212
G1 X181.364 Y79.534 E26.64799
G1 X181.364 Y80.454 E26.73165
G1 X181.124 Y83.914 E27.04702
G1 X180.994 Y84.864 E27.13421
G1 X180.254 Y88.314 E27.45505
G1 X177.764 Y99.474 E28.49477
G1 X177.344 Y100.744 E28.61641
G1 X176.674 Y101.894 E28.73743
G1 X175.794 Y102.894 E28.85855
G1 X174.734 Y103.694 E28.97931
G1 X173.534 Y104.274 E29.10050
G1 X165.764 Y107.064 E29.85119
G1 X159.114 Y109.094 E30.48342
G1 X155.074 Y110.064 E30.86121
G1 X154.064 Y110.224 E30.95420
G1 X150.324 Y110.524 E31.29537
G1 X149.264 Y110.524 E31.39175
G1 X145.514 Y110.224 E31.73383
G1 X144.724 Y110.114 E31.80635
G1 X136.824 Y108.514 E32.53928
G1 X136.094 Y108.324 E32.60787
G1 X135.384 Y108.044 E32.67727
G1 X126.694 Y104.054 E33.54676
G1 X125.514 Y103.364 E33.67106
G1 X124.514 Y102.444 E33.79461
G1 X123.714 Y101.344 E33.91829
G1 X123.164 Y100.104 E34.04164
G1 X119.964 Y90.364 E34.97387
G1 X119.004 Y87.014 E35.29074
G1 X118.814 Y86.094 E35.37616
G1 X118.674 Y85.084 E35.46888
G1 X118.614 Y84.244 E35.54545
G1 X118.654 Y83.404 E35.62192
G1 X119.584 Y75.484 E36.34703
G1 X119.704 Y74.774 E36.41251
G1 X122.494 Y62.604 E37.54783
G1 X122.913 Y61.393 E37.66439
G1 F1800.000 E36.66439
G92 E0
G1 X148.417 Y78.998 F7800.000
G1 E1.00000 F1800.000
G1 X150.323 Y78.378 E1.18226 F540.000
G1 X151.501 Y80.000 E1.36451
G1 X150.323 Y81.622 E1.54677
G1 X148.417 Y81.002 E1.72903
G1 X148.417 Y79.092 E1.90277
G1 X149.042 Y79.452 F7800.000
G1 X150.084 Y79.113 E2.00246 F540.000
G1 X150.729 Y80.000 E2.10215
G1 X150.084 Y80.887 E2.20184
G1 X149.042 Y80.548 E2.30153
G1 X149.042 Y79.546 E2.39270
G1 F1800.000 E1.39270
G92 E0
G1 X129.936 Y68.624 F7800.000
G1 E1.00000 F1800.000
G1 X129.936 Y68.027 E1.05426 F540.000
G1 X133.570 Y63.773 E1.56298
G1 X136.308 Y61.435 E1.89042
G1 X139.235 Y59.641 E2.20261
G1 X139.293 Y59.558 E2.21177
G1 X139.559 Y59.340 E2.24305
G1 X139.717 Y59.413 E2.25890
G1 X142.705 Y58.175 E2.55295
G1 X146.206 Y57.334 E2.88039
G1 X149.796 Y57.052 E3.20782
G1 X153.386 Y57.334 E3.53526
G1 X156.888 Y58.175 E3.86269
G1 X160.214 Y59.553 E4.19013
G1 X163.285 Y61.435 E4.51756
G1 X166.023 Y63.773 E4.84500
G1 X167.128 Y65.066 E4.99964
G1 X168.383 Y65.066 E5.11379
G1 X168.383 Y66.546 E5.24834
G1 X170.243 Y69.582 E5.57207
G1 X171.196 Y71.883 E5.79856
G1 X171.588 Y72.095 E5.83909
G1 X171.775 Y72.229 E5.85999
G1 X171.711 Y72.602 E5.89441
G1 X171.679 Y73.150 E5.94432
G1 X172.462 Y76.410 E6.24917
G1 X172.556 Y77.607 E6.35836
G1 X172.984 Y78.137 E6.42023
G1 X173.217 Y78.363 E6.44980
G1 X173.697 Y78.775 E6.50731
G1 X173.793 Y80.153 E6.63289
G1 X173.461 Y80.292 E6.66567
G1 X173.206 Y80.458 E6.69338
G1 X172.982 Y80.675 E6.72167
G1 X172.796 Y80.944 E6.75147
G1 X172.638 Y81.357 E6.79168
G1 X172.493 Y83.193 E6.95913
G1 X173.527 Y83.445 E7.05585
G1 X172.853 Y86.612 E7.35024
G1 X171.709 Y89.756 E7.65452
G1 X170.999 Y91.091 E7.79194
G1 X170.078 Y91.442 E7.88161
G1 X169.559 Y91.535 E7.92955
G1 X168.362 Y93.488 E8.13792
G1 X166.611 Y95.537 E8.38299
G1 X168.161 Y95.296 E8.52565
G1 X169.414 Y97.065 E8.72271
G1 X167.895 Y97.065 E8.86079
G1 X167.377 Y96.240 E8.94931
G1 X166.736 Y96.904 E9.03319
G1 X166.390 Y96.806 E9.06592
G1 X166.125 Y96.140 E9.13113
G1 X163.518 Y98.366 E9.44290
G1 X163.671 Y98.578 E9.46666
G1 X163.530 Y98.822 E9.49231
G1 X163.414 Y99.310 E9.53790
G1 X162.748 Y98.894 E9.60930
G1 X160.214 Y100.447 E9.87951
G1 X156.888 Y101.825 E10.20695
G1 X153.386 Y102.666 E10.53438
G1 X149.796 Y102.948 E10.86182
G1 X146.206 Y102.666 E11.18925
G1 X142.705 Y101.825 E11.51669
G1 X140.077 Y100.737 E11.77531
G1 X139.996 Y100.755 E11.78289
G1 X139.864 Y100.648 E11.79833
G1 X139.378 Y100.447 E11.84616
G1 X136.308 Y98.565 E12.17360
G1 X133.751 Y96.382 E12.47933
G1 X133.596 Y97.612 E12.59207
G1 X131.446 Y95.676 E12.85523
G1 X131.446 Y97.065 E12.98154
G1 X130.429 Y97.065 E13.07401
G1 X130.429 Y94.160 E13.33815
G1 X128.617 Y91.261 E13.64895
G1 X127.256 Y88.204 E13.95324
G1 X126.334 Y84.987 E14.25753
G1 X126.291 Y84.680 E14.28575
G1 X127.181 Y84.228 E14.37650
G1 X126.848 Y80.000 E14.76218
G1 X127.131 Y76.410 E15.08962
G1 X127.971 Y72.909 E15.41705
G1 X129.349 Y69.582 E15.74449
G1 X129.887 Y68.704 E15.83808
G1 X129.311 Y68.448 F7800.000
G1 X129.311 Y64.442 E16.20239 F378.000
G1 X130.788 Y64.442 E16.33670
G1 X130.788 Y66.068 E16.48455
G1 X133.126 Y63.330 E16.81190
G1 X135.939 Y60.927 E17.14828
G1 X138.799 Y59.175 E17.45323
G1 X138.834 Y59.125 E17.45886
G1 X139.096 Y58.916 E17.48931
G1 X139.255 Y58.726 E17.51182
G1 X139.390 Y58.722 E17.52406
G1 X139.615 Y58.678 E17.54491
G1 X139.730 Y58.731 E17.55644
G1 X142.511 Y57.579 E17.83015
G1 X146.108 Y56.715 E18.16653
G1 X149.796 Y56.425 E18.50291
G1 X153.484 Y56.715 E18.83929
G1 X157.081 Y57.579 E19.17567
G1 X160.499 Y58.995 E19.51205
G1 X163.653 Y60.927 E19.84843
G1 X166.466 Y63.330 E20.18480
G1 X167.416 Y64.442 E20.31772
G1 X169.008 Y64.442 E20.46250
G1 X169.008 Y66.370 E20.63785
G1 X170.802 Y69.297 E20.95003
G1 X171.689 Y71.439 E21.16082
G1 X171.921 Y71.564 E21.18479
G1 X172.101 Y71.694 E21.20500
G1 X172.218 Y71.825 E21.22095
G1 X172.402 Y72.174 E21.25687
G1 X172.398 Y72.301 E21.26838
G1 X172.330 Y72.687 E21.30405
G1 X172.306 Y73.083 E21.34014
G1 X173.081 Y76.312 E21.64210
G1 X173.164 Y77.373 E21.73883
G1 X173.437 Y77.706 E21.77799
G1 X173.642 Y77.905 E21.80396
G1 X174.302 Y78.464 E21.88256
G1 X174.409 Y80.000 E22.02261
G1 X174.359 Y80.714 E22.08769
G1 X173.985 Y80.750 E22.12189
G1 X173.755 Y80.846 E22.14460
G1 X173.597 Y80.949 E22.16172
G1 X173.461 Y81.080 E22.17888
G1 X173.353 Y81.238 E22.19624
G1 X173.253 Y81.497 E22.22146
G1 X173.158 Y82.712 E22.33231
G1 X174.202 Y82.966 E22.43001
G1 X174.170 Y83.425 E22.47188
G1 X173.456 Y86.784 E22.78411
G1 X172.281 Y90.011 E23.09635
G1 X171.387 Y91.692 E23.26947
G1 X171.075 Y91.731 E23.29809
G1 X170.245 Y92.047 E23.37882
G1 X169.945 Y92.100 E23.40655
G1 X168.869 Y93.857 E23.59388
G1 X168.182 Y94.660 E23.68998
G1 X169.661 Y94.430 E23.82607
G1 X168.979 Y95.369 E23.93161
G1 X170.622 Y97.689 E24.19012
G1 X167.550 Y97.689 E24.46946
G1 X167.272 Y97.248 E24.51685
G1 X166.823 Y97.713 E24.57564
G1 X166.561 Y97.504 E24.60617
G1 X166.349 Y97.444 E24.62615
G1 X165.989 Y97.490 E24.65917
G1 X165.867 Y97.182 E24.68935
G1 X164.362 Y98.467 E24.86928
G1 X164.449 Y98.587 E24.88275
G1 X164.217 Y98.882 E24.91687
G1 X164.117 Y99.056 E24.93508
G1 X164.066 Y99.270 E24.95510
G1 X164.111 Y99.482 E24.97481
G1 X164.279 Y99.843 E25.01102
G1 X163.611 Y100.365 E25.08813
G1 X163.358 Y100.074 E25.12318
G1 X162.978 Y99.774 E25.16722
G1 X162.745 Y99.629 E25.19213
G1 X160.499 Y101.005 E25.43166
G1 X157.081 Y102.421 E25.76804
G1 X153.484 Y103.285 E26.10442
G1 X149.796 Y103.575 E26.44080
G1 X146.108 Y103.285 E26.77718
G1 X142.511 Y102.421 E27.11356
G1 X140.022 Y101.390 E27.35853
G1 X139.952 Y101.406 E27.36512
G1 X139.801 Y101.397 E27.37887
G1 X139.541 Y101.191 E27.40902
G1 X139.093 Y101.005 E27.45309
G1 X135.939 Y99.073 E27.78947
G1 X134.227 Y97.610 E27.99427
G1 X134.067 Y98.877 E28.11039
G1 X132.071 Y97.079 E28.35473
G1 X132.071 Y97.689 E28.41024
G1 X129.804 Y97.689 E28.61635
G1 X129.804 Y94.339 E28.92103
G1 X128.064 Y91.555 E29.21951
G1 X126.668 Y88.418 E29.53175
G1 X125.721 Y85.117 E29.84398
G1 X125.613 Y84.348 E29.91462
G1 X126.525 Y83.860 E30.00866
G1 X126.221 Y80.000 E30.36077
G1 X126.512 Y76.312 E30.69715
G1 X127.375 Y72.715 E31.03353
G1 X128.791 Y69.297 E31.36991
G1 X129.262 Y68.528 E31.45194
G1 X134.447 Y99.443 F7800.000
G1 X134.801 Y99.393 E31.48439 F378.000
G1 X134.593 Y98.741 E31.54662
G1 X134.801 Y99.393 F7800.000
G1 X135.204 Y99.643 E31.58980 F378.000
G1 X135.380 Y99.307 E31.62429
G1 X135.204 Y99.643 F7800.000
G1 X135.692 Y99.921 E31.67530 F378.000
G1 X135.851 Y99.463 E31.71939
G1 X135.692 Y99.921 F7800.000
G1 X136.115 Y100.201 E31.76555 F378.000
G1 X136.435 Y99.986 E31.80059
G1 X136.714 Y100.129 F7800.000
G1 X136.688 Y100.563 E31.84012 F378.000
G1 X136.115 Y100.201 E31.90173
G1 X136.688 Y100.563 F7800.000
G1 X137.710 Y101.234 E32.01293 F378.000
G1 X137.734 Y101.209 F7800.000
G1 X138.004 Y101.356 E32.04091 F378.000
G1 X137.990 Y101.768 E32.07839
G1 X138.184 Y101.297 F7800.000
G1 X138.343 Y101.312 E32.09290 F378.000
G1 X138.378 Y101.295 F7800.000
G1 X138.455 Y101.470 E32.11026 F378.000
G1 F1800.000 E31.11026
G92 E0
G1 X173.659 Y82.318 F7800.000
G1 E1.00000 F1800.000
G1 X174.017 Y82.246 E1.03318 F378.000
G1 X174.016 Y82.245 F7800.000
G1 X174.284 Y82.244 E1.05758 F378.000
G1 X174.172 Y82.315 F7800.000
G1 X174.427 Y82.529 E1.08788 F378.000
G1 F1800.000 E0.08788
G92 E0
G1 X173.327 Y79.838 F7800.000
G1 E1.00000 F1800.000
G1 X151.087 Y57.598 E3.88709 F1080.000
G1 X150.119 Y57.522 E3.97625
G1 X172.816 Y80.219 E6.92266
G1 X172.418 Y80.713 E6.98090
G1 X149.245 Y57.540 E9.98909
G1 X148.418 Y57.605 E10.06524
G1 X172.191 Y81.378 E13.15142
G1 X172.126 Y82.206 E13.22757
G1 X147.591 Y57.670 E16.41267
G1 X146.764 Y57.735 E16.48882
G1 X172.968 Y83.940 E19.89059
G1 X172.812 Y84.675 E19.95964
G1 X145.981 Y57.844 E23.44274
G1 X145.261 Y58.017 E23.51065
G1 X172.656 Y85.411 E27.06684
G1 X172.499 Y86.147 E27.13588
G1 X144.542 Y58.190 E30.76516
G1 X143.823 Y58.362 E30.83307
G1 X172.299 Y86.839 E34.52977
G1 X172.061 Y87.493 E34.59366
G1 X143.103 Y58.535 E38.35285
G1 X142.440 Y58.764 E38.41723
G1 X171.823 Y88.147 E42.23158
G1 X171.585 Y88.801 E42.29547
G1 X141.809 Y59.025 E46.16080
G1 X141.179 Y59.287 E46.22347
G1 X171.347 Y89.455 E50.13979
G1 X171.051 Y90.051 E50.20086
G1 X140.548 Y59.548 E54.16058
G1 X139.917 Y59.809 E54.22325
G1 X170.741 Y90.633 E58.22466
G1 X170.154 Y90.939 E58.28537
G1 X139.322 Y60.107 E62.28782
G1 X138.769 Y60.446 E62.34737
G1 X169.431 Y91.107 E66.32771
G1 X169.011 Y91.580 E66.38572
G1 X138.216 Y60.785 E70.38344
G1 X137.663 Y61.124 E70.44299
G1 X168.673 Y92.133 E74.46852
G1 X168.334 Y92.687 E74.52807
G1 X137.110 Y61.463 E78.58140
G1 X136.558 Y61.803 E78.64090
G1 X167.993 Y93.238 E82.72163
G1 X167.582 Y93.719 E82.77971
G1 X136.077 Y62.214 E86.86952
G1 X135.596 Y62.625 E86.92761
G1 X167.171 Y94.200 E91.02652
G1 X166.760 Y94.681 E91.08460
G1 X151.970 Y79.892 E93.00449
G1 X151.686 Y80.500 E93.06609
G1 X166.349 Y95.162 E94.96952
G1 X165.822 Y95.528 E95.02836
G1 X151.311 Y81.016 E96.91219
G1 X150.935 Y81.533 E96.97082
G1 X165.496 Y96.094 E98.86106
G1 X165.015 Y96.505 E98.91915
G1 X150.560 Y82.050 E100.79566
G1 X149.408 Y81.790 E100.90404
G1 X164.534 Y96.916 E102.86761
G1 X164.053 Y97.327 E102.92570
G1 X132.469 Y65.744 E107.02569
G1 X132.058 Y66.225 E107.08378
G1 X163.572 Y97.738 E111.17466
G1 X163.090 Y98.149 E111.23274
G1 X131.647 Y66.706 E115.31451
G1 X131.236 Y67.187 E115.37259
G1 X162.547 Y98.498 E119.43721
G1 X161.994 Y98.837 E119.49676
G1 X130.825 Y67.668 E123.54291
G1 X130.415 Y68.149 E123.60099
G1 X161.441 Y99.176 E127.62868
G1 X160.888 Y99.515 E127.68824
G1 X130.281 Y68.908 E131.66139
G1 X129.943 Y69.462 E131.72095
G1 X160.335 Y99.854 E135.66630
G1 X159.749 Y100.160 E135.72697
G1 X129.636 Y70.047 E139.63608
G1 X129.375 Y70.678 E139.69876
G1 X159.118 Y100.421 E143.55990
G1 X158.487 Y100.683 E143.62257
G1 X129.113 Y71.309 E147.43575
G1 X128.852 Y71.940 E147.49842
G1 X157.857 Y100.944 E151.26363
G1 X157.226 Y101.205 E151.32630
G1 X128.591 Y72.571 E155.04354
G1 X128.351 Y73.223 E155.10735
G1 X156.573 Y101.445 E158.77095
G1 X155.854 Y101.618 E158.83886
G1 X128.179 Y73.943 E162.43149
G1 X128.006 Y74.662 E162.49941
G1 X155.134 Y101.790 E166.02106
G1 X154.415 Y101.963 E166.08898
G1 X127.833 Y75.381 E169.53966
G1 X127.661 Y76.101 E169.60758
G1 X153.695 Y102.136 E172.98729
G1 X152.925 Y102.257 E173.05888
G1 X127.539 Y76.871 E176.35440
G1 X127.474 Y77.698 E176.43055
G1 X152.098 Y102.323 E179.62715
G1 X151.271 Y102.388 E179.70330
G1 X127.409 Y78.525 E182.80100
G1 X127.344 Y79.352 E182.87715
G1 X150.444 Y102.453 E185.87593
G1 X149.586 Y102.487 E185.95473
G1 X127.309 Y80.210 E188.84665
G1 X127.385 Y81.178 E188.93581
G1 X148.618 Y102.411 E191.69213
G1 X147.650 Y102.335 E191.78129
G1 X127.461 Y82.147 E194.40202
G1 X127.538 Y83.115 E194.49118
G1 X146.681 Y102.259 E196.97631
G1 X145.593 Y102.063 E197.07777
G1 X127.614 Y84.083 E199.41178
G1 X127.302 Y84.664 E199.47226
G1 X144.419 Y101.781 E201.69434
G1 X143.246 Y101.499 E201.80516
G1 X126.819 Y85.073 E203.93751
G1 X127.178 Y86.324 E204.05695
G1 X141.843 Y100.988 E205.96060
G1 X140.320 Y100.357 F7800.000
G1 X127.537 Y87.575 E207.62000 F1080.000
G1 X128.116 Y89.046 F7800.000
G1 X138.395 Y99.325 E208.95431 F1080.000
G1 X135.301 Y97.123 F7800.000
G1 X128.832 Y90.654 E209.79404 F1080.000
G1 X130.128 Y92.842 F7800.000
G1 X133.345 Y96.059 E210.21167 F1080.000
