; generated by Slic3r 1.0.0RC3 on 2014-03-05 at 17:21:35

; layer_height = 0.25
; perimeters = 1
; top_solid_layers = 5
; bottom_solid_layers = 3
; fill_density = 0.12
; perimeter_speed = 30
; infill_speed = 60
; travel_speed = 130
; nozzle_diameter = 0.35
; filament_diameter = 1.75
; extrusion_multiplier = 1
; perimeters extrusion width = 0.35mm
; infill extrusion width = 0.39mm
; solid infill extrusion width = 0.39mm
; top infill extrusion width = 0.39mm
; first layer extrusion width = 0.70mm

G21 ; set units to millimeters
M107
M104 S220 ; set temperature
G28 ; home all axes
G1 Z5 F5000 ; lift nozzle

M109 S220 ; wait for temperature to be reached
G90 ; use absolute coordinates
G92 E0
M82 ; use absolute distances for extrusion
G1 F1800.000 E-1.00000
G92 E0
G1 Z0.350 F7800.000
G1 X74.164 Y78.644 F7800.000
G1 E1.00000 F1800.000
G1 X75.384 Y77.774 E1.13625 F540.000
G1 X85.494 Y72.064 E2.19204
G1 X86.264 Y71.684 E2.27012
G1 X90.054 Y70.384 E2.63445
G1 X90.694 Y70.194 E2.69515
G1 X94.344 Y69.314 E3.03656
G1 X95.484 Y69.134 E3.14150
G1 X99.234 Y68.844 E3.48351
G1 X100.354 Y68.844 E3.58535
G1 X104.094 Y69.134 E3.92644
G1 X105.234 Y69.314 E4.03139
G1 X108.884 Y70.194 E4.37279
G1 X109.944 Y70.544 E4.47429
G1 X113.414 Y71.974 E4.81556
G1 X114.444 Y72.494 E4.92048
G1 X117.644 Y74.454 E5.26170
G1 X123.204 Y77.944 E5.85861
G1 X124.364 Y78.844 E5.99211
G1 X125.324 Y79.964 E6.12625
G1 X126.034 Y81.254 E6.26014
G1 X129.394 Y89.194 E7.04410
G1 X129.644 Y89.894 E7.11169
G1 X131.564 Y96.154 E7.70708
G1 X131.764 Y96.954 E7.78206
G1 X131.864 Y97.774 E7.85718
G1 X131.984 Y99.484 E8.01305
G1 X131.984 Y100.494 E8.10489
G1 X131.904 Y101.664 E8.21153
G1 X131.744 Y103.954 E8.42026
G1 X131.604 Y104.994 E8.51568
G1 X130.864 Y108.454 E8.83741
G1 X128.374 Y119.614 E9.87714
G1 X127.914 Y120.994 E10.00941
G1 X127.184 Y122.254 E10.14182
G1 X126.224 Y123.354 E10.27458
G1 X125.054 Y124.234 E10.40770
G1 X123.744 Y124.854 E10.53948
G1 X115.634 Y127.764 E11.32296
G1 X109.294 Y129.694 E11.92557
G1 X105.214 Y130.674 E12.30712
G1 X104.114 Y130.854 E12.40847
G1 X100.374 Y131.154 E12.74964
G1 X99.214 Y131.154 E12.85512
G1 X95.464 Y130.854 E13.19719
G1 X94.604 Y130.734 E13.27615
G1 X86.704 Y129.134 E14.00908
G1 X85.894 Y128.914 E14.08540
G1 X85.114 Y128.614 E14.16139
G1 X76.424 Y124.624 E15.03088
G1 X75.144 Y123.864 E15.16624
G1 X74.044 Y122.864 E15.30142
G1 X73.174 Y121.654 E15.43693
G1 X72.564 Y120.294 E15.57246
G1 X69.444 Y110.794 E16.48169
G1 X68.404 Y107.184 E16.82329
G1 X68.194 Y106.184 E16.91621
G1 X68.054 Y105.174 E17.00892
G1 X67.984 Y104.254 E17.09282
G1 X68.034 Y103.324 E17.17751
G1 X68.964 Y95.404 E17.90262
G1 X69.094 Y94.634 E17.97362
G1 X71.884 Y82.464 E19.10894
G1 X72.374 Y81.044 E19.24553
G1 X73.144 Y79.744 E19.38292
G1 X74.100 Y78.713 E19.51081
G1 X74.574 Y79.114 F7800.000
G1 X75.694 Y78.314 E19.63596 F540.000
G1 X85.804 Y72.604 E20.69175
G1 X86.504 Y72.264 E20.76251
G1 X90.254 Y70.974 E21.12310
G1 X90.844 Y70.804 E21.17894
G1 X94.494 Y69.924 E21.52034
G1 X95.534 Y69.754 E21.61616
G1 X99.284 Y69.464 E21.95816
G1 X100.304 Y69.464 E22.05091
G1 X104.044 Y69.754 E22.39201
G1 X105.084 Y69.924 E22.48783
G1 X108.734 Y70.804 E22.82923
G1 X109.704 Y71.114 E22.92183
G1 X113.174 Y72.544 E23.26310
G1 X114.114 Y73.024 E23.35907
G1 X117.314 Y74.984 E23.70029
G1 X122.874 Y78.474 E24.29720
G1 X123.934 Y79.294 E24.41906
G1 X124.804 Y80.324 E24.54166
G1 X125.454 Y81.504 E24.66416
G1 X128.814 Y89.444 E25.44812
G1 X129.044 Y90.084 E25.50996
G1 X130.964 Y96.344 E26.10535
G1 X131.144 Y97.074 E26.17372
G1 X131.244 Y97.824 E26.24252
G1 X131.364 Y99.534 E26.39839
G1 X131.364 Y100.454 E26.48205
G1 X131.284 Y101.614 E26.58778
G1 X131.124 Y103.914 E26.79742
G1 X130.994 Y104.864 E26.88461
G1 X130.254 Y108.314 E27.20545
G1 X127.764 Y119.474 E28.24518
G1 X127.344 Y120.744 E28.36681
G1 X126.674 Y121.894 E28.48783
G1 X125.794 Y122.894 E28.60895
G1 X124.734 Y123.694 E28.72971
G1 X123.534 Y124.274 E28.85090
G1 X115.764 Y127.064 E29.60159
G1 X109.114 Y129.094 E30.23382
G1 X105.074 Y130.064 E30.61162
G1 X104.064 Y130.224 E30.70460
G1 X100.324 Y130.524 E31.04577
G1 X99.264 Y130.524 E31.14215
G1 X95.514 Y130.224 E31.48423
G1 X94.724 Y130.114 E31.55676
G1 X86.824 Y128.514 E32.28968
G1 X86.094 Y128.324 E32.35828
G1 X85.384 Y128.044 E32.42767
G1 X76.694 Y124.054 E33.29716
G1 X75.514 Y123.364 E33.42146
G1 X74.514 Y122.444 E33.54502
G1 X73.714 Y121.344 E33.66869
G1 X73.164 Y120.104 E33.79204
G1 X69.964 Y110.364 E34.72427
G1 X69.004 Y107.014 E35.04114
G1 X68.814 Y106.094 E35.12656
G1 X68.674 Y105.084 E35.21928
G1 X68.614 Y104.244 E35.29586
G1 X68.654 Y103.404 E35.37232
G1 X69.584 Y95.484 E36.09743
G1 X69.704 Y94.774 E36.16291
G1 X72.494 Y82.604 E37.29823
G1 X72.944 Y81.304 E37.42332
G1 X73.644 Y80.124 E37.54807
G1 X74.510 Y79.183 E37.66439
G1 F1800.000 E36.66439
G92 E0
G1 X98.417 Y98.998 F7800.000
G1 E1.00000 F1800.000
G1 X100.323 Y98.378 E1.18226 F540.000
G1 X101.501 Y100.000 E1.36451
G1 X100.323 Y101.622 E1.54677
G1 X98.417 Y101.002 E1.72903
G1 X98.417 Y99.092 E1.90277
G1 X99.042 Y99.452 F7800.000
G1 X100.084 Y99.113 E2.00246 F540.000
G1 X100.729 Y100.000 E2.10215
G1 X100.084 Y100.887 E2.20184
G1 X99.042 Y100.548 E2.30153
G1 X99.042 Y99.546 E2.39270
G1 F1800.000 E1.39270
G92 E0
G1 X79.936 Y88.624 F7800.000
G1 E1.00000 F1800.000
G1 X79.936 Y88.027 E1.05426 F540.000
G1 X83.570 Y83.773 E1.56298
G1 X86.308 Y81.435 E1.89042
G1 X89.235 Y79.641 E2.20261
G1 X89.293 Y79.558 E2.21177
G1 X89.559 Y79.340 E2.24305
G1 X89.717 Y79.413 E2.25890
G1 X92.705 Y78.175 E2.55295
G1 X96.206 Y77.334 E2.88039
G1 X99.796 Y77.052 E3.20782
G1 X103.386 Y77.334 E3.53526
G1 X106.888 Y78.175 E3.86269
G1 X110.214 Y79.553 E4.19013
G1 X113.285 Y81.435 E4.51756
G1 X116.023 Y83.773 E4.84500
G1 X117.128 Y85.066 E4.99964
G1 X118.383 Y85.066 E5.11379
G1 X118.383 Y86.546 E5.24834
G1 X120.243 Y89.582 E5.57207
G1 X121.196 Y91.883 E5.79856
G1 X121.588 Y92.095 E5.83909
G1 X121.775 Y92.229 E5.85999
G1 X121.711 Y92.602 E5.89441
G1 X121.679 Y93.150 E5.94432
G1 X122.462 Y96.410 E6.24917
G1 X122.556 Y97.607 E6.35836
G1 X122.984 Y98.137 E6.42023
G1 X123.217 Y98.363 E6.44980
G1 X123.697 Y98.775 E6.50731
G1 X123.793 Y100.153 E6.63289
G1 X123.461 Y100.292 E6.66567
G1 X123.206 Y100.458 E6.69338
G1 X122.982 Y100.675 E6.72167
G1 X122.796 Y100.944 E6.75147
G1 X122.638 Y101.357 E6.79168
G1 X122.493 Y103.193 E6.95913
G1 X123.527 Y103.445 E7.05585
G1 X122.853 Y106.612 E7.35024
G1 X121.709 Y109.756 E7.65452
G1 X120.999 Y111.091 E7.79194
G1 X120.078 Y111.442 E7.88161
G1 X119.559 Y111.535 E7.92955
G1 X118.362 Y113.488 E8.13792
G1 X116.611 Y115.537 E8.38299
G1 X118.161 Y115.296 E8.52565
G1 X119.414 Y117.065 E8.72271
G1 X117.895 Y117.065 E8.86079
G1 X117.377 Y116.240 E8.94931
G1 X116.736 Y116.904 E9.03319
G1 X116.390 Y116.806 E9.06592
G1 X116.125 Y116.140 E9.13113
G1 X113.518 Y118.366 E9.44290
G1 X113.671 Y118.578 E9.46666
G1 X113.530 Y118.822 E9.49231
G1 X113.414 Y119.310 E9.53790
G1 X112.748 Y118.894 E9.60930
G1 X110.214 Y120.447 E9.87951
G1 X106.888 Y121.825 E10.20695
G1 X103.386 Y122.666 E10.53438
G1 X99.796 Y122.948 E10.86182
G1 X96.206 Y122.666 E11.18925
G1 X92.705 Y121.825 E11.51669
G1 X90.077 Y120.737 E11.77531
G1 X89.996 Y120.755 E11.78289
G1 X89.864 Y120.648 E11.79833
G1 X89.378 Y120.447 E11.84616
G1 X86.308 Y118.565 E12.17360
G1 X83.751 Y116.382 E12.47933
G1 X83.596 Y117.612 E12.59207
G1 X81.446 Y115.676 E12.85523
G1 X81.446 Y117.065 E12.98154
G1 X80.429 Y117.065 E13.07401
G1 X80.429 Y114.160 E13.33815
G1 X78.617 Y111.261 E13.64895
G1 X77.256 Y108.204 E13.95324
G1 X76.334 Y104.987 E14.25753
G1 X76.291 Y104.680 E14.28575
G1 X77.181 Y104.228 E14.37650
G1 X76.848 Y100.000 E14.76218
G1 X77.131 Y96.410 E15.08962
G1 X77.971 Y92.909 E15.41705
G1 X79.349 Y89.582 E15.74449
G1 X79.887 Y88.704 E15.83808
G1 X79.311 Y88.448 F7800.000
G1 X79.311 Y84.442 E16.20239 F378.000
G1 X80.788 Y84.442 E16.33670
G1 X80.788 Y86.068 E16.48455
G1 X83.126 Y83.330 E16.81190
G1 X85.939 Y80.927 E17.14828
G1 X88.799 Y79.175 E17.45323
G1 X88.834 Y79.125 E17.45886
G1 X89.096 Y78.916 E17.48931
G1 X89.255 Y78.726 E17.51182
G1 X89.390 Y78.722 E17.52406
G1 X89.615 Y78.678 E17.54491
G1 X89.730 Y78.731 E17.55644
G1 X92.511 Y77.579 E17.83015
G1 X96.108 Y76.715 E18.16653
G1 X99.796 Y76.425 E18.50291
G1 X103.484 Y76.715 E18.83929
G1 X107.081 Y77.579 E19.17567
G1 X110.499 Y78.995 E19.51205
G1 X113.653 Y80.927 E19.84843
G1 X116.466 Y83.330 E20.18480
G1 X117.416 Y84.442 E20.31772
G1 X119.008 Y84.442 E20.46250
G1 X119.008 Y86.370 E20.63785
G1 X120.802 Y89.297 E20.95003
G1 X121.689 Y91.439 E21.16082
G1 X121.921 Y91.564 E21.18479
G1 X122.101 Y91.694 E21.20500
G1 X122.218 Y91.825 E21.22095
G1 X122.402 Y92.174 E21.25687
G1 X122.398 Y92.301 E21.26838
G1 X122.330 Y92.687 E21.30405
G1 X122.306 Y93.083 E21.34014
G1 X123.081 Y96.312 E21.64210
G1 X123.164 Y97.373 E21.73883
G1 X123.437 Y97.706 E21.77799
G1 X123.642 Y97.905 E21.80396
G1 X124.302 Y98.464 E21.88256
G1 X124.409 Y100.000 E22.02261
G1 X124.359 Y100.714 E22.08769
G1 X123.985 Y100.750 E22.12189
G1 X123.755 Y100.846 E22.14460
G1 X123.597 Y100.949 E22.16172
G1 X123.461 Y101.080 E22.17888
G1 X123.353 Y101.238 E22.19624
G1 X123.253 Y101.497 E22.22146
G1 X123.158 Y102.712 E22.33231
G1 X124.202 Y102.966 E22.43001
G1 X124.170 Y103.425 E22.47188
G1 X123.456 Y106.784 E22.78411
G1 X122.281 Y110.011 E23.09635
G1 X121.387 Y111.692 E23.26947
G1 X121.075 Y111.731 E23.29809
G1 X120.245 Y112.047 E23.37882
G1 X119.945 Y112.100 E23.40655
G1 X118.869 Y113.857 E23.59388
G1 X118.182 Y114.660 E23.68998
G1 X119.661 Y114.430 E23.82607
G1 X118.979 Y115.369 E23.93161
G1 X120.622 Y117.689 E24.19012
G1 X117.550 Y117.689 E24.46946
G1 X117.272 Y117.248 E24.51685
G1 X116.823 Y117.713 E24.57564
G1 X116.561 Y117.504 E24.60617
G1 X116.349 Y117.444 E24.62615
G1 X115.989 Y117.490 E24.65917
G1 X115.867 Y117.182 E24.68935
G1 X114.362 Y118.467 E24.86928
G1 X114.449 Y118.587 E24.88275
G1 X114.217 Y118.882 E24.91687
G1 X114.117 Y119.056 E24.93508
G1 X114.066 Y119.270 E24.95510
G1 X114.111 Y119.482 E24.97481
G1 X114.279 Y119.843 E25.01102
G1 X113.611 Y120.365 E25.08813
G1 X113.358 Y120.074 E25.12318
G1 X112.978 Y119.774 E25.16722
G1 X112.745 Y119.629 E25.19213
G1 X110.499 Y121.005 E25.43166
G1 X107.081 Y122.421 E25.76804
G1 X103.484 Y123.285 E26.10442
G1 X99.796 Y123.575 E26.44080
G1 X96.108 Y123.285 E26.77718
G1 X92.511 Y122.421 E27.11356
G1 X90.022 Y121.390 E27.35853
G1 X89.952 Y121.406 E27.36512
G1 X89.801 Y121.397 E27.37887
G1 X89.541 Y121.191 E27.40902
G1 X89.093 Y121.005 E27.45309
G1 X85.939 Y119.073 E27.78947
G1 X84.227 Y117.610 E27.99427
G1 X84.067 Y118.877 E28.11039
G1 X82.071 Y117.079 E28.35473
G1 X82.071 Y117.689 E28.41024
G1 X79.804 Y117.689 E28.61635
G1 X79.804 Y114.339 E28.92103
G1 X78.064 Y111.555 E29.21951
G1 X76.668 Y108.418 E29.53175
G1 X75.721 Y105.117 E29.84398
G1 X75.613 Y104.348 E29.91462
G1 X76.525 Y103.860 E30.00866
G1 X76.221 Y100.000 E30.36077
G1 X76.512 Y96.312 E30.69715
G1 X77.375 Y92.715 E31.03353
G1 X78.791 Y89.297 E31.36991
G1 X79.262 Y88.528 E31.45194
G1 X84.447 Y119.443 F7800.000
G1 X84.801 Y119.393 E31.48439 F378.000
G1 X84.593 Y118.741 E31.54662
G1 X84.801 Y119.393 F7800.000
G1 X85.204 Y119.643 E31.58980 F378.000
G1 X85.380 Y119.307 E31.62429
G1 X85.204 Y119.643 F7800.000
G1 X85.692 Y119.921 E31.67530 F378.000
G1 X85.851 Y119.463 E31.71939
G1 X85.692 Y119.921 F7800.000
G1 X86.115 Y120.201 E31.76555 F378.000
G1 X86.435 Y119.986 E31.80059
G1 X86.714 Y120.129 F7800.000
G1 X86.688 Y120.563 E31.84012 F378.000
G1 X86.115 Y120.201 E31.90173
G1 X86.688 Y120.563 F7800.000
G1 X87.710 Y121.234 E32.01293 F378.000
G1 X87.734 Y121.209 F7800.000
G1 X88.004 Y121.356 E32.04091 F378.000
G1 X87.990 Y121.768 E32.07839
G1 X88.184 Y121.297 F7800.000
G1 X88.343 Y121.312 E32.09290 F378.000
G1 X88.378 Y121.295 F7800.000
G1 X88.455 Y121.470 E32.11026 F378.000
G1 F1800.000 E31.11026
G92 E0
G1 X123.659 Y102.318 F7800.000
G1 E1.00000 F1800.000
G1 X124.017 Y102.246 E1.03318 F378.000
G1 X124.016 Y102.245 F7800.000
G1 X124.284 Y102.244 E1.05758 F378.000
G1 X124.172 Y102.315 F7800.000
G1 X124.427 Y102.529 E1.08788 F378.000
G1 F1800.000 E0.08788
G92 E0
G1 X123.327 Y99.838 F7800.000
G1 E1.00000 F1800.000
G1 X101.087 Y77.598 E3.88709 F1080.000
G1 X100.119 Y77.522 E3.97625
G1 X122.816 Y100.219 E6.92266
G1 X122.418 Y100.713 E6.98090
G1 X99.245 Y77.540 E9.98909
G1 X98.418 Y77.605 E10.06524
G1 X122.191 Y101.378 E13.15142
G1 X122.126 Y102.206 E13.22757
G1 X97.591 Y77.670 E16.41267
G1 X96.764 Y77.735 E16.48882
G1 X122.968 Y103.940 E19.89059
G1 X122.812 Y104.675 E19.95964
G1 X95.981 Y77.844 E23.44274
G1 X95.261 Y78.017 E23.51065
G1 X122.656 Y105.411 E27.06684
G1 X122.499 Y106.147 E27.13588
G1 X94.542 Y78.190 E30.76516
G1 X93.823 Y78.362 E30.83307
G1 X122.299 Y106.839 E34.52977
G1 X122.061 Y107.493 E34.59366
G1 X93.103 Y78.535 E38.35285
G1 X92.440 Y78.764 E38.41723
G1 X121.823 Y108.147 E42.23158
G1 X121.585 Y108.801 E42.29547
G1 X91.809 Y79.025 E46.16080
G1 X91.179 Y79.287 E46.22347
G1 X121.347 Y109.455 E50.13979
G1 X121.051 Y110.051 E50.20086
G1 X90.548 Y79.548 E54.16058
G1 X89.917 Y79.809 E54.22325
G1 X120.741 Y110.633 E58.22466
G1 X120.154 Y110.939 E58.28537
G1 X89.322 Y80.107 E62.28782
G1 X88.769 Y80.446 E62.34737
G1 X119.431 Y111.107 E66.32771
G1 X119.011 Y111.580 E66.38572
G1 X88.216 Y80.785 E70.38344
G1 X87.663 Y81.124 E70.44299
G1 X118.673 Y112.133 E74.46852
G1 X118.334 Y112.687 E74.52807
G1 X87.110 Y81.463 E78.58140
G1 X86.558 Y81.803 E78.64090
G1 X117.993 Y113.238 E82.72163
G1 X117.582 Y113.719 E82.77971
G1 X86.077 Y82.214 E86.86952
G1 X85.596 Y82.625 E86.92761
G1 X117.171 Y114.200 E91.02652
G1 X116.760 Y114.681 E91.08460
G1 X101.970 Y99.892 E93.00449
G1 X101.686 Y100.500 E93.06609
G1 X116.349 Y115.162 E94.96952
G1 X115.822 Y115.528 E95.02836
G1 X101.311 Y101.016 E96.91219
G1 X100.935 Y101.533 E96.97082
G1 X115.496 Y116.094 E98.86106
G1 X115.015 Y116.505 E98.91915
G1 X100.560 Y102.050 E100.79566
G1 X99.408 Y101.790 E100.90404
G1 X114.534 Y116.916 E102.86761
G1 X114.053 Y117.327 E102.92570
G1 X82.469 Y85.744 E107.02569
G1 X82.058 Y86.225 E107.08378
G1 X113.572 Y117.738 E111.17466
G1 X113.090 Y118.149 E111.23274
G1 X81.647 Y86.706 E115.31451
G1 X81.236 Y87.187 E115.37259
G1 X112.547 Y118.498 E119.43721
G1 X111.994 Y118.837 E119.49676
G1 X80.825 Y87.668 E123.54291
G1 X80.415 Y88.149 E123.60099
G1 X111.441 Y119.176 E127.62868
G1 X110.888 Y119.515 E127.68824
G1 X80.281 Y88.908 E131.66139
G1 X79.943 Y89.462 E131.72095
G1 X110.335 Y119.854 E135.66630
G1 X109.749 Y120.160 E135.72697
G1 X79.636 Y90.047 E139.63608
G1 X79.375 Y90.678 E139.69876
G1 X109.118 Y120.421 E143.55990
G1 X108.487 Y120.683 E143.62257
G1 X79.113 Y91.309 E147.43575
G1 X78.852 Y91.940 E147.49842
G1 X107.857 Y120.944 E151.26363
G1 X107.226 Y121.205 E151.32630
G1 X78.591 Y92.571 E155.04354
G1 X78.351 Y93.223 E155.10735
G1 X106.573 Y121.445 E158.77095
G1 X105.854 Y121.618 E158.83886
G1 X78.179 Y93.943 E162.43149
G1 X78.006 Y94.662 E162.49941
G1 X105.134 Y121.790 E166.02106
G1 X104.415 Y121.963 E166.08898
G1 X77.833 Y95.381 E169.53966
G1 X77.661 Y96.101 E169.60758
G1 X103.695 Y122.136 E172.98729
G1 X102.925 Y122.257 E173.05888
G1 X77.539 Y96.871 E176.35440
G1 X77.474 Y97.698 E176.43055
G1 X102.098 Y122.323 E179.62715
G1 X101.271 Y122.388 E179.70330
G1 X77.409 Y98.525 E182.80100
G1 X77.344 Y99.352 E182.87715
G1 X100.444 Y122.453 E185.87593
G1 X99.586 Y122.487 E185.95473
G1 X77.309 Y100.210 E188.84665
G1 X77.385 Y101.178 E188.93581
G1 X98.618 Y122.411 E191.69213
G1 X97.650 Y122.335 E191.78129
G1 X77.461 Y102.147 E194.40202
G1 X77.538 Y103.115 E194.49118
G1 X96.681 Y122.259 E196.97631
G1 X95.593 Y122.063 E197.07777
G1 X77.614 Y104.083 E199.41178
G1 X77.302 Y104.664 E199.47226
G1 X94.419 Y121.781 E201.69434
G1 X93.246 Y121.499 E201.80516
G1 X76.819 Y105.073 E203.93751
G1 X77.178 Y106.324 E204.05695
G1 X91.843 Y120.988 E205.96060
G1 X90.320 Y120.357 F7800.000
G1 X77.537 Y107.575 E207.62000 F1080.000
G1 X78.116 Y109.046 F7800.000
G1 X88.395 Y119.325 E208.95431 F1080.000
G1 X85.301 Y117.123 F7800.000
G1 X78.832 Y110.654 E209.79404 F1080.000
G1 X80.128 Y112.842 F7800.000
