; generated by Slic3r 1.1.7 on 2014-09-23 at 20:52:00

; perimeters extrusion width = 0.35mm
; infill extrusion width = 0.39mm
; solid infill extrusion width = 0.39mm
; top infill extrusion width = 0.39mm

G21 ; set units to millimeters
M107
M104 S220 ; set temperature
G28 ; home all axes
G1 Z5 F5000 ; lift nozzle

M109 S220 ; wait for temperature to be reached
G90 ; use absolute coordinates
G92 E0
M82 ; use absolute distances for extrusion
G1 F1800.000 E-1.00000
G92 E0
G1 Z0.350 F7800.000
G1 X1.040 Y85.578 F7800.000
G1 E1.00000 F1800.000
G1 X27.173 Y85.261 E3.37644 F1080.000
G1 X98.494 Y85.262 E9.86167
G1 X132.473 Y85.992 E12.95205 F1080.000
G1 X133.725 Y86.123 E13.06654
G1 X133.983 Y86.171 E13.09036
G1 X135.281 Y86.543 E13.21314
G1 X138.503 Y87.871 E13.53007
G1 X139.859 Y88.611 E13.67056
G1 X140.024 Y88.726 E13.68882
G1 X141.291 Y89.843 E13.84238
G1 X141.415 Y89.982 E13.85931
G1 X142.315 Y91.230 E13.99928
G1 X142.805 Y92.204 E14.09836
G1 X144.227 Y95.721 E14.44332
G1 X144.280 Y95.892 E14.45965
G1 X144.569 Y97.349 E14.59466
G1 X144.612 Y98.492 E14.69872
G1 X143.655 Y122.764 E16.90740
G1 X143.375 Y124.209 E17.04130
G1 X143.079 Y125.064 E17.12351
G1 X141.455 Y128.814 E17.49511
G1 X141.366 Y128.966 E17.51120
G1 X140.359 Y130.309 E17.66376
G1 X140.234 Y130.440 E17.68017
G1 X139.090 Y131.418 E17.81712
G1 X138.923 Y131.532 E17.83546
G1 X137.586 Y132.260 E17.97391
G1 X134.312 Y133.606 E18.29576
G1 X133.023 Y133.967 E18.41747
G1 X131.837 Y134.123 E18.52623
G1 X131.272 Y134.149 E18.57767
G1 X98.187 Y134.739 E21.58662
G1 X27.095 Y134.739 E28.05092
G1 X-28.369 Y134.139 E33.09453
G1 X-29.621 Y134.008 E33.20901
G1 X-29.879 Y133.960 E33.23287
G1 X-31.165 Y133.593 E33.35448
G1 X-34.400 Y132.260 E33.67266
G1 X-35.756 Y131.520 E33.81315
G1 X-35.922 Y131.405 E33.83142
G1 X-37.048 Y130.440 E33.96630
G1 X-37.172 Y130.309 E33.98274
G1 X-38.198 Y128.933 E34.13881
G1 X-38.701 Y127.938 E34.24013
G1 X-40.122 Y124.424 E34.58479
G1 X-40.391 Y123.351 E34.68543
G1 X-44.571 Y99.055 E36.92712
G1 X-44.589 Y98.858 E36.94509
G1 X-44.586 Y97.537 E37.06520
G1 X-44.569 Y97.349 E37.08237
G1 X-44.280 Y95.892 E37.21743
G1 X-43.996 Y95.078 E37.29582
G1 X-42.404 Y91.386 E37.66138
G1 X-42.315 Y91.230 E37.67773
G1 X-41.415 Y89.982 E37.81767
G1 X-41.291 Y89.843 E37.83460
G1 X-40.025 Y88.726 E37.98815
G1 X-39.860 Y88.611 E38.00641
G1 X-38.503 Y87.871 E38.14691
G1 X-35.281 Y86.543 E38.46383
G1 X-33.983 Y86.171 E38.58662
G1 X-32.778 Y86.008 E38.69718
G1 X-32.169 Y85.982 E38.75258
G1 X0.987 Y85.579 E41.76770
G1 X1.047 Y86.203 F7800.000
G1 X27.173 Y85.886 E44.14345 F1080.000
G1 X98.481 Y85.887 E50.62746
G1 X132.439 Y86.616 E53.71599 F1080.000
G1 X133.610 Y86.737 E53.82300
G1 X133.867 Y86.785 E53.84681
G1 X135.053 Y87.125 E53.95901
G1 X138.264 Y88.449 E54.27478
G1 X139.503 Y89.125 E54.40317
G1 X139.668 Y89.239 E54.42142
G1 X140.826 Y90.260 E54.56175
G1 X140.950 Y90.399 E54.57868
G1 X141.773 Y91.540 E54.70658
G1 X142.228 Y92.443 E54.79853
G1 X143.630 Y95.905 E55.13815
G1 X143.683 Y96.076 E55.15447
G1 X143.947 Y97.407 E55.27785
G1 X143.988 Y98.468 E55.37441
G1 X143.032 Y122.708 E57.58020
G1 X142.776 Y124.029 E57.70255
G1 X142.502 Y124.825 E57.77911
G1 X140.915 Y128.499 E58.14306
G1 X140.826 Y128.652 E58.15915
G1 X139.906 Y129.878 E58.29856
G1 X139.781 Y130.009 E58.31497
G1 X138.735 Y130.903 E58.44012
G1 X138.569 Y131.018 E58.45846
G1 X137.347 Y131.682 E58.58497
G1 X134.089 Y133.022 E58.90527
G1 X132.911 Y133.352 E59.01650
G1 X131.805 Y133.499 E59.11799
G1 X131.261 Y133.524 E59.16746
G1 X98.187 Y134.114 E62.17539
G1 X27.102 Y134.114 E68.63908
G1 X-28.335 Y133.515 E73.68023
G1 X-29.505 Y133.394 E73.78723
G1 X-29.763 Y133.346 E73.81108
G1 X-30.938 Y133.010 E73.92221
G1 X-34.161 Y131.682 E74.23914
G1 X-35.400 Y131.006 E74.36752
G1 X-35.565 Y130.892 E74.38579
G1 X-36.595 Y130.009 E74.50904
G1 X-36.719 Y129.878 E74.52548
G1 X-37.657 Y128.621 E74.66810
G1 X-38.123 Y127.699 E74.76207
G1 X-39.525 Y124.240 E75.10140
G1 X-39.775 Y123.244 E75.19480
G1 X-43.949 Y98.999 E77.43182
G1 X-43.967 Y98.802 E77.44979
G1 X-43.964 Y97.595 E77.55954
G1 X-43.947 Y97.407 E77.57672
G1 X-43.682 Y96.076 E77.70013
G1 X-43.418 Y95.317 E77.77317
G1 X-41.862 Y91.696 E78.13161
G1 X-41.772 Y91.540 E78.14796
G1 X-40.950 Y90.399 E78.27584
G1 X-40.826 Y90.260 E78.29277
G1 X-39.669 Y89.239 E78.43308
G1 X-39.504 Y89.125 E78.45134
G1 X-38.264 Y88.449 E78.57973
G1 X-35.053 Y87.125 E78.89550
G1 X-33.867 Y86.785 E79.00770
G1 X-32.744 Y86.632 E79.11079
G1 X-32.161 Y86.607 E79.16380
G1 X0.995 Y86.204 E82.17892
G1 F1800.000 E81.17892
G92 E0
G1 X0.538 Y117.911 F7800.000
G1 E1.00000 F1800.000
G1 X0.538 Y114.575 E1.30332 F540.000
G1 X3.954 Y114.575 E1.61392
G1 X5.039 Y114.626 E1.71272
G1 X6.228 Y114.801 E1.82203
G1 X6.673 Y115.127 E1.87221
G1 X7.805 Y116.246 E2.01689
G1 X6.701 Y117.400 E2.16210
G1 X6.146 Y117.808 E2.22475
G1 X4.752 Y117.911 E2.35179
G1 X0.590 Y117.911 E2.73024
G1 X1.163 Y117.286 F7800.000
G1 X1.163 Y115.200 E2.91992 F378.000
G1 X3.939 Y115.200 E3.17238
G1 X4.979 Y115.249 E3.26702
G1 X5.984 Y115.396 E3.35938
G1 X6.266 Y115.604 E3.39126
G1 X6.928 Y116.258 E3.47589
G1 X6.287 Y116.929 E3.56026
G1 X5.920 Y117.198 E3.60162
G1 X4.729 Y117.286 E3.71022
G1 X1.215 Y117.286 E4.02975
G1 X0.538 Y106.539 F7800.000
G1 X0.538 Y102.220 E4.42249 F540.000
G1 X6.753 Y102.220 E4.98765
G1 X7.974 Y102.291 E5.09885
G1 X8.763 Y102.971 E5.19355
G1 X9.332 Y103.605 E5.27108
G1 X9.379 Y104.268 E5.33152
G1 X9.337 Y104.741 E5.37464
G1 X8.773 Y105.398 E5.45338
G1 X8.039 Y106.029 E5.54138
G1 X7.786 Y106.189 E5.56861
G1 X6.887 Y106.361 E5.65188
G1 X5.538 Y106.495 E5.77511
G1 X4.054 Y106.539 E5.91009
G1 X0.590 Y106.539 E6.22509
G1 X1.163 Y105.914 F7800.000
G1 X1.163 Y102.845 E6.50418 F378.000
G1 X6.735 Y102.845 E7.01088
G1 X7.726 Y102.902 E7.10117
G1 X8.324 Y103.418 E7.17298
G1 X8.724 Y103.863 E7.22735
G1 X8.752 Y104.262 E7.26377
G1 X8.732 Y104.486 E7.28416
G1 X8.329 Y104.955 E7.34036
G1 X7.666 Y105.525 E7.41992
G1 X7.552 Y105.598 E7.43217
G1 X6.797 Y105.742 E7.50209
G1 X5.498 Y105.871 E7.62081
G1 X4.045 Y105.914 E7.75298
G1 X1.215 Y105.914 E8.01030
G1 X21.107 Y107.411 F7800.000
G1 X21.529 Y105.677 E8.17250 F540.000
G1 X22.825 Y103.871 E8.37465
G1 X24.445 Y102.330 E8.57795
G1 X25.442 Y101.692 E8.68560
G1 X27.172 Y101.493 E8.84391
G1 X28.690 Y101.664 E8.98280
G1 X29.087 Y101.709 E9.01920 F540.000
G1 X30.276 Y102.537 E9.15092
G1 X31.805 Y104.233 E9.35853
G1 X32.808 Y105.855 E9.53203
G1 X33.233 Y107.662 E9.70073
G1 X33.406 Y110.000 E9.91396
G1 X33.233 Y112.329 E10.12631
G1 X32.810 Y114.120 E10.29362
G1 X31.805 Y115.744 E10.46729
G1 X30.278 Y117.449 E10.67544
G1 X29.076 Y118.292 E10.80890
G1 X27.172 Y118.507 E10.98315
G1 X25.361 Y118.299 E11.14895
G1 X24.250 Y117.553 E11.27061
G1 X22.672 Y115.926 E11.47668
G1 X21.517 Y114.203 E11.66532
G1 X21.100 Y112.463 E11.82809
G1 X20.918 Y110.000 E12.05259
G1 X21.104 Y107.463 E12.28393
G1 X21.727 Y107.508 F7800.000
G1 X22.107 Y105.943 E12.43036 F378.000
G1 X23.299 Y104.284 E12.61611
G1 X24.833 Y102.824 E12.80864
G1 X25.657 Y102.296 E12.89769
G1 X26.997 Y102.142 E13.02029
G1 X27.172 Y102.122 E13.03636 F378.000
G1 X28.860 Y102.312 E13.19079
G1 X29.860 Y103.008 E13.30158
G1 X31.303 Y104.609 E13.49755
G1 X32.223 Y106.098 E13.65668
G1 X32.613 Y107.757 E13.81164
G1 X32.779 Y110.000 E14.01619
G1 X32.613 Y112.234 E14.21985
G1 X32.226 Y113.878 E14.37343
G1 X31.303 Y115.368 E14.53284
G1 X29.861 Y116.979 E14.72943
G1 X28.848 Y117.689 E14.84188
G1 X27.173 Y117.878 E14.99520
G1 X25.583 Y117.696 E15.14071
G1 X24.653 Y117.071 E15.24257
G1 X23.160 Y115.532 E15.43757
G1 X22.098 Y113.949 E15.61088
G1 X21.719 Y112.366 E15.75885
G1 X21.545 Y110.000 E15.97458
G1 X21.723 Y107.560 E16.19702
G1 F1800.000 E15.19702
G92 E0
G1 X39.332 Y101.840 F7800.000
G1 E1.00000 F1800.000
G1 X41.258 Y102.208 E1.17834 F540.000
G1 X42.719 Y102.220 E1.31116
G1 X42.719 Y105.916 E1.64722
G1 X40.946 Y106.158 E1.80989
G1 X40.655 Y105.108 E1.90893
G1 X39.352 Y101.888 E2.22478
G1 X40.342 Y102.669 F7800.000
G1 X41.182 Y102.830 E2.30258 F378.000
G1 X42.094 Y102.845 E2.38550
G1 X42.094 Y105.370 E2.61514
G1 X41.402 Y105.465 E2.67862
G1 X41.247 Y104.907 E2.73130
G1 X40.361 Y102.718 E2.94599
G1 F1800.000 E1.94599
G92 E0
G1 X40.951 Y113.810 F7800.000
G1 E1.00000 F1800.000
G1 X42.719 Y114.055 E1.16233 F540.000
G1 X42.719 Y117.911 E1.51296
G1 X41.248 Y117.922 E1.64667
G1 X39.248 Y118.271 E1.83134
G1 X40.644 Y114.894 E2.16361
G1 X40.936 Y113.860 E2.26131
G1 X41.404 Y114.504 F7800.000
G1 X42.094 Y114.599 E2.32465 F378.000
G1 X42.094 Y117.286 E2.56897
G1 X41.179 Y117.300 E2.65222
G1 X40.260 Y117.460 E2.73701
G1 X41.236 Y115.099 E2.96930
G1 X41.390 Y114.554 E3.02082
G1 F1800.000 E2.02082
G92 E0
G1 X42.468 Y111.934 F7800.000
G1 E1.00000 F1800.000
G1 X40.562 Y111.315 E1.18226 F540.000
G1 X40.562 Y109.310 E1.36451
G1 X42.468 Y108.691 E1.54677
G1 X43.647 Y110.313 E1.72903
G1 X42.499 Y111.892 E1.90651
G1 X42.230 Y111.200 F7800.000
G1 X41.187 Y110.861 E2.00620 F378.000
G1 X41.187 Y109.764 E2.10590
G1 X42.230 Y109.426 E2.20559
G1 X42.874 Y110.313 E2.30528
G1 X42.261 Y111.157 E2.40020
G1 F1800.000 E1.40020
G92 E0
G1 X91.795 Y108.645 F7800.000
G1 E1.00000 F1800.000
G1 X93.753 Y103.918 E1.46524 F540.000
G1 X93.806 Y103.506 E1.50305
G1 X94.083 Y103.126 E1.54581
G1 X95.109 Y102.151 E1.67453
G1 X95.653 Y101.801 E1.73330
G1 X96.572 Y101.608 E1.81869
G1 X98.341 Y101.497 E1.97991
G1 X100.112 Y101.614 E2.14129
G1 X100.836 Y101.776 E2.20873
G1 X101.533 Y102.260 E2.28592
G1 X102.605 Y103.360 E2.42554
G1 X102.697 Y104.195 E2.50195
G1 X102.648 Y104.902 E2.56634
G1 X101.801 Y105.677 E2.67075
G1 X101.463 Y105.907 E2.70794
G1 X100.090 Y106.199 E2.83559
G1 X98.568 Y106.477 E2.97621
G1 X96.498 Y106.899 E3.16837
G1 X94.786 Y107.406 E3.33073
G1 X91.843 Y108.625 E3.62034
G1 X92.949 Y107.491 F7800.000
G1 X94.349 Y104.112 E3.95285 F378.000
G1 X94.393 Y103.929 E3.96994
G1 X94.411 Y103.736 E3.98760
G1 X94.554 Y103.540 E4.00967
G1 X95.497 Y102.644 E4.12790
G1 X95.894 Y102.389 E4.17081
G1 X96.656 Y102.229 E4.24160
G1 X98.340 Y102.124 E4.39507
G1 X100.023 Y102.235 E4.54842
G1 X100.580 Y102.359 E4.60035
G1 X101.127 Y102.739 E4.66093
G1 X102.007 Y103.642 E4.77555
G1 X102.069 Y104.208 E4.82732
G1 X102.042 Y104.609 E4.86391
G1 X101.413 Y105.185 E4.94148
G1 X101.213 Y105.321 E4.96344
G1 X99.968 Y105.586 E5.07914
G1 X98.450 Y105.864 E5.21950
G1 X96.346 Y106.292 E5.41470
G1 X94.577 Y106.816 E5.58251
G1 X92.998 Y107.470 E5.73792
G1 X103.042 Y113.487 F7800.000
G1 X101.745 Y116.618 E6.04607 F540.000
G1 X101.649 Y117.054 E6.08670
G1 X100.640 Y118.016 E6.21340
G1 X100.216 Y118.301 E6.25992
G1 X99.762 Y118.402 E6.30216
G1 X98.252 Y118.503 E6.43979
G1 X96.670 Y118.395 E6.58400
G1 X96.246 Y118.298 E6.62355
G1 X95.665 Y117.888 E6.68815
G1 X94.792 Y116.985 E6.80238
G1 X94.725 Y116.376 E6.85810
G1 X94.754 Y115.888 E6.90258
G1 X95.313 Y115.345 E6.97340
G1 X95.851 Y114.928 E7.03529
G1 X97.405 Y114.599 E7.17969
G1 X100.156 Y114.112 E7.43379
G1 X102.991 Y113.498 E7.69750
G1 X102.008 Y114.350 F7800.000
G1 X101.147 Y116.430 E7.90220 F378.000
G1 X101.080 Y116.734 E7.93045
G1 X100.248 Y117.527 E8.03499
G1 X99.965 Y117.717 E8.06594
G1 X99.673 Y117.782 E8.09315
G1 X98.252 Y117.876 E8.22262
G1 X96.761 Y117.775 E8.35851
G1 X96.506 Y117.716 E8.38237
G1 X96.074 Y117.411 E8.43045
G1 X95.390 Y116.704 E8.51988
G1 X95.352 Y116.360 E8.55137
G1 X95.364 Y116.166 E8.56901
G1 X95.723 Y115.817 E8.61456
G1 X96.125 Y115.506 E8.66077
G1 X97.519 Y115.214 E8.79035
G1 X100.277 Y114.725 E9.04501
G1 X101.957 Y114.361 E9.20127
G1 X105.668 Y112.605 F7800.000
G1 X107.691 Y111.172 E9.42671 F540.000
G1 X108.239 Y110.645 E9.49584
G1 X108.688 Y110.052 E9.56349
G1 X109.057 Y109.374 E9.63365
G1 X109.420 Y108.499 E9.71979
G1 X111.069 Y108.827 E9.87273
G1 X111.069 Y115.653 E10.49339
G1 X109.420 Y115.981 E10.64634
G1 X108.509 Y113.782 E10.86281
G1 X105.716 Y112.625 E11.13767
G1 X106.952 Y112.461 F7800.000
G1 X108.090 Y111.655 E11.26444 F378.000
G1 X108.708 Y111.062 E11.34231
G1 X109.214 Y110.392 E11.41868
G1 X109.622 Y109.644 E11.49609
G1 X109.801 Y109.212 E11.53863
G1 X110.445 Y109.340 E11.59831
G1 X110.445 Y115.140 E12.12571
G1 X109.801 Y115.268 E12.18539
G1 X109.053 Y113.462 E12.36318
G1 X108.905 Y113.286 E12.38407
G1 X108.808 Y113.229 E12.39431
G1 X107.001 Y112.481 E12.57215
G1 F1800.000 E11.57215
G92 E0
G1 X119.084 Y106.560 F7800.000
G1 E1.00000 F1800.000
G1 X119.084 Y102.055 E1.40968 F540.000
G1 X122.074 Y100.816 E1.70396
G1 X125.061 Y102.054 E1.99803
G1 X125.061 Y106.560 E2.40779
G1 X119.136 Y106.560 E2.94659
G1 X119.708 Y105.935 F7800.000
G1 X119.708 Y102.472 E3.26148 F378.000
G1 X122.074 Y101.492 E3.49426
G1 X124.437 Y102.471 E3.72683
G1 X124.437 Y105.935 E4.04180
G1 X119.761 Y105.935 E4.46695
G1 X119.084 Y114.574 F7800.000
G1 X125.061 Y114.574 E5.01052 F540.000
G1 X125.061 Y118.074 E5.32875
G1 X122.084 Y119.307 E5.62179
G1 X119.084 Y118.064 E5.91710
G1 X119.084 Y114.627 E6.22968
G1 X119.708 Y115.199 F7800.000
G1 X124.437 Y115.199 E6.65961 F378.000
G1 X124.437 Y117.656 E6.88305
G1 X122.084 Y118.631 E7.11459
G1 X119.708 Y117.647 E7.34840
G1 X119.708 Y115.251 E7.56619
G1 F1800.000 E6.56619
G92 E0
G1 X133.098 Y118.607 F7800.000
G1 E1.00000 F1800.000
G1 X134.321 Y119.114 E1.12039 F540.000
G1 X135.481 Y121.915 E1.39608
G1 X134.324 Y124.708 E1.67100
G1 X131.457 Y125.892 E1.95303
G1 X131.117 Y125.925 E1.98411
G1 X125.508 Y125.913 E2.49417
G1 X125.274 Y125.847 E2.51624
G1 X122.074 Y124.521 E2.83124
G1 X118.870 Y125.848 E3.14654
G1 X118.648 Y125.913 E3.16762
G1 X112.825 Y125.913 E3.69708
G1 X112.592 Y125.847 E3.71908
G1 X109.824 Y124.700 E3.99158
G1 X109.110 Y124.212 E4.07018
G1 X108.528 Y124.764 E4.14310
G1 X105.715 Y125.929 E4.41998
G1 X103.616 Y125.060 E4.62653
G1 X101.449 Y125.958 E4.83983
G1 X99.876 Y126.373 E4.98781
G1 X98.182 Y126.512 E5.14234
G1 X96.541 Y126.393 E5.29196
G1 X95.079 Y126.040 E5.42866
G1 X92.290 Y124.885 E5.70321
G1 X90.964 Y124.285 E5.83559
G1 X89.874 Y123.493 E5.95806
G1 X89.003 Y122.549 E6.07481
G1 X88.376 Y121.509 E6.18529
G1 X87.226 Y118.734 E6.45841
G1 X86.841 Y117.579 E6.56909
G1 X86.719 Y116.390 E6.67779
G1 X86.826 Y115.220 E6.78466
G1 X87.159 Y114.158 E6.88585
G1 X88.305 Y111.392 E7.15808
G1 X88.831 Y110.524 E7.25040
G1 X89.549 Y109.814 E7.34217
G1 X91.423 Y108.630 E7.54375
G1 X91.558 Y108.743 E7.55970
G1 X91.663 Y108.700 E7.57007
G1 X86.979 Y106.759 E8.03110
G1 X85.809 Y103.918 E8.31050
G1 X85.776 Y103.559 E8.34332
G1 X85.776 Y100.647 E8.60804
G1 X82.048 Y102.188 E8.97481
G1 X81.728 Y102.220 E9.00404
G1 X78.559 Y102.220 E9.29228
G1 X78.559 Y117.911 E10.71905
G1 X81.730 Y117.911 E11.00745
G1 X82.069 Y117.943 E11.03841
G1 X84.911 Y119.113 E11.31782
G1 X86.071 Y121.915 E11.59363
G1 X84.914 Y124.709 E11.86865
G1 X82.166 Y125.848 E12.13909
G1 X81.943 Y125.913 E12.16027
G1 X67.375 Y125.925 E13.48493
G1 X67.055 Y125.894 E13.51409
G1 X64.190 Y124.709 E13.79600
G1 X63.033 Y121.915 E14.07102
G1 X64.194 Y119.113 E14.34682
G1 X67.034 Y117.943 E14.62618
G1 X67.373 Y117.911 E14.65711
G1 X70.544 Y117.911 E14.94550
G1 X70.544 Y102.220 E16.37227
G1 X67.163 Y102.208 E16.67972
G1 X66.937 Y102.142 E16.70118
G1 X64.790 Y101.253 E16.91248
G1 X64.778 Y106.617 E17.40028
G1 X64.714 Y106.836 E17.42101
G1 X63.580 Y109.571 E17.69023
G1 X60.775 Y110.733 E17.96634
G1 X57.967 Y109.570 E18.24272
G1 X56.832 Y106.830 E18.51243
G1 X56.766 Y106.607 E18.53356
G1 X56.755 Y102.220 E18.93249
G1 X50.755 Y102.220 E19.47806
G1 X50.755 Y117.911 E20.90483
G1 X52.006 Y117.911 E21.01858
G1 X52.344 Y117.943 E21.04951
G1 X55.185 Y119.113 E21.32887
G1 X56.346 Y121.915 E21.60468
G1 X55.188 Y124.709 E21.87970
G1 X52.323 Y125.894 E22.16160
G1 X52.004 Y125.925 E22.19076
G1 X41.470 Y125.925 E23.14867
G1 X41.150 Y125.894 E23.17782
G1 X38.285 Y124.709 E23.45973
G1 X37.201 Y122.093 E23.71727
G1 X35.089 Y123.742 E23.96095
G1 X33.880 Y124.440 E24.08792
G1 X31.071 Y125.604 E24.36437
G1 X29.773 Y126.119 E24.49132
G1 X28.497 Y126.414 E24.61043
G1 X27.190 Y126.511 E24.72963
G1 X25.238 Y126.298 E24.90812
G1 X23.351 Y125.640 E25.08986
G1 X20.576 Y124.490 E25.36298
G1 X18.837 Y123.409 E25.54922
G1 X17.217 Y121.895 E25.75083
G1 X14.877 Y118.692 E26.11150
