; generated by Slic3r 1.1.7 on 2014-09-23 at 21:32:21

; perimeters extrusion width = 0.34mm
; infill extrusion width = 0.60mm
; solid infill extrusion width = 0.37mm
; top infill extrusion width = 0.35mm

G21 ; set units to millimeters
M107
G28 ; home all axes
M104 S230 ; lower temp after/durring first layer improve overhangs
M140 S90 ; lower temp after/durring first layer improve overhangs
G90 ; use absolute coordinates
G92 E0
M82 ; use absolute distances for extrusion
G1 F1200.000 E-1.75000
G92 E0
G1 Z0.168 F4800.000
G1 X75.231 Y120.144 F4800.000
G1 E1.75000 F1200.000
G1 X76.422 Y119.494 E1.76271 F3060.000
G1 X79.067 Y118.404 E1.78950
G1 X80.207 Y118.077 E1.80061
G1 X81.249 Y117.937 E1.81046
G1 X81.765 Y117.915 E1.81530
G1 X130.323 Y117.325 E2.27013
G1 X188.686 Y117.326 E2.81677
G1 X216.501 Y117.924 E3.07734 F3060.000
G1 X217.583 Y118.037 E3.08753
G1 X217.793 Y118.077 E3.08953
G1 X218.933 Y118.404 E3.10064
G1 X219.226 Y118.519 E3.10359
G1 X221.578 Y119.494 E3.12743
G1 X222.769 Y120.144 E3.14014
G1 X222.904 Y120.237 E3.14168
G1 X224.016 Y121.218 E3.15556
G1 X224.117 Y121.331 E3.15699
G1 X224.908 Y122.428 E3.16965
G1 X225.332 Y123.273 E3.17851
G1 X226.510 Y126.189 E3.20797
G1 X226.553 Y126.330 E3.20934
G1 X226.807 Y127.609 E3.22155
G1 X226.844 Y128.601 E3.23086
G1 X226.074 Y148.321 E3.41569
G1 X226.059 Y148.482 E3.41720
G1 X225.813 Y149.751 E3.42932
G1 X225.557 Y150.491 E3.43665
G1 X224.202 Y153.611 E3.46851
G1 X224.129 Y153.737 E3.46987
G1 X223.245 Y154.915 E3.48366
G1 X223.143 Y155.022 E3.48505
G1 X222.138 Y155.881 E3.49743
G1 X222.002 Y155.975 E3.49898
G1 X220.827 Y156.613 E3.51150
G1 X218.138 Y157.719 E3.53874
G1 X216.993 Y158.039 E3.54987
G1 X215.981 Y158.171 E3.55943
G1 X215.503 Y158.192 E3.56391
G1 X188.425 Y158.675 E3.81756
G1 X130.255 Y158.675 E4.36239
G1 X84.857 Y158.184 E4.78762
G1 X83.775 Y158.070 E4.79780
G1 X83.565 Y158.030 E4.79981
G1 X82.435 Y157.708 E4.81081
G1 X79.779 Y156.613 E4.83772
G1 X78.588 Y155.964 E4.85043
G1 X78.453 Y155.870 E4.85197
G1 X77.464 Y155.022 E4.86417
G1 X77.363 Y154.915 E4.86555
G1 X76.461 Y153.706 E4.87967
G1 X76.026 Y152.843 E4.88873
G1 X74.849 Y149.929 E4.91816
G1 X74.616 Y148.997 E4.92716
G1 X71.191 Y129.083 E5.11641
G1 X71.177 Y128.922 E5.11793
G1 X71.179 Y127.763 E5.12879
G1 X71.193 Y127.609 E5.13024
G1 X71.447 Y126.330 E5.14245
G1 X71.693 Y125.625 E5.14944
G1 X73.020 Y122.555 E5.18076
G1 X73.093 Y122.427 E5.18214
G1 X73.883 Y121.332 E5.19479
G1 X73.984 Y121.218 E5.19622
G1 X75.188 Y120.174 E5.21114
G1 F1200.000 E3.46114
G92 E0
G1 X92.957 Y131.448 F4800.000
G1 E1.75000 F1200.000
M204 S900
G1 X90.124 Y131.448 E1.77653 F1530.000
G1 X90.523 Y131.024 E1.78199
G1 X90.579 Y130.929 E1.78302
G1 X91.541 Y128.607 E1.80656
G1 X92.503 Y130.929 E1.83011
G1 X92.558 Y131.025 E1.83114
G1 X92.921 Y131.410 E1.83610
M204 S900
G1 X93.044 Y131.787 F4800.000
G1 F1200.000 E0.08610
G92 E0
G1 X108.046 Y141.259 F4800.000
G1 E1.75000 F1200.000
M204 S900
G1 X111.337 Y141.259 E1.78082 F2040.000
G1 X112.260 Y141.302 E1.78948
G1 X113.377 Y141.466 E1.80005
G1 X113.866 Y141.826 E1.80573
G1 X115.156 Y143.101 E1.82272
G1 X113.894 Y144.420 E1.83982
G1 X113.294 Y144.861 E1.84680
G1 X111.997 Y144.957 E1.85898
G1 X108.046 Y144.957 E1.89598
G1 X108.046 Y141.311 E1.93013
M204 S900
G1 X108.412 Y141.625 F4800.000
M204 S900
G1 X111.328 Y141.625 E1.95744 F2040.000
G1 X112.225 Y141.666 E1.96585
G1 X113.233 Y141.815 E1.97539
G1 X113.628 Y142.105 E1.97998
G1 X114.643 Y143.108 E1.99335
G1 X113.652 Y144.144 E2.00678
G1 X113.162 Y144.504 E2.01247
G1 X111.983 Y144.591 E2.02354
G1 X108.412 Y144.591 E2.05699
G1 X108.412 Y141.677 E2.08429
M204 S900
G1 X108.778 Y141.990 F4800.000
M204 S900
G1 X111.320 Y141.990 E2.10810 F2040.000
G1 X112.190 Y142.031 E2.11625
G1 X113.090 Y142.163 E2.12478
G1 X113.390 Y142.383 E2.12826
G1 X114.130 Y143.115 E2.13801
G1 X113.410 Y143.868 E2.14777
G1 X113.030 Y144.147 E2.15218
G1 X111.970 Y144.226 E2.16214
G1 X108.778 Y144.226 E2.19204
G1 X108.778 Y142.043 E2.21248
M204 S900
G1 X109.144 Y142.356 F4800.000
M204 S900
G1 X111.311 Y142.356 E2.23279 F1530.000
G1 X112.155 Y142.395 E2.24069
G1 X112.947 Y142.512 E2.24819
G1 X113.152 Y142.662 E2.25058
G1 X113.617 Y143.122 E2.25670
G1 X113.167 Y143.592 E2.26280
G1 X112.898 Y143.790 E2.26593
G1 X111.957 Y143.860 E2.27477
G1 X109.144 Y143.860 E2.30112
G1 X109.144 Y142.408 E2.31471
M204 S900
G1 X109.144 Y142.006 F4800.000
G1 F1200.000 E0.56471
G92 E0
G1 X108.046 Y135.653 F4800.000
G1 E1.75000 F1200.000
M204 S900
G1 X108.046 Y131.150 E1.79217 F2040.000
G1 X113.630 Y131.150 E1.84447
G1 X114.807 Y131.218 E1.85551
G1 X115.600 Y131.902 E1.86532
G1 X116.198 Y132.568 E1.87371
G1 X116.250 Y133.315 E1.88072
G1 X116.199 Y133.895 E1.88617
G1 X115.612 Y134.578 E1.89460
G1 X114.958 Y135.141 E1.90269
G1 X114.644 Y135.340 E1.90618
G1 X113.795 Y135.502 E1.91427
G1 X112.653 Y135.616 E1.92501
G1 X111.415 Y135.653 E1.93661
G1 X108.099 Y135.653 E1.96768
M204 S900
G1 X108.412 Y135.287 F4800.000
M204 S900
G1 X108.412 Y131.516 E2.00300 F2040.000
G1 X113.620 Y131.516 E2.05177
G1 X114.662 Y131.576 E2.06155
G1 X115.344 Y132.164 E2.06998
G1 X115.842 Y132.719 E2.07697
G1 X115.883 Y133.312 E2.08254
G1 X115.845 Y133.746 E2.08662
G1 X115.353 Y134.319 E2.09369
G1 X114.740 Y134.846 E2.10127
G1 X114.507 Y134.994 E2.10385
G1 X113.743 Y135.140 E2.11114
G1 X112.630 Y135.251 E2.12161
G1 X111.410 Y135.287 E2.13304
G1 X108.465 Y135.287 E2.16063
M204 S900
G1 X108.778 Y134.921 F4800.000
M204 S900
G1 X108.778 Y131.881 E2.18910 F2040.000
G1 X113.609 Y131.881 E2.23435
G1 X114.517 Y131.934 E2.24287
G1 X115.087 Y132.426 E2.24992
G1 X115.486 Y132.870 E2.25551
G1 X115.517 Y133.308 E2.25963
G1 X115.491 Y133.596 E2.26234
G1 X115.093 Y134.059 E2.26805
G1 X114.521 Y134.552 E2.27512
G1 X114.370 Y134.648 E2.27681
G1 X113.690 Y134.778 E2.28329
G1 X112.606 Y134.886 E2.29349
G1 X111.404 Y134.921 E2.30475
G1 X108.830 Y134.921 E2.32886
M204 S900
G1 X109.144 Y134.556 F4800.000
M204 S900
G1 X109.144 Y132.247 E2.35048 F1530.000
G1 X113.598 Y132.247 E2.39221
G1 X114.372 Y132.292 E2.39947
G1 X114.831 Y132.687 E2.40514
G1 X115.130 Y133.021 E2.40933
G1 X115.150 Y133.305 E2.41200
G1 X115.137 Y133.447 E2.41334
G1 X114.834 Y133.800 E2.41770
G1 X114.232 Y134.302 E2.42503
G1 X113.638 Y134.415 E2.43070
G1 X112.583 Y134.520 E2.44063
G1 X111.399 Y134.556 E2.45173
G1 X109.196 Y134.556 E2.47236
M204 S900
G1 X108.794 Y134.556 F4800.000
G1 F1200.000 E0.72236
G92 E0
G1 X124.880 Y135.806 F4800.000
G1 E1.75000 F1200.000
M204 S900
G1 X125.257 Y134.257 E1.76493 F2040.000
G1 X126.399 Y132.666 E1.78327
G1 X127.791 Y131.342 E1.80127
G1 X128.740 Y130.734 E1.81183
G1 X130.322 Y130.552 E1.82674
G1 X131.670 Y130.704 E1.83944
M204 S900
M204 S900
G1 X132.066 Y130.748 E1.84317 F2040.000
G1 X133.185 Y131.528 E1.85595
G1 X134.502 Y132.989 E1.87437
G1 X135.388 Y134.421 E1.89014
G1 X135.762 Y136.013 E1.90546
G1 X135.909 Y138.000 E1.92412
G1 X135.762 Y139.980 E1.94271
G1 X135.389 Y141.559 E1.95791
G1 X134.503 Y142.991 E1.97368
G1 X133.188 Y144.460 E1.99215
G1 X132.058 Y145.252 E2.00507
G1 X130.322 Y145.448 E2.02143
G1 X128.668 Y145.258 E2.03702
G1 X127.619 Y144.554 E2.04886
G1 X126.263 Y143.155 E2.06711
G1 X125.245 Y141.637 E2.08423
G1 X124.874 Y140.090 E2.09913
G1 X124.720 Y138.000 E2.11875
G1 X124.877 Y135.858 E2.13887
M204 S900
G1 X125.243 Y135.863 F4800.000
M204 S900
G1 X125.596 Y134.413 E2.15284 F2040.000
G1 X126.676 Y132.907 E2.17020
G1 X128.018 Y131.631 E2.18755
G1 X128.866 Y131.087 E2.19698
G1 X130.153 Y130.940 E2.20912
M204 S900
M204 S900
G1 X130.322 Y130.920 E2.21071 F2040.000
G1 X131.933 Y131.101 E2.22589
G1 X132.941 Y131.804 E2.23740
G1 X134.208 Y133.210 E2.25512
G1 X135.045 Y134.563 E2.27003
G1 X135.399 Y136.069 E2.28451
G1 X135.542 Y138.000 E2.30265
G1 X135.399 Y139.924 E2.32072
G1 X135.047 Y141.417 E2.33509
G1 X134.209 Y142.771 E2.35000
G1 X132.943 Y144.184 E2.36777
G1 X131.924 Y144.899 E2.37943
G1 X130.322 Y145.080 E2.39453
G1 X128.798 Y144.905 E2.40890
G1 X127.855 Y144.272 E2.41954
G1 X126.548 Y142.924 E2.43712
G1 X125.585 Y141.488 E2.45332
G1 X125.237 Y140.033 E2.46733
G1 X125.087 Y138.000 E2.48642
G1 X125.239 Y135.915 E2.50600
M204 S900
G1 X125.605 Y135.920 F4800.000
M204 S900
G1 X125.934 Y134.568 E2.51902 F2040.000
G1 X126.953 Y133.149 E2.53539
G1 X128.245 Y131.920 E2.55209
G1 X128.992 Y131.441 E2.56040
G1 X130.323 Y131.288 E2.57295
G1 X131.588 Y131.431 E2.58487
M204 S900
M204 S900
G1 X131.800 Y131.454 E2.58687 F2040.000
G1 X132.698 Y132.080 E2.59712
G1 X133.914 Y133.430 E2.61414
G1 X134.703 Y134.705 E2.62818
G1 X135.037 Y136.124 E2.64184
G1 X135.175 Y138.000 E2.65945
G1 X135.037 Y139.868 E2.67700
G1 X134.705 Y141.275 E2.69054
G1 X133.915 Y142.551 E2.70459
G1 X132.699 Y143.909 E2.72166
G1 X131.790 Y144.546 E2.73206
G1 X130.323 Y144.712 E2.74589
G1 X128.928 Y144.552 E2.75904
G1 X128.091 Y143.990 E2.76848
G1 X126.833 Y142.693 E2.78540
G1 X125.925 Y141.339 E2.80067
G1 X125.599 Y139.977 E2.81379
G1 X125.453 Y138.000 E2.83235
G1 X125.602 Y135.972 E2.85140
M204 S900
G1 X125.968 Y135.977 F4800.000
M204 S900
G1 X126.273 Y134.724 E2.86347 F1530.000
G1 X127.230 Y133.390 E2.87885
G1 X128.472 Y132.209 E2.89490
G1 X129.118 Y131.795 E2.90209
G1 X130.237 Y131.666 E2.91264
M204 S900
M204 S900
G1 X130.323 Y131.656 E2.91345 F1530.000
G1 X131.667 Y131.808 E2.92612
G1 X132.454 Y132.356 E2.93510
G1 X133.621 Y133.651 E2.95143
G1 X134.360 Y134.846 E2.96460
G1 X134.674 Y136.180 E2.97743
G1 X134.808 Y138.000 E2.99452
G1 X134.674 Y139.812 E3.01154
G1 X134.362 Y141.133 E3.02425
G1 X133.621 Y142.331 E3.03745
G1 X132.455 Y143.634 E3.05382
G1 X131.657 Y144.193 E3.06295
G1 X130.323 Y144.344 E3.07552
G1 X129.058 Y144.199 E3.08744
G1 X128.327 Y143.707 E3.09570
G1 X127.119 Y142.462 E3.11195
G1 X126.266 Y141.189 E3.12630
G1 X125.962 Y139.920 E3.13852
G1 X125.820 Y138.000 E3.15655
G1 X125.964 Y136.029 E3.17506
M204 S900
G1 F1200.000 E1.42506
G92 E0
G1 X130.248 Y131.580 F4800.000
G1 X139.489 Y130.680 F4800.000
G1 E1.75000 F1200.000
M204 S900
G1 X141.907 Y131.143 E1.77306 F2040.000
G1 X143.527 Y131.150 E1.78824
G1 X143.527 Y135.023 E1.82451
G1 X141.223 Y135.337 E1.84629
G1 X140.894 Y134.154 E1.85779
G1 X139.508 Y130.729 E1.89240
M204 S900
G1 X140.080 Y131.166 F4800.000
M204 S900
G1 X141.862 Y131.507 E1.90939 F2040.000
G1 X143.161 Y131.516 E1.92156
G1 X143.161 Y134.703 E1.95142
G1 X141.490 Y134.931 E1.96722
G1 X141.241 Y134.036 E1.97593
G1 X140.099 Y131.214 E2.00443
M204 S900
G1 X140.671 Y131.651 F4800.000
M204 S900
G1 X141.818 Y131.871 E2.01537 F2040.000
G1 X142.796 Y131.881 E2.02453
G1 X142.796 Y134.384 E2.04798
G1 X141.757 Y134.526 E2.05780
G1 X141.588 Y133.918 E2.06371
G1 X140.690 Y131.700 E2.08612
M204 S900
G1 X141.262 Y132.137 F4800.000
M204 S900
G1 X141.773 Y132.235 E2.09100 F1530.000
G1 X142.430 Y132.247 E2.09715
G1 X142.430 Y134.065 E2.11418
G1 X142.024 Y134.120 E2.11802
G1 X141.935 Y133.800 E2.12113
G1 X141.281 Y132.185 E2.13745
M204 S900
G1 X141.261 Y131.787 F4800.000
G1 F1200.000 E0.38745
G92 E0
G1 X141.229 Y140.635 F4800.000
G1 E1.75000 F1200.000
M204 S900
G1 X143.527 Y140.953 E1.77173 F2040.000
G1 X143.527 Y144.957 E1.80923
G1 X141.894 Y144.964 E1.82453
G1 X139.418 Y145.396 E1.84807
G1 X140.887 Y141.846 E1.88406
G1 X141.214 Y140.685 E1.89535
M204 S900
G1 X141.494 Y141.041 F4800.000
M204 S900
G1 X143.161 Y141.272 E1.91112 F2040.000
G1 X143.161 Y144.591 E1.94221
G1 X141.853 Y144.600 E1.95447
G1 X140.010 Y144.921 E1.97199
G1 X141.233 Y141.966 E2.00195
G1 X141.480 Y141.091 E2.01046
M204 S900
G1 X141.759 Y141.447 F4800.000
M204 S900
G1 X142.796 Y141.590 E2.02026 F2040.000
G1 X142.796 Y144.226 E2.04494
G1 X141.812 Y144.236 E2.05415
G1 X140.603 Y144.447 E2.06565
G1 X141.579 Y142.085 E2.08959
G1 X141.745 Y141.497 E2.09531
M204 S900
G1 X142.025 Y141.853 F4800.000
M204 S900
G1 X142.430 Y141.909 E2.09914 F1530.000
G1 X142.430 Y143.860 E2.11742
G1 X141.771 Y143.872 E2.12359
G1 X141.195 Y143.972 E2.12907
G1 X141.925 Y142.205 E2.14697
G1 X142.010 Y141.903 E2.14992
M204 S900
G1 X142.089 Y141.509 F4800.000
G1 F1200.000 E0.39992
G92 E0
G1 X205.038 Y135.670 F4800.000
G1 E1.75000 F1200.000
M204 S900
G1 X205.038 Y131.175 E1.79210 F2040.000
G1 X207.969 Y129.961 E1.82181
G1 X210.898 Y131.175 E1.85150
G1 X210.898 Y135.670 E1.89361
G1 X205.091 Y135.670 E1.94800
M204 S900
G1 X205.404 Y135.304 F4800.000
M204 S900
G1 X205.404 Y131.420 E1.98438 F2040.000
G1 X207.969 Y130.357 E2.01038
G1 X210.533 Y131.419 E2.03637
G1 X210.533 Y135.304 E2.07276
G1 X205.457 Y135.304 E2.12030
M204 S900
G1 X205.770 Y134.939 F4800.000
M204 S900
G1 X205.770 Y131.664 E2.15097 F2040.000
G1 X207.969 Y130.753 E2.17327
G1 X210.167 Y131.663 E2.19555
G1 X210.167 Y134.939 E2.22622
G1 X205.822 Y134.939 E2.26692
M204 S900
G1 X206.136 Y134.573 F4800.000
M204 S900
G1 X206.136 Y131.909 E2.29187 F1530.000
G1 X207.969 Y131.149 E2.31046
G1 X209.801 Y131.908 E2.32903
G1 X209.801 Y134.573 E2.35399
G1 X206.188 Y134.573 E2.38783
M204 S900
G1 X205.786 Y134.573 F4800.000
G1 F1200.000 E0.63783
G92 E0
G1 X183.652 Y136.435 F4800.000
G1 E1.75000 F1200.000
M204 S900
G1 X185.033 Y133.101 E1.78381 F2040.000
G1 X185.080 Y132.778 E1.78686
G1 X185.254 Y132.539 E1.78963
G1 X186.061 Y131.773 E1.80005
G1 X186.447 Y131.524 E1.80435
G1 X187.137 Y131.379 E1.81096
G1 X188.551 Y131.291 E1.82423
G1 X189.966 Y131.384 E1.83750
G1 X190.492 Y131.502 E1.84255
G1 X191.003 Y131.857 E1.84838
G1 X191.804 Y132.679 E1.85913
G1 X191.868 Y133.256 E1.86457
G1 X191.836 Y133.713 E1.86886
G1 X191.229 Y134.269 E1.87657
G1 X191.007 Y134.420 E1.87908
G1 X189.935 Y134.648 E1.88936
G1 X188.691 Y134.875 E1.90120
G1 X186.984 Y135.223 E1.91751
G1 X185.560 Y135.645 E1.93142
G1 X183.700 Y136.415 E1.95028
M204 S900
G1 X184.328 Y135.760 F4800.000
M204 S900
G1 X185.382 Y133.214 E1.97608 F1530.000
G1 X185.435 Y132.912 E1.97895
G1 X185.530 Y132.782 E1.98046
G1 X186.287 Y132.062 E1.99025
G1 X186.588 Y131.868 E1.99360
G1 X187.186 Y131.743 E1.99933
G1 X188.551 Y131.657 E2.01213
G1 X189.913 Y131.747 E2.02492
G1 X190.342 Y131.843 E2.02904
G1 X190.766 Y132.137 E2.03387
G1 X191.454 Y132.844 E2.04311
G1 X191.500 Y133.263 E2.04706
G1 X191.481 Y133.542 E2.04968
G1 X191.002 Y133.981 E2.05577
G1 X190.861 Y134.077 E2.05736
G1 X189.864 Y134.289 E2.06691
G1 X188.622 Y134.516 E2.07874
G1 X186.895 Y134.868 E2.09524
G1 X185.438 Y135.300 E2.10947
G1 X184.376 Y135.739 E2.12024
M204 S900
G1 X183.981 Y135.714 F4800.000
G1 F1200.000 E0.37024
G92 E0
G1 X193.200 Y140.184 F4800.000
G1 E1.75000 F1200.000
M204 S900
G1 X191.801 Y143.561 E1.78423 F2040.000
G1 X191.699 Y144.021 E1.78864
G1 X190.738 Y144.938 E1.80109
G1 X190.280 Y145.245 E1.80625
G1 X189.784 Y145.355 E1.81102
G1 X188.479 Y145.442 E1.82327
G1 X187.113 Y145.350 E1.83608
G1 X186.636 Y145.240 E1.84067
G1 X186.046 Y144.823 E1.84743
G1 X185.184 Y143.933 E1.85904
G1 X185.049 Y142.694 E1.87072
G1 X185.756 Y142.006 E1.87995
G1 X186.302 Y141.584 E1.88642
G1 X187.696 Y141.287 E1.89977
G1 X189.943 Y140.889 E1.92114
G1 X193.148 Y140.195 E1.95185
M204 S900
G1 X192.594 Y140.689 F4800.000
M204 S900
G1 X191.451 Y143.451 E1.97985 F2040.000
G1 X191.366 Y143.833 E1.98352
G1 X190.508 Y144.652 E1.99463
G1 X190.133 Y144.903 E1.99885
G1 X189.731 Y144.992 E2.00271
G1 X188.479 Y145.076 E2.01447
G1 X187.167 Y144.987 E2.02678
G1 X186.788 Y144.900 E2.03042
G1 X186.285 Y144.544 E2.03619
G1 X185.534 Y143.768 E2.04630
G1 X185.432 Y142.831 E2.05513
G1 X185.996 Y142.283 E2.06250
G1 X186.462 Y141.922 E2.06802
G1 X187.764 Y141.646 E2.08048
G1 X190.014 Y141.248 E2.10188
G1 X192.543 Y140.700 E2.12612
M204 S900
G1 X191.989 Y141.194 F4800.000
M204 S900
G1 X191.101 Y143.341 E2.14788 F2040.000
G1 X191.033 Y143.645 E2.15080
G1 X190.278 Y144.365 E2.16058
G1 X189.987 Y144.561 E2.16386
G1 X189.679 Y144.629 E2.16681
G1 X188.479 Y144.709 E2.17808
G1 X187.221 Y144.624 E2.18989
G1 X186.940 Y144.559 E2.19259
G1 X186.524 Y144.265 E2.19736
G1 X185.884 Y143.604 E2.20598
G1 X185.815 Y142.969 E2.21196
G1 X186.236 Y142.560 E2.21746
G1 X186.623 Y142.261 E2.22204
G1 X187.831 Y142.006 E2.23361
G1 X190.085 Y141.606 E2.25504
G1 X191.938 Y141.205 E2.27280
M204 S900
G1 X191.384 Y141.699 F4800.000
M204 S900
G1 X190.750 Y143.231 E2.28833 F1530.000
G1 X190.700 Y143.457 E2.29050
