; generated by Slic3r 1.1.7 on 2014-09-23 at 21:20:46

; perimeters extrusion width = 0.35mm
; infill extrusion width = 0.39mm
; solid infill extrusion width = 0.39mm
; top infill extrusion width = 0.39mm

G21 ; set units to millimeters
M107
M104 S220 ; set temperature
G28 ; home all axes
G1 Z5 F5000 ; lift nozzle

M109 S220 ; wait for temperature to be reached
G90 ; use absolute coordinates
G92 E0
M82 ; use absolute distances for extrusion
G1 F1800.000 E-1.00000
G92 E0
G1 Z0.350 F7800.000
G1 X39.745 Y129.580 F7800.000
G1 E1.00000 F1800.000
G1 X41.043 Y129.208 E1.12281 F1080.000
G1 X42.201 Y129.054 E1.22905
G1 X42.755 Y129.031 E1.27941
G1 X91.323 Y128.441 E5.69604
G1 X149.705 Y128.442 E11.00470
G1 X177.549 Y129.041 E13.53712 F1080.000
G1 X178.746 Y129.168 E13.64657
G1 X178.957 Y129.208 E13.66606
G1 X180.255 Y129.580 E13.78886
G1 X182.916 Y130.677 E14.05057
G1 X184.273 Y131.417 E14.19112
G1 X184.408 Y131.511 E14.20606
G1 X185.674 Y132.628 E14.35956
G1 X185.775 Y132.741 E14.37341
G1 X186.675 Y133.989 E14.51335
G1 X187.149 Y134.935 E14.60951
G1 X188.355 Y137.929 E14.90304
G1 X188.398 Y138.070 E14.91639
G1 X188.687 Y139.526 E15.05139
G1 X188.727 Y140.636 E15.15234
G1 X187.940 Y160.561 E16.96553
G1 X187.659 Y162.007 E17.09950
G1 X187.374 Y162.829 E17.17865
G1 X185.965 Y166.057 E17.49884
G1 X185.892 Y166.182 E17.51200
G1 X184.886 Y167.524 E17.66456
G1 X184.784 Y167.631 E17.67799
G1 X183.639 Y168.609 E17.81492
G1 X183.503 Y168.703 E17.82994
G1 X182.166 Y169.430 E17.96838
G1 X179.454 Y170.545 E18.23501
G1 X178.165 Y170.906 E18.35670
G1 X177.027 Y171.053 E18.46100
G1 X176.519 Y171.076 E18.50726
G1 X149.425 Y171.559 E20.97127
G1 X91.246 Y171.559 E26.26152
G1 X45.809 Y171.066 E30.39331
G1 X44.612 Y170.939 E30.50274
G1 X44.401 Y170.899 E30.52225
G1 X43.115 Y170.532 E30.64389
G1 X40.441 Y169.430 E30.90687
G1 X39.085 Y168.691 E31.04732
G1 X38.950 Y168.597 E31.06228
G1 X37.823 Y167.631 E31.19721
G1 X37.722 Y167.524 E31.21064
G1 X36.695 Y166.148 E31.36672
G1 X36.209 Y165.181 E31.46513
G1 X35.004 Y162.190 E31.75833
G1 X34.745 Y161.148 E31.85597
G1 X31.310 Y141.163 E33.69988
G1 X31.296 Y141.002 E33.71459
G1 X31.299 Y139.680 E33.83476
G1 X31.313 Y139.526 E33.84882
G1 X31.602 Y138.070 E33.98380
G1 X31.877 Y137.287 E34.05926
G1 X33.252 Y134.117 E34.37346
G1 X33.325 Y133.989 E34.38684
G1 X34.225 Y132.741 E34.52672
G1 X34.326 Y132.628 E34.54057
G1 X35.592 Y131.511 E34.69406
G1 X35.727 Y131.417 E34.70900
G1 X37.084 Y130.677 E34.84957
G1 X39.696 Y129.599 E35.10650
G1 X39.972 Y130.162 F7800.000
G1 X41.159 Y129.822 E35.21872 F1080.000
G1 X42.235 Y129.678 E35.31748
G1 X42.762 Y129.655 E35.36545
G1 X91.323 Y129.066 E39.78140
G1 X149.692 Y129.067 E45.08884
G1 X177.515 Y129.665 E47.61940 F1080.000
G1 X178.631 Y129.783 E47.72138
G1 X178.841 Y129.822 E47.74086
G1 X180.028 Y130.162 E47.85308
G1 X182.677 Y131.254 E48.11364
G1 X183.917 Y131.931 E48.24207
G1 X184.052 Y132.024 E48.25701
G1 X185.208 Y133.045 E48.39728
G1 X185.310 Y133.158 E48.41113
G1 X186.133 Y134.299 E48.53900
G1 X186.572 Y135.174 E48.62803
G1 X187.757 Y138.113 E48.91621
G1 X187.801 Y138.254 E48.92957
G1 X188.065 Y139.584 E49.05292
G1 X188.103 Y140.611 E49.14639
G1 X187.317 Y160.505 E50.95668
G1 X187.061 Y161.826 E51.07910
G1 X186.796 Y162.590 E51.15260
G1 X185.425 Y165.742 E51.46514
G1 X185.353 Y165.867 E51.47830
G1 X184.433 Y167.094 E51.61771
G1 X184.331 Y167.201 E51.63114
G1 X183.285 Y168.095 E51.75627
G1 X183.149 Y168.188 E51.77128
G1 X181.926 Y168.853 E51.89779
G1 X179.230 Y169.962 E52.16287
G1 X178.053 Y170.291 E52.27407
G1 X176.994 Y170.429 E52.37111
G1 X176.508 Y170.451 E52.41539
G1 X149.425 Y170.934 E54.87838
G1 X91.252 Y170.934 E60.16803
G1 X45.843 Y170.442 E64.29735
G1 X44.728 Y170.325 E64.39931
G1 X44.517 Y170.285 E64.41881
G1 X43.341 Y169.949 E64.52997
G1 X40.680 Y168.853 E64.79170
G1 X39.441 Y168.177 E64.92003
G1 X39.306 Y168.083 E64.93500
G1 X38.276 Y167.201 E65.05830
G1 X38.175 Y167.094 E65.07173
G1 X37.237 Y165.836 E65.21435
G1 X36.786 Y164.942 E65.30541
G1 X35.601 Y162.006 E65.59329
G1 X35.361 Y161.042 E65.68368
G1 X31.933 Y141.107 E67.52293
G1 X31.918 Y140.946 E67.53764
G1 X31.935 Y139.584 E67.66146
G1 X32.199 Y138.254 E67.78481
G1 X32.454 Y137.526 E67.85491
G1 X33.795 Y134.426 E68.16198
G1 X33.868 Y134.299 E68.17536
G1 X34.690 Y133.158 E68.30318
G1 X34.791 Y133.045 E68.31703
G1 X35.948 Y132.024 E68.45729
G1 X36.083 Y131.931 E68.47223
G1 X37.323 Y131.254 E68.60068
G1 X39.923 Y130.181 E68.85646
G1 F1800.000 E67.85646
G92 E0
G1 X75.725 Y155.107 F7800.000
G1 E1.00000 F1800.000
G1 X74.691 Y156.188 E1.13605 F540.000
G1 X74.183 Y156.561 E1.19334
G1 X72.986 Y156.650 E1.30253
G1 X69.354 Y156.650 E1.63279
G1 X69.354 Y153.566 E1.91319
G1 X72.330 Y153.566 E2.18382
G1 X73.231 Y153.608 E2.26583
G1 X74.256 Y153.759 E2.36008
G1 X74.666 Y154.060 E2.40632
G1 X75.688 Y155.070 E2.53696
G1 X74.849 Y155.119 F7800.000
G1 X74.277 Y155.717 E2.61217 F378.000
G1 X73.958 Y155.952 E2.64818
G1 X72.963 Y156.025 E2.73892
G1 X69.979 Y156.025 E3.01026
G1 X69.979 Y154.191 E3.17702
G1 X72.315 Y154.191 E3.38950
G1 X73.171 Y154.231 E3.46736
G1 X74.012 Y154.355 E3.54465
G1 X74.259 Y154.537 E3.57260
G1 X74.811 Y155.082 E3.64318
G1 X69.354 Y147.346 F7800.000
G1 X69.354 Y143.457 E3.99675 F540.000
G1 X74.621 Y143.457 E4.47574
G1 X75.685 Y143.519 E4.57265
G1 X76.385 Y144.122 E4.65661
G1 X76.899 Y144.695 E4.72663
G1 X76.942 Y145.312 E4.78292
G1 X76.901 Y145.769 E4.82465
G1 X76.394 Y146.360 E4.89542
G1 X75.775 Y146.893 E4.96978
G1 X75.528 Y147.050 E4.99630
G1 X74.751 Y147.198 E5.06827
G1 X73.634 Y147.309 E5.17037
G1 X72.411 Y147.346 E5.28161
G1 X69.406 Y147.346 E5.55482
G1 X69.979 Y146.721 F7800.000
G1 X69.979 Y144.082 E5.79474 F378.000
G1 X74.603 Y144.082 E6.21527
G1 X75.438 Y144.131 E6.29127
G1 X75.946 Y144.569 E6.35235
G1 X76.291 Y144.953 E6.39920
G1 X76.315 Y145.306 E6.43145
G1 X76.297 Y145.514 E6.45045
G1 X75.951 Y145.917 E6.49871
G1 X75.401 Y146.390 E6.56465
G1 X75.294 Y146.458 E6.57619
G1 X74.661 Y146.579 E6.63478
G1 X73.593 Y146.685 E6.73238
G1 X72.401 Y146.721 E6.84080
G1 X70.031 Y146.721 E7.05634
G1 X86.181 Y147.905 F7800.000
G1 X86.541 Y146.388 E7.19813 F540.000
G1 X87.632 Y144.869 E7.36818
G1 X88.982 Y143.585 E7.53758
G1 X89.846 Y143.031 E7.63094
G1 X91.322 Y142.862 E7.76602
G1 X92.954 Y143.045 E7.91535
G1 X93.980 Y143.760 E8.02907 F540.000
G1 X95.255 Y145.175 E8.20223
G1 X96.100 Y146.540 E8.34827
G1 X96.457 Y148.060 E8.49019
G1 X96.600 Y150.000 E8.66711
G1 X96.457 Y151.933 E8.84332
G1 X96.102 Y153.440 E8.98410
G1 X95.256 Y154.806 E9.13024
G1 X93.982 Y156.228 E9.30382
G1 X92.945 Y156.955 E9.41897
G1 X91.322 Y157.139 E9.56749
G1 X89.777 Y156.961 E9.70889
G1 X88.817 Y156.317 E9.81404
G1 X87.502 Y154.961 E9.98580
G1 X86.531 Y153.511 E10.14448
G1 X86.179 Y152.042 E10.28186
G1 X86.028 Y150.000 E10.46803
G1 X86.177 Y147.957 E10.65428
G1 X86.804 Y147.951 F7800.000
G1 X87.120 Y146.654 E10.77569 F378.000
G1 X88.105 Y145.281 E10.92934
G1 X89.369 Y144.079 E11.08797
G1 X90.061 Y143.635 E11.16271
G1 X91.147 Y143.511 E11.26210
G1 X91.323 Y143.490 E11.27817 F378.000
G1 X92.727 Y143.648 E11.40664
G1 X93.564 Y144.232 E11.49942
G1 X94.753 Y145.551 E11.66095
G1 X95.515 Y146.782 E11.79261
G1 X95.838 Y148.155 E11.92080
G1 X95.974 Y150.000 E12.08904
G1 X95.838 Y151.837 E12.25655
G1 X95.517 Y153.197 E12.38361
G1 X94.754 Y154.430 E12.51549
G1 X93.565 Y155.758 E12.67751
G1 X92.717 Y156.352 E12.77165
G1 X91.323 Y156.510 E12.89923
G1 X90.000 Y156.358 E13.02034
G1 X89.220 Y155.835 E13.10570
G1 X87.990 Y154.566 E13.26637
G1 X87.112 Y153.257 E13.40973
G1 X86.798 Y151.946 E13.53230
G1 X86.655 Y150.000 E13.70970
G1 X86.801 Y148.003 E13.89174
G1 F1800.000 E12.89174
G92 E0
G1 X100.985 Y143.088 F7800.000
G1 E1.00000 F1800.000
G1 X102.869 Y143.449 E1.17443 F540.000
G1 X104.220 Y143.457 E1.29726
G1 X104.220 Y146.754 E1.59707
G1 X102.447 Y146.996 E1.75974
G1 X102.186 Y146.055 E1.84860
G1 X101.005 Y143.137 E2.13484
G1 X101.995 Y143.918 F7800.000
G1 X102.793 Y144.070 E2.20873 F378.000
G1 X103.595 Y144.082 E2.28166
G1 X103.595 Y146.209 E2.47505
G1 X102.903 Y146.303 E2.53853
G1 X102.778 Y145.853 E2.58102
G1 X102.015 Y143.966 E2.76611
G1 F1800.000 E1.76611
G92 E0
G1 X102.452 Y152.976 F7800.000
G1 E1.00000 F1800.000
G1 X104.220 Y153.221 E1.16233 F540.000
G1 X104.220 Y156.650 E1.47413
G1 X102.859 Y156.658 E1.59784
G1 X100.915 Y156.997 E1.77727
G1 X102.177 Y153.946 E2.07747
G1 X102.437 Y153.026 E2.16441
G1 X102.905 Y153.669 F7800.000
G1 X103.595 Y153.765 E2.22776 F378.000
G1 X103.595 Y156.025 E2.43324
G1 X102.790 Y156.036 E2.50649
G1 X101.928 Y156.186 E2.58604
G1 X102.769 Y154.151 E2.78627
G1 X102.891 Y153.720 E2.82702
G1 F1800.000 E1.82702
G92 E0
G1 X145.023 Y148.064 F7800.000
G1 E1.00000 F1800.000
G1 X146.225 Y145.163 E1.28558 F378.000
G1 X146.275 Y144.852 E1.31425
G1 X146.406 Y144.672 E1.33443
G1 X147.185 Y143.931 E1.43222
G1 X147.525 Y143.713 E1.46895
G1 X148.164 Y143.579 E1.52836
G1 X149.551 Y143.492 E1.65471
G1 X150.937 Y143.583 E1.78100
G1 X151.410 Y143.689 E1.82506
G1 X151.873 Y144.011 E1.87632
G1 X152.612 Y144.769 E1.97265
G1 X152.666 Y145.260 E2.01751
G1 X152.641 Y145.619 E2.05028
G1 X152.104 Y146.111 E2.11648
G1 X151.927 Y146.231 E2.13600
G1 X150.896 Y146.451 E2.23188
G1 X149.653 Y146.678 E2.34674
G1 X147.935 Y147.028 E2.50614
G1 X146.493 Y147.455 E2.64289
G1 X145.071 Y148.044 E2.78285
G1 X153.691 Y152.608 F7800.000
G1 X152.507 Y155.468 E3.06432 F540.000
G1 X152.419 Y155.863 E3.10108
G1 X151.545 Y156.697 E3.21101
G1 X151.157 Y156.958 E3.25349
G1 X150.740 Y157.050 E3.29233
G1 X149.479 Y157.134 E3.40725
G1 X148.158 Y157.045 E3.52759
G1 X147.764 Y156.954 E3.56441
G1 X147.247 Y156.589 E3.62195
G1 X146.478 Y155.795 E3.72244
G1 X146.371 Y154.809 E3.81257
G1 X146.958 Y154.239 E3.88699
G1 X147.437 Y153.868 E3.94207
G1 X148.753 Y153.589 E4.06442
G1 X151.002 Y153.190 E4.27216
G1 X153.640 Y152.619 E4.51754
G1 X152.657 Y153.471 F7800.000
G1 X151.908 Y155.280 E4.69556 F378.000
G1 X151.850 Y155.542 E4.71993
G1 X151.152 Y156.208 E4.80772
G1 X150.906 Y156.373 E4.83462
G1 X150.651 Y156.430 E4.85842
G1 X149.479 Y156.508 E4.96518
G1 X148.250 Y156.425 E5.07721
G1 X148.024 Y156.373 E5.09834
G1 X147.655 Y156.112 E5.13935
G1 X147.076 Y155.514 E5.21505
G1 X147.025 Y155.045 E5.25798
G1 X147.368 Y154.711 E5.30145
G1 X147.711 Y154.446 E5.34085
G1 X148.868 Y154.203 E5.44838
G1 X151.123 Y153.803 E5.65668
G1 X152.606 Y153.482 E5.79461
G1 X155.182 Y152.172 F7800.000
G1 X157.088 Y150.822 E6.00706 F540.000
G1 X157.517 Y150.410 E6.06115
G1 X157.868 Y149.946 E6.11401
G1 X158.159 Y149.412 E6.16936
G1 X158.493 Y148.605 E6.24873
G1 X160.143 Y148.933 E6.40168
G1 X160.143 Y154.732 E6.92900
G1 X158.493 Y155.061 E7.08195
G1 X157.735 Y153.230 E7.26214
G1 X155.230 Y152.192 E7.50870
G1 X156.466 Y152.028 F7800.000
G1 X157.487 Y151.305 E7.62248 F378.000
G1 X157.986 Y150.826 E7.68530
G1 X158.394 Y150.286 E7.74690
G1 X158.724 Y149.682 E7.80949
G1 X158.875 Y149.318 E7.84526
G1 X159.518 Y149.446 E7.90495
G1 X159.518 Y154.220 E8.33900
G1 X158.875 Y154.348 E8.39869
G1 X158.260 Y152.863 E8.54481
G1 X158.208 Y152.789 E8.55306
G1 X158.087 Y152.699 E8.56673
G1 X156.515 Y152.048 E8.72147
G1 F1800.000 E7.72147
G92 E0
G1 X166.346 Y147.363 F7800.000
G1 E1.00000 F1800.000
G1 X166.346 Y143.381 E1.36208 F540.000
G1 X168.969 Y142.294 E1.62030
G1 X171.591 Y143.380 E1.87835
G1 X171.591 Y147.363 E2.24049
G1 X166.398 Y147.363 E2.71269
G1 X166.971 Y146.738 F7800.000
G1 X166.971 Y143.798 E2.97998 F378.000
G1 X168.969 Y142.970 E3.17670
G1 X170.966 Y143.798 E3.37324
G1 X170.966 Y146.738 E3.64060
G1 X167.023 Y146.738 E3.99916
G1 X166.346 Y153.565 F7800.000
G1 X171.591 Y153.565 E4.47613 F540.000
G1 X171.591 Y156.724 E4.76338
G1 X168.978 Y157.807 E5.02059
G1 X166.346 Y156.716 E5.27965
G1 X166.346 Y153.618 E5.56142
G1 X166.971 Y154.190 F7800.000
G1 X170.966 Y154.190 E5.92475 F378.000
G1 X170.966 Y156.307 E6.11721
G1 X168.978 Y157.130 E6.31292
G1 X166.971 Y156.299 E6.51048
G1 X166.971 Y154.243 E6.69746
G1 F1800.000 E5.69746
G92 E0
G1 X177.812 Y157.161 F7800.000
G1 E1.00000 F1800.000
G1 X178.854 Y157.593 E1.10259 F540.000
G1 X179.747 Y159.749 E1.31481
G1 X178.857 Y161.898 E1.52639
G1 X176.599 Y162.831 E1.74853
G1 X176.364 Y162.852 E1.76999
G1 X171.800 Y162.843 E2.18501
G1 X171.654 Y162.801 E2.19885
G1 X168.969 Y161.689 E2.46303
G1 X166.282 Y162.802 E2.72752
G1 X166.145 Y162.844 E2.74053
G1 X161.423 Y162.843 E3.16992
G1 X161.277 Y162.801 E3.18370
G1 X159.031 Y161.870 E3.40475
G1 X158.344 Y161.401 E3.48043
G1 X157.788 Y161.928 E3.55013
G1 X155.585 Y162.841 E3.76700
G1 X153.868 Y162.130 E3.93600
G1 X152.038 Y162.888 E4.11610
G1 X150.777 Y163.221 E4.23467
G1 X149.421 Y163.332 E4.35843
G1 X148.106 Y163.237 E4.47827
G1 X146.938 Y162.955 E4.58753
G1 X144.671 Y162.016 E4.81064
G1 X143.605 Y161.533 E4.91706
G1 X142.742 Y160.907 E5.01401
G1 X142.054 Y160.161 E5.10630
G1 X141.557 Y159.336 E5.19385
G1 X140.624 Y157.084 E5.41553
G1 X140.317 Y156.164 E5.50374
G1 X140.221 Y155.227 E5.58934
G1 X140.305 Y154.306 E5.67348
G1 X140.570 Y153.462 E5.75384
G1 X141.499 Y151.219 E5.97463
G1 X141.911 Y150.539 E6.04694
G1 X142.469 Y149.987 E6.11828
G1 X143.339 Y149.438 E6.21179
G1 X146.702 Y148.045 E6.54282
G1 X148.087 Y147.635 E6.67412
G1 X149.771 Y147.292 E6.83047
G1 X151.017 Y147.064 E6.94560
G1 X152.177 Y146.817 E7.05342
G1 X152.493 Y146.602 E7.08818
G1 X153.248 Y145.911 E7.18122
G1 X153.293 Y145.247 E7.24179
G1 X153.210 Y144.487 E7.31129
G1 X152.279 Y143.531 E7.43262
G1 X151.666 Y143.106 E7.50048
G1 X151.026 Y142.963 E7.56007
G1 X149.552 Y142.866 E7.69438
G1 X148.080 Y142.958 E7.82849
G1 X147.284 Y143.125 E7.90249
G1 X146.797 Y143.438 E7.95507
G1 X145.934 Y144.258 E8.06335
G1 X145.669 Y144.621 E8.10423
G1 X145.629 Y144.969 E8.13607
G1 X144.068 Y148.736 E8.50683
G1 X140.391 Y147.213 E8.86874
G1 X139.471 Y144.980 E9.08838
G1 X139.449 Y144.725 E9.11158
G1 X139.449 Y142.083 E9.35190
G1 X136.172 Y143.437 E9.67425
G1 X135.955 Y143.457 E9.69413
G1 X133.189 Y143.457 E9.94564
G1 X133.189 Y156.650 E11.14524
G1 X135.957 Y156.650 E11.39691
G1 X136.193 Y156.671 E11.41852
G1 X138.427 Y157.592 E11.63825
G1 X139.321 Y159.749 E11.85056
G1 X138.430 Y161.899 E12.06222
G1 X136.252 Y162.802 E12.27664
G1 X136.114 Y162.844 E12.28976
G1 X124.220 Y162.852 E13.37121
G1 X124.003 Y162.833 E13.39102
G1 X121.746 Y161.899 E13.61315
G1 X120.855 Y159.749 E13.82481
G1 X121.749 Y157.592 E14.03712
G1 X123.982 Y156.671 E14.25682
G1 X124.219 Y156.650 E14.27840
G1 X126.986 Y156.650 E14.53006
G1 X126.986 Y143.457 E15.72965
G1 X124.064 Y143.449 E15.99536
G1 X123.923 Y143.406 E16.00876
G1 X121.924 Y142.578 E16.20556
G1 X121.924 Y147.046 E16.61182
G1 X121.904 Y147.269 E16.63216
G1 X120.976 Y149.514 E16.85308
G1 X118.953 Y150.351 E17.05213
G1 X118.953 Y150.465 E17.06247
G1 X116.654 Y149.513 E17.28875
G1 X115.754 Y147.340 E17.50258
G1 X115.712 Y147.203 E17.51564
G1 X115.704 Y143.457 E17.85623
G1 X110.440 Y143.457 E18.33484
G1 X110.440 Y156.650 E19.53443
G1 X111.637 Y156.650 E19.64321
G1 X111.873 Y156.671 E19.66478
G1 X114.107 Y157.592 E19.88448
G1 X114.946 Y159.617 E20.08377
G1 X115.055 Y159.617 E20.09374
G1 X114.109 Y161.899 E20.31842
G1 X111.852 Y162.833 E20.54055
G1 X111.635 Y162.852 E20.56036
G1 X103.025 Y162.852 E21.34323
G1 X102.808 Y162.833 E21.36304
G1 X100.551 Y161.899 E21.58517
G1 X99.603 Y159.611 E21.81040
G1 X97.701 Y161.096 E22.02984
G1 X96.732 Y161.656 E22.13155
G1 X93.398 Y163.019 E22.45908
G1 X92.380 Y163.254 E22.55408
G1 X91.340 Y163.331 E22.64890
G1 X89.780 Y163.161 E22.79162
G1 X88.260 Y162.631 E22.93802
G1 X86.007 Y161.698 E23.15970
G1 X84.611 Y160.830 E23.30918
G1 X83.311 Y159.614 E23.47103
G1 X81.220 Y156.753 E23.79331
G1 X80.274 Y159.036 E24.01806
G1 X79.811 Y159.800 E24.09929
G1 X79.163 Y160.502 E24.18618
G1 X78.371 Y161.100 E24.27640
G1 X77.411 Y161.556 E24.37306
G1 X75.147 Y162.493 E24.59586
G1 X74.093 Y162.760 E24.69473
G1 X72.877 Y162.852 E24.80562
G1 X63.511 Y162.852 E25.65726
G1 X63.294 Y162.833 E25.67703
G1 X61.035 Y161.899 E25.89930
G1 X60.145 Y159.749 E26.11092
G1 X61.038 Y157.592 E26.32318
G1 X63.151 Y156.717 E26.53116
G1 X63.151 Y146.422 E27.46723
G1 X61.469 Y146.116 E27.62267
G1 X56.175 Y160.142 E28.98598
